/* XPM */
static char *_5f04b1818254e4ae20bf4b71e19b709PaH1y7QoY4KleNgO[] = {
/* columns rows colors chars-per-pixel */
"64 64 101 2 ",
"   c #010101",
".  c #040302",
"X  c #060403",
"o  c #0A0000",
"O  c #0D0000",
"+  c #0F0302",
"@  c #090505",
"#  c #0A0806",
"$  c #110302",
"%  c #120502",
"&  c #150603",
"*  c #110505",
"=  c #160A05",
"-  c #170C05",
";  c #180C05",
":  c #1D1007",
">  c #1F160A",
",  c #181212",
"<  c #23170C",
"1  c #201A0D",
"2  c #261B0E",
"3  c #231C0F",
"4  c #281C0F",
"5  c #231915",
"6  c #2B1E11",
"7  c #251E18",
"8  c #2A1E18",
"9  c #2B1F1C",
"0  c #2A2113",
"q  c #2F2113",
"w  c #2B2315",
"e  c #2B201B",
"r  c #2C211D",
"t  c #312315",
"y  c #332416",
"u  c #352A17",
"i  c #3A2A17",
"p  c #272323",
"a  c gray14",
"s  c #2A2525",
"d  c #2F2A2A",
"f  c #413530",
"g  c #594021",
"h  c #5D4324",
"j  c #5C4537",
"k  c #6B4E27",
"l  c #6F5028",
"z  c #715229",
"x  c #73552A",
"c  c #75552A",
"v  c #78582B",
"b  c #7B5B2C",
"n  c #7C5B2C",
"m  c #7F5E2E",
"M  c #634B3A",
"N  c #805E2E",
"B  c #82602E",
"V  c #85622F",
"C  c #866330",
"Z  c #8E6732",
"A  c #8F6833",
"S  c #926B34",
"D  c #966E35",
"F  c #977035",
"G  c #997136",
"H  c #9C7237",
"J  c #9D7537",
"K  c #9C7338",
"L  c #9B7438",
"P  c #9F7638",
"I  c #A1773A",
"U  c #A27839",
"Y  c #A57A3A",
"T  c #A77C3B",
"R  c #A87C3B",
"E  c #AB7E3C",
"W  c #81614A",
"Q  c #83634C",
"!  c #85664F",
"~  c #97765D",
"^  c #98765D",
"/  c #AE803D",
"(  c #B2833E",
")  c #B78640",
"_  c #BB8942",
"`  c #BC8A42",
"'  c #BE8C43",
"]  c #B98F71",
"[  c #B99073",
"{  c #BB9376",
"}  c #BC9377",
"|  c #BD957A",
" . c #C08D43",
".. c #C08E44",
"X. c #C38F45",
"o. c #C39045",
"O. c #C69246",
"+. c #C89346",
"@. c #C89446",
"#. c #CD9848",
"$. c white",
/* pixels */
"Q Q Q Q Q Q Q Q Q Q Q Q Q Q Q Q Q Q Q Q Q Q Q Q Q Q Q Q Q Q Q Q Q Q Q Q Q Q Q Q Q Q Q Q Q Q Q Q Q Q Q Q Q Q Q Q Q Q Q Q Q Q Q Q ",
"Q Q Q Q Q Q Q Q Q Q Q Q Q Q Q Q Q Q Q Q Q Q Q Q Q Q Q Q Q Q Q Q Q Q Q Q Q Q Q Q Q Q Q Q Q Q Q Q Q Q Q Q Q Q Q Q Q Q Q Q Q Q Q Q ",
"Q Q Q Q Q Q Q Q Q Q Q Q Q Q Q Q Q Q Q Q Q Q Q Q Q Q Q Q Q Q Q Q Q Q Q Q Q Q Q Q Q Q Q Q Q Q Q Q Q Q Q Q Q Q Q Q Q Q Q Q Q Q Q Q ",
"Q Q Q Q Q Q Q Q Q Q Q Q Q Q Q Q Q Q Q Q Q Q Q Q Q Q Q Q Q Q Q Q Q Q Q Q Q Q Q Q Q Q Q Q Q Q Q Q Q Q Q Q Q Q Q Q Q Q Q Q Q Q Q Q ",
"Q Q Q Q ] ] ] ] ] ] ] ] ] ] ] ] ] ] ] ] ] ] ] ] ] ] ] ] ] ] ] ] ] ] ] ] ] ] ] ] ] ] ] ] ] ] ] ] ] ] ] ] ] ] ] ] ] ] ] ] Q Q Q Q ",
"Q Q Q Q ] ] ] ] ] ] ] ] ] ] ] ] ] ] ] ] ] ] ] ] ] ] ] ] ] ] ] ] ] ] ] ] ] ] ] ] ] ] ] ] ] ] ] ] ] ] ] ] ] ] ] ] ] ] ] ] Q Q Q Q ",
"Q Q Q Q ] ] ] ] ] ] ] ] ] ] ] ] ] ] ] ] ] ] ] ] ] ] ] ] ] ] ] ] ] ] ] ] ] ] ] ] ] ] ] ] ] ] ] ] ] ] ] ] ] ] ] ] ] ] ] ] Q Q Q Q ",
"Q Q Q Q ] ] ] ] ] ] ] ] ] ] ] ] ] ] ] ] ] ] ] ] ] ] ] ] ] ] ] ] ] ] ] ] ] ] ] ] ] ] ] ] ] ] ] ] ] ] ] ] ] ] ] ] ] ] ] ] Q Q Q Q ",
"Q Q Q Q ] ] ] ] ] ] ] ] ] ] ] ] ] ] ] ] ] ] ] ] ] ] ] ] ] ] ] ] ] ] ] ] ] ] ] ] ] ] ] ] ] ] ] ] ] ] ] ] ] ] ] ] ] ] ] ] Q Q Q Q ",
"Q Q Q Q ] ] ] ] ] ] ] ] ] ] ] ] ] ] ] ] ] ] ] ] ] ] ] ] ] ] ] ] ] ] ] ] ] ] ] ] ] ] ] ] ] ] ] ] ] ] ] ] ] ] ] ] ] ] ] ] Q Q Q Q ",
"Q Q Q Q ] ] ] ] ] ] ] ] ] ] ] ] ] ] ] ] ] ] ] ] ] ] ] ] ] ] ] ] ] ] ] ] ] ] ] ] ] ] ] ] ] ] ] ] ] ] ] ] ] ] ] ] ] ] ] ] Q Q Q Q ",
"Q Q Q Q ] ] ] ] ] ] ] ] ] ] ] ] ] ] ] ] ] ] ] ] ] ] ] ] ] ] ] ] ] ] ] ] ] ] ] ] ] ] ] ] ] ] ] ] ] ] ] ] ] ] ] ] ] ] ] ] Q Q Q Q ",
"Q Q Q Q Q Q Q Q Q Q Q Q Q Q Q Q Q Q Q Q Q Q Q X                                   X Q Q Q Q Q Q Q Q Q Q Q Q Q Q Q Q Q Q Q Q Q Q ",
"Q Q Q Q Q Q Q Q Q Q Q Q Q Q Q Q Q Q Q Q Q Q Q . O O O O O O O O O O O O O O O O O $ Q Q Q Q Q Q Q Q Q Q Q Q Q Q Q Q Q Q Q Q Q Q ",
"Q Q Q Q Q Q Q Q Q Q Q Q W 8 8 8 8 8 8 8 8 8 e o O O O O O O O O O O O O O O O O O O 8 8 8 8 8 8 8 8 8 f Q Q Q Q Q Q Q Q Q Q Q Q ",
"Q Q Q Q Q Q Q Q Q Q Q Q W O O O O O O O O O O O O O O O O O O O O O O O O O O O O O O O O O O O O O O d Q Q Q Q Q Q Q Q Q Q Q Q ",
"Q Q Q Q ] ] ] ] ] ] ] ] ] O O O O O O O O O O . . .       o O O o             . . . O O O O O O O O O d ] ] ] ] ] ] ] ] Q Q Q Q ",
"Q Q Q Q ] ] ] ] ] ] 7 # # O O O O O O O O O & Y P H @.@.#.1 O % c @.@.@.@.@.@.P P H   O O O O O O O O O # # # ] ] ] ] ] Q Q Q Q ",
"Q Q Q Q ] ] ] ] ] ] # O O O O O O O O O O O & P G D o...O.1 O % z ............G G D   O O O O O O O O O O O O ] ] ] ] ] Q Q Q Q ",
"Q Q Q Q ] ] ] ^ ^ ^ @ O O 6 4 4 6 q q q q q y J G G P P I > O $ h P P L _ _ _ I I P 0 q q q q q q 4 4 2 o O O ^ ^ ~ ] ] Q Q Q Q ",
"Q Q Q Q ] ] ] O O O O O & Y G G / ..........' F G Y   O O O O O O O O   D G F ....................G G A . O O O O . ] ] Q Q Q Q ",
"Q Q Q Q ] ] ] O O O O O & Y G G / ..........' F G Y   O O O O O O O O   D G F ....................G G A . O O O O . ] ] Q Q Q Q ",
"Q Q Q Q r 8 8 O O o C N B ' _ _ ' .........._ 1 2 3 C N m K I I I I I P _ _ _ ...................._ _ ) m N C   O O 9 8 5 M Q Q ",
"Q Q Q Q * O O O O . P G G O................._   O   U G G ` ..........................................' G G P   O O O O O j Q Q ",
"Q Q Q Q * O O O O . P G G O................._       R P P ..+.+.+.+.+.+.+.+.@.........................' G G P   O O O O O j Q Q ",
"Q Q Q Q $.$.$.O O . P G G O.................' J J E   . .                     ........................' G G P   O O O O O j Q Q ",
"Q Q Q Q $.$.$.$.O . P G G ..................' F G Y   O O O O O O O O O O O   ........................' G G P   O O O O O j Q Q ",
"Q Q Q Q * O $.$.$.$.$.$.c ` ) ) ` .......... .U U / w t y & O O < t t t i i u ....................) ) ( x c b   O O O O O j Q Q ",
"Q Q Q Q * O O $.$.$.$.$.$.$.G G / ................O.D G J > O $ g G G D ..........................G G A . O O O O O O O O j Q Q ",
"Q Q Q Q * O O O O O $.$.$.$.$.$.( O.O.O.O.O.O.....O.D G J : . o g G G D ............O.O.O.O.O.O.O.J J S   o o O O O O O O j Q Q ",
"Q Q Q Q * O O O O o b v c $.$.$.$.$.$.      O P G F G G G J P P G G G G G G G G G D   .           . . % b v b   O O O O O j Q Q ",
"Q Q Q Q * O O O O o v c z   O $.$.$.$.$.$.O & P G G G G G G G G G G G G G G G G G D   O O O O O O O O = v c v   O O O O O j Q Q ",
"Q Q Q Q       O O o B m b         $.$.$.$.$.$./ Y Y Y Y Y Y Y Y Y Y Y Y Y Y Y Y Y U                   o B m B   O O       j Q Q ",
"Q Q Q Q ] ] ] O O O O O % b x x C F $.$.$.$.$.$.$.$.$.$.O O O O O O O O O O O O O % T G G G G G D c x k o O O O O . ] ] Q Q Q Q ",
"Q Q Q Q ] ] ] * O O O O % b x x V D D D $.$.$.$.$.$.$.$.$.$.$.O O O O O O O O O O & Y F D D D D D x x k . O O O O o ] ] Q Q Q Q ",
"Q Q Q Q ] ] ] ] ] ] . O O ; - - ; ; ; ; ; ; > l $.$.$.$.$.$.$.$.$.A A Z Z Z A k k k - : ; ; ; ; ; - - = O O . ] ] ] { ] Q ! Q Q ",
"Q Q Q Q ] ] ] ] ] ] . O O O O O O O O O O O % v c z G $.$.$.$.$.$.$.$.G G G G c c z   O O O O O O O O O O O . ] ] ] ] ] Q Q Q Q ",
"Q Q Q Q ] ] ] ] ] ]   . . O O O O O O O O O % n v c I J J J J $.$.$.$.$.$.$.I v v c   O O O O O O O O O . .   ] ] ] ] ] Q Q Q Q ",
"Q Q Q Q ] ] ] ] ] ] ] ] ]   O O O O O O O O O . . .                 $.$.$.$.$.$.$.$.$.$.O O O O O O O , ] ] ] ] ] ] ] ] Q Q Q Q ",
"Q Q Q Q ] ] ] ] ] ] ] ] ]   O O O O O O O O O O O O O O O O O O O O O O O O O $.$.$.$.$.$.$.$.$.$.O O , ] ] ] ] ] ] ] ] Q Q Q Q ",
"Q Q Q Q ] ] ] ] ] ] ] ] ] a p p p p p p p p p o O O O O O O O O O O O O O O O O O O s p $.$.$.$.$.$.$.$.] ] ] ] ] ] ] ] Q Q Q Q ",
"Q Q Q Q ] ] ] ] ] ] ] ] ] ] ] ] ] ] ] ] ] ] ]   O O O O O O O O O O O O O O O O O * ] ] ] ] ] ] ] ] ] ] ] ] ] ] ] ] ] ] Q Q Q Q ",
"Q Q Q Q ] ] ] ] ] ] ] ] ] ] ] ] ] ] ] ] ] ] ]   o o o o o o o o o o o o o o o o o O ] ] ] ] ] ] ] ] ] ] ] ] ] ] ] ] ] ] Q Q Q Q ",
"Q Q Q Q ] ] ] ] ] ] ] ] ] ] ] ] ] ] ] { } } [ ] ] ] ] ] ] ] ] ] ] ] ] ] Q Q Q Q ] ] | ] ] [ ] ] ] ] ] ] ] ] ] ] ] ] ] ] Q Q Q Q ",
"Q Q Q Q Q Q Q Q Q Q Q Q Q Q Q Q Q Q Q Q Q Q Q Q Q Q Q Q Q Q Q Q Q Q Q Q Q Q Q Q Q Q Q Q Q Q Q Q Q Q Q Q Q Q Q Q Q Q Q Q Q Q Q Q ",
"Q Q Q Q Q Q Q Q Q Q Q Q Q Q Q Q Q Q Q Q Q Q Q Q Q Q Q Q Q Q Q Q Q Q Q Q Q Q Q Q Q Q Q Q Q Q Q Q Q Q Q Q Q Q Q Q Q Q Q Q Q Q Q Q ",
"Q Q Q Q Q Q Q Q Q Q Q Q Q Q Q Q Q Q Q Q Q Q Q Q Q Q Q Q Q Q Q Q Q Q Q Q Q Q Q Q Q Q Q Q Q Q Q Q Q Q Q Q Q Q Q Q Q Q Q Q Q Q Q Q ",
"Q Q Q Q Q Q Q Q Q Q Q Q Q Q Q Q Q Q Q Q Q Q Q Q Q Q Q Q Q Q Q Q Q Q Q Q Q Q Q Q Q Q Q Q Q Q Q Q Q Q Q Q Q Q Q Q Q Q Q Q Q Q Q Q ",
"Q Q Q Q ] ] ] ] ] ] ] ] ] ] ] ] ] ] ] ] ] ] ] ] ] ] ] ] ] ] ] ] ] ] ] ] ] ] ] ] ] ] ] ] ] ] ] ] ] ] ] ] ] ] ] ] ] ] ] ] Q Q Q Q ",
"Q Q Q Q ] ] ] ] ] ] ] ] ] ] ] ] ] ] ] ] ] ] ] ] ] ] ] ] ] ] ] ] ] ] ] ] ] ] ] ] ] ] ] ] ] ] ] ] ] ] ] ] ] ] ] ] ] ] ] ] Q Q Q Q ",
"Q Q Q Q ] ] ] ] ] ] ] ] ] ] ] ] ] ] ] ] ] ] ] ] ] ] ] ] ] ] ] ] ] ] ] ] ] ] ] ] ] ] ] ] ] ] ] ] ] ] ] ] ] ] ] ] ] ] ] ] Q Q Q Q ",
"Q Q Q Q ] ] ] ] ] ] ] ] ] ] ] ] ] ] ] ] ] ] ] ] ] ] ] ] ] ] ] ] ] ] ] ] ] ] ] ] ] ] ] ] ] ] ] ] ] ] ] ] ] ] ] ] ] ] ] ] Q Q Q Q ",
"Q Q Q Q ] ] ] ] ] ] ] ] ] ] ] ] ] ] ] ] ] ] ] ] ] ] ] ] ] ] ] ] ] ] ] ] ] ] ] ] ] ] ] ] ] ] ] ] ] ] ] ] ] ] ] ] ] ] ] ] Q Q Q Q ",
"Q Q Q Q ] ] ] ] ] ] ] ] ] ] ] ] ] ] ] ] ] ] ] ] ] ] ] ] ] ] ] ] ] ] ] ] ] ] ] ] ] ] ] ] ] ] ] ] ] ] ] ] ] ] ] ] ] ] ] ] Q Q Q Q ",
"Q Q Q Q ] ] ] ] ] ] ] ] ] ] ] ] ] ] ] ] ] ] ] ] ] ] ] ] ] ] ] ] ] ] ] ] ] ] ] ] ] ] ] ] ] ] ] ] ] ] ] ] ] ] ] ] ] ] ] ] Q Q Q Q ",
"Q Q Q Q ] ] ] ] ] ] ] ] ] ] ] ] ] ] ] ] ] ] ] ] ] ] ] ] ] ] ] ] ] ] ] ] ] ] ] ] ] ] ] ] ] ] ] ] ] ] ] ] ] ] ] ] ] ] ] ] Q Q Q Q ",
"Q Q Q Q ] ] ] ] ] ] ] ] ] ] ] ] ] ] ] ] ] ] ] ] ] ] ] ] ] ] ] ] ] ] ] ] ] ] ] ] ] ] ] ] ] ] ] ] ] ] ] ] ] ] ] ] ] ] ] ] Q Q Q Q ",
"Q Q Q Q ] ] ] ] ] ] ] ] ] ] ] ] ] ] ] ] ] ] ] ] ] ] ] ] ] ] ] ] ] ] ] ] ] ] ] ] ] ] ] ] ] ] ] ] ] ] ] ] ] ] ] ] ] ] ] ] Q Q Q Q ",
"Q Q Q Q ] ] ] ] ] ] ] ] ] ] ] ] ] ] ] ] ] ] ] ] ] ] ] ] ] ] ] ] ] ] ] ] ] ] ] ] ] ] ] ] ] ] ] ] ] ] ] ] ] ] ] ] ] ] ] ] Q Q Q Q ",
"Q Q Q Q ] ] ] ] ] ] ] ] ] ] ] ] ] ] ] ] ] ] ] ] ] ] ] ] ] ] ] ] ] ] ] ] ] ] ] ] ] ] ] ] ] ] ] ] ] ] ] ] ] ] ] ] ] ] ] ] Q Q Q Q ",
"Q Q Q Q Q Q Q Q Q Q Q Q Q Q Q Q Q Q Q Q Q Q Q Q Q Q Q Q Q Q Q Q Q Q Q Q Q Q Q Q Q Q Q Q Q Q Q Q Q Q Q Q Q Q Q Q Q Q Q Q Q Q Q Q ",
"Q Q Q Q Q Q Q Q Q Q Q Q Q Q Q Q Q Q Q Q Q Q Q Q Q Q Q Q Q Q Q Q Q Q Q Q Q Q Q Q Q Q Q Q Q Q Q Q Q Q Q Q Q Q Q Q Q Q Q Q Q Q Q Q ",
"Q Q Q Q Q Q Q Q Q Q Q Q Q Q Q Q Q Q Q Q Q Q Q Q Q Q Q Q Q Q Q Q Q Q Q Q Q Q Q Q Q Q Q Q Q Q Q Q Q Q Q Q Q Q Q Q Q Q Q Q Q Q Q Q ",
"Q Q Q Q Q Q Q Q Q Q Q Q Q Q Q Q Q Q Q Q Q Q Q Q Q Q Q Q Q Q Q Q Q Q Q Q Q Q Q Q Q Q Q Q Q Q Q Q Q Q Q Q Q Q Q Q Q Q Q Q Q Q Q Q "
};
