/* XPM */
static char *c150a4b5b96f4e7ff91f4383c292f6deEmCrby0QjFEDvA85[] = {
/* columns rows colors chars-per-pixel */
"64 64 100 2 ",
"   c #010101",
".  c #040000",
"X  c #060403",
"o  c #0A0000",
"O  c #0D0000",
"+  c #0F0302",
"@  c #090505",
"#  c #0A0806",
"$  c #110302",
"%  c #120502",
"&  c #150603",
"*  c #110505",
"=  c #160A05",
"-  c #170C05",
";  c #180C05",
":  c #1D1007",
">  c #1F160A",
",  c #181212",
"<  c #23170C",
"1  c #201A0D",
"2  c #261B0E",
"3  c #231C0F",
"4  c #281C0F",
"5  c #231915",
"6  c #2B1E11",
"7  c #251E18",
"8  c #2A1E18",
"9  c #2B1F1C",
"0  c #2A2113",
"q  c #2F2113",
"w  c #2B2315",
"e  c #2C211D",
"r  c #312315",
"t  c #332416",
"y  c #352A17",
"u  c #3A2A17",
"i  c #272323",
"p  c gray14",
"a  c #2A2525",
"s  c #2F2A2A",
"d  c #352F2F",
"f  c #413530",
"g  c #594021",
"h  c #5D4324",
"j  c #5C4537",
"k  c #694D26",
"l  c #6F5028",
"z  c #715229",
"x  c #73552A",
"c  c #75552A",
"v  c #78582B",
"b  c #7B5B2C",
"n  c #7C5B2C",
"m  c #7F5E2E",
"M  c #634B3A",
"N  c #805E2E",
"B  c #82602E",
"V  c #85622F",
"C  c #866330",
"Z  c #8E6732",
"A  c #8F6933",
"S  c #926A33",
"D  c #936B34",
"F  c #966E35",
"G  c #977035",
"H  c #997136",
"J  c #9C7237",
"K  c #9D7537",
"L  c #9C7338",
"P  c #9F7638",
"I  c #A1773A",
"U  c #A27839",
"Y  c #A57A3A",
"T  c #A77C3B",
"R  c #A87C3A",
"E  c #A87C3B",
"W  c #AB7E3C",
"Q  c #81614A",
"!  c #83634C",
"~  c #85664F",
"^  c #97765D",
"/  c #98765D",
"(  c #AE803D",
")  c #B2833E",
"_  c #B78640",
"`  c #BB8942",
"'  c #BC8A42",
"]  c #BE8C43",
"[  c #B98F71",
"{  c #B99073",
"}  c #BB9376",
"|  c #BC9377",
" . c #BD957A",
".. c #C08D43",
"X. c #C08E44",
"o. c #C39045",
"O. c #C69246",
"+. c #C89346",
"@. c #C89446",
"#. c white",
/* pixels */
"! ! ! ! ! ! ! ! ! ! ! ! ! ! ! ! ! ! ! ! ! ! ! ! ! ! ! ! ! ! ! ! ! ! ! ! ! ! ! ! ! ! ! ! ! ! ! ! ! ! ! ! ! ! ! ! ! ! ! ! ! ! ! ! ",
"! ! ! ! ! ! ! ! ! ! ! ! ! ! ! ! ! ! ! ! ! ! ! ! ! ! ! ! ! ! ! ! ! ! ! ! ! ! ! ! ! ! ! ! ! ! ! ! ! ! ! ! ! ! ! ! ! ! ! ! ! ! ! ! ",
"! ! ! ! ! ! ! ! ! ! ! ! ! ! ! ! ! ! ! ! ! ! ! ! ! ! ! ! ! ! ! ! ! ! ! ! ! ! ! ! ! ! ! ! ! ! ! ! ! ! ! ! ! ! ! ! ! ! ! ! ! ! ! ! ",
"! ! ! ! ! ! ! ! ! ! ! ! ! ! ! ! ! ! ! ! ! ! ! ! ! ! ! ! ! ! ! ! ! ! ! ! ! ! ! ! ! ! ! ! ! ! ! ! ! ! ! ! ! ! ! ! ! ! ! ! ! ! ! ! ",
"! ! ! ! [ [ [ [ [ [ [ [ [ [ [ [ [ [ [ [ [ [ [ [ [ [ [ [ [ [ [ [ [ [ [ [ [ [ [ [ [ [ [ [ [ [ [ [ [ [ [ [ [ [ [ [ [ [ [ [ ! ! ! ! ",
"! ! ! ! [ [ [ [ [ [ [ [ [ [ [ [ [ [ [ [ [ [ [ [ [ [ [ [ [ [ [ [ [ [ [ [ [ [ [ [ [ [ [ [ [ [ [ [ [ [ [ [ [ [ [ [ [ [ [ [ ! ! ! ! ",
"! ! ! ! [ [ [ [ [ [ [ [ [ [ [ [ [ [ [ [ [ [ [ [ [ [ [ [ [ [ [ [ [ [ [ [ [ [ [ [ [ [ [ [ [ [ [ [ [ [ [ [ [ [ [ [ [ [ [ [ ! ! ! ! ",
"! ! ! ! [ [ [ [ [ [ [ [ [ [ [ [ [ [ [ [ [ [ [ [ [ [ [ [ [ [ [ [ [ [ [ [ [ [ [ [ [ [ [ [ [ [ [ [ [ [ [ [ [ [ [ [ [ [ [ [ ! ! ! ! ",
"! ! ! ! [ [ [ [ [ [ [ [ [ [ [ [ [ [ [ [ [ [ [ [ [ [ [ [ [ [ [ [ [ [ [ [ [ [ [ [ [ [ [ [ [ [ [ [ [ [ [ [ [ [ [ [ [ [ [ [ ! ! ! ! ",
"! ! ! ! [ [ [ [ [ [ [ [ [ [ [ [ [ [ [ [ [ [ [ [ [ [ [ [ [ [ [ [ [ [ [ [ [ [ [ [ [ [ [ [ [ [ [ [ [ [ [ [ [ [ [ [ [ [ [ [ ! ! ! ! ",
"! ! ! ! [ [ [ [ [ [ [ [ [ [ [ [ [ [ [ [ [ [ [ [ [ [ [ [ [ [ [ [ [ [ [ [ [ [ [ [ [ [ [ [ [ [ [ [ [ [ [ [ [ [ [ [ [ [ [ [ ! ! ! ! ",
"! ! ! ! [ [ [ [ [ [ [ [ [ [ [ [ [ [ [ [ [ [ [ [ [ [ [ [ [ [ [ [ [ [ [ [ [ [ [ [ [ [ [ [ [ [ [ [ [ [ [ [ [ [ [ [ [ [ [ [ ! ! ! ! ",
"! ! ! ! ! ! ! ! ! ! ! ! ! ! ! ! ! ! ! ! ! ! ! X                                   X ! ! ! ! ! ! ! ! ! ! ! ! ! ! ! ! ! ! ! ! ! ! ",
"! ! ! ! ! ! ! ! ! ! ! ! ! ! ! ! ! ! ! ! ! ! ! #.O O O O O O O O O O O O O O O O O $ ! ! ! ! ! ! ! ! ! ! ! ! ! ! ! ! ! ! ! ! ! ! ",
"! ! ! ! ! ! ! ! ! ! ! ! Q 8 8 8 8 8 8 8 #.#.#.#.#.O O O O O O O O O O O O O O O O O 8 8 8 8 8 8 8 8 8 f ! ! ! ! ! ! ! ! ! ! ! ! ",
"! ! ! ! ! ! ! ! ! ! ! ! Q O O O O O O O O #.#.#.#.#.#.#.#.#.O O O O O O O O O O O O O O O O O O O O O s ! ! ! ! ! ! ! ! ! ! ! ! ",
"! ! ! ! [ [ [ [ [ [ [ [ [ O O O O O O O O O O . . #.#.#.#.#.#.#.#.            . . . O O O O O O O O O s [ [ [ [ [ [ [ [ ! ! ! ! ",
"! ! ! ! [ [ [ [ [ [ 7 # # O O O O O O O O O & Y P J @.@.#.#.#.#.#.#.#.@.@.@.@.P P J   O O O O O O O O O # # # [ [ [ [ [ ! ! ! ! ",
"! ! ! ! [ [ [ [ [ [ # O O O O O O O O O O O & P H F o.X.O.1 O #.#.#.#.#.#.#.X.H H F   O O O O O O O O O O O O [ [ [ [ [ ! ! ! ! ",
"! ! ! ! [ [ [ / / / @ O O 6 4 4 6 q q q q q t K H H P P I > O $ h P P #.#.#.#.#.#.#.0 q q q q q q 4 4 2 o O O / / ^ [ [ ! ! ! ! ",
"! ! ! ! [ [ [ O O O O O & Y H H ( X.X.X.X.X.] G H Y   O O O O O O O O   F H #.#.#.#.#.#.#.#.X.X.X.H H A . O O O O . [ [ ! ! ! ! ",
"! ! ! ! [ [ [ O O O O O & Y H H ( X.X.X.X.X.] G H Y   O O O O O O O O   F H G X.X.#.#.#.#.#.#.#.#.#.#.A . O O O O . [ [ ! ! ! ! ",
"! ! ! ! e 8 8 O O o C N B ] ` ` ] X.X.X.X.X.` 1 2 3 C N m L I I I I I P ` ` ` X.X.X.X.X.X.X.X.X.#.#.#.#.#.#.C   O O 9 8 5 M ! ! ",
"! ! ! ! * O O O O . P H H O.X.X.X.X.X.X.X.X.`   O   U H H ' X.X.X.X.X.X.X.X.X.X.X.X.X.X.X.X.X.X.X.X.#.#.#.#.#.#.#.#.O O O j ! ! ",
"! ! ! ! * O O O O . P H H O.X.X.X.X.X.X.X.X.`       E P P X.+.+.+.+.+.+.+.+.@.X.X.X.X.X.X.X.X.X.X.X.X.] H H #.#.#.#.#.#.#.j ! ! ",
"! ! ! ! * O O O O . P H H O.X.X.X.X.X.X.X.X.] K K W   . .                     X.X.X.X.X.X.X.X.X.X.X.X.] H H P   O O O O O j ! ! ",
"! ! ! ! * O O O O . P H H O.X.X.X.X.X.X.X.X.] G H Y   O O O O O O O O O O O   X.X.X.X.X.X.X.X.X.X.X.X.] H H P   O O O O O j ! ! ",
"! ! ! ! * O O O O o b c c ' _ _ ' X.X.X.X.X...U U ( w r t & O O < r r r u u y X.X.X.X.X.X.X.X.X.X._ _ ) x c b   O O O O O j ! ! ",
"! ! ! ! * O O O O O O O & Y H H ( X.X.X.X.X.X.X.X.O.F H K > O $ g H H F X.X.X.X.X.X.X.X.X.X.X.X.X.H H A . O O O O O O O O j ! ! ",
"! ! ! ! * O O O O O o o O E K K ) O.O.O.O.O.O.X.X.O.F H K : . o g H H F X.X.X.X.X.X.O.O.O.O.O.O.O.K K D   o o O O O O O O j ! ! ",
"! ! ! ! * O O O O o b v c   . .             O P H G H H H K P P H H H H H H H H H F   .           . . % b v b   O O O O O j ! ! ",
"! ! ! ! * O O O O o v c z   O O O O O O O O & P H H H H H H H H H H H H H H H H H F   O O O O O O O O = v c v   O O O O O j ! ! ",
"! ! ! !       O O o B m b                     ( Y Y Y Y Y Y Y Y Y Y T T Y Y Y Y E U                   o B m B   O O       j ! ! ",
"! ! ! ! [ [ [ O O O O O % b x x C G H H H H D . O O O O O O O O O O O O O O O O O % T H H H H H F c x k o O O O O . [ [ ! ! ! ! ",
"! ! ! ! [ [ [ * O O O O % b x x V F F F F F S . O O O O O O O O O O O O O O O O O & Y G F F F F F x x k . O O O O o [ [ ! ! ! ! ",
"! ! ! ! [ [ [ [ [ [ . O O ; - - ; ; ; ; ; ; > l k k A Z Z Z Z Z Z A A A Z Z A k k k - ; ; ; ; ; ; - - = O O . [ [ [ } [ ! ~ ! ! ",
"! ! ! ! [ [ [ [ [ [ . O O O O O O O O O O O % v c x H H H H H H H H H H H H H c c z   O O O O O O O O O O O . [ [ [ [ [ ! ! ! ! ",
"! ! ! ! [ [ [ [ [ [   . . O O O O O O O O O % n v c I K K K K K K K K K K K I v v c   O O O O O O O O O . .   [ [ [ [ [ ! ! ! ! ",
"! ! ! ! [ [ [ [ [ [ [ [ [   O O O O O O O O O . . .                           . . . O O O O O O O O O , [ [ [ [ [ [ [ [ ! ! ! ! ",
"! ! ! ! [ [ [ [ [ [ [ [ [   O O O O O O O O O O O O O O O O O O O O O O O O O O O O O O O O O O O O O , [ [ [ [ [ [ [ [ ! ! ! ! ",
"! ! ! ! [ [ [ [ [ [ [ [ [ p i i i i i i i i i o O O O O O O O O O O O O O O O O O O a i i i i i i i i d [ [ [ [ [ [ [ [ ! ! ! ! ",
"! ! ! ! [ [ [ [ [ [ [ [ [ [ [ [ [ [ [ [ [ [ [   O O O O O O O O O O O O O O O O O * [ [ [ [ [ [ [ [ [ [ [ [ [ [ [ [ [ [ ! ! ! ! ",
"! ! ! ! [ [ [ [ [ [ [ [ [ [ [ [ [ [ [ [ [ [ [   o o o o o o o o o o o o o o o o o O [ [ [ [ [ [ [ [ [ [ [ [ [ [ [ [ [ [ ! ! ! ! ",
"! ! ! ! [ [ [ [ [ [ [ [ [ [ [ [ [ [ [ } | | { [ [ [ [ [ [ [ [ [ [ [ [ [ ! ! ! ! [ [  .[ [ { [ [ [ [ [ [ [ [ [ [ [ [ [ [ ! ! ! ! ",
"! ! ! ! ! ! ! ! ! ! ! ! ! ! ! ! ! ! ! ! ! ! ! ! ! ! ! ! ! ! ! ! ! ! ! ! ! ! ! ! ! ! ! ! ! ! ! ! ! ! ! ! ! ! ! ! ! ! ! ! ! ! ! ! ",
"! ! ! ! ! ! ! ! ! ! ! ! ! ! ! ! ! ! ! ! ! ! ! ! ! ! ! ! ! ! ! ! ! ! ! ! ! ! ! ! ! ! ! ! ! ! ! ! ! ! ! ! ! ! ! ! ! ! ! ! ! ! ! ! ",
"! ! ! ! ! ! ! ! ! ! ! ! ! ! ! ! ! ! ! ! ! ! ! ! ! ! ! ! ! ! ! ! ! ! ! ! ! ! ! ! ! ! ! ! ! ! ! ! ! ! ! ! ! ! ! ! ! ! ! ! ! ! ! ! ",
"! ! ! ! ! ! ! ! ! ! ! ! ! ! ! ! ! ! ! ! ! ! ! ! ! ! ! ! ! ! ! ! ! ! ! ! ! ! ! ! ! ! ! ! ! ! ! ! ! ! ! ! ! ! ! ! ! ! ! ! ! ! ! ! ",
"! ! ! ! [ [ [ [ [ [ [ [ [ [ [ [ [ [ [ [ [ [ [ [ [ [ [ [ [ [ [ [ [ [ [ [ [ [ [ [ [ [ [ [ [ [ [ [ [ [ [ [ [ [ [ [ [ [ [ [ ! ! ! ! ",
"! ! ! ! [ [ [ [ [ [ [ [ [ [ [ [ [ [ [ [ [ [ [ [ [ [ [ [ [ [ [ [ [ [ [ [ [ [ [ [ [ [ [ [ [ [ [ [ [ [ [ [ [ [ [ [ [ [ [ [ ! ! ! ! ",
"! ! ! ! [ [ [ [ [ [ [ [ [ [ [ [ [ [ [ [ [ [ [ [ [ [ [ [ [ [ [ [ [ [ [ [ [ [ [ [ [ [ [ [ [ [ [ [ [ [ [ [ [ [ [ [ [ [ [ [ ! ! ! ! ",
"! ! ! ! [ [ [ [ [ [ [ [ [ [ [ [ [ [ [ [ [ [ [ [ [ [ [ [ [ [ [ [ [ [ [ [ [ [ [ [ [ [ [ [ [ [ [ [ [ [ [ [ [ [ [ [ [ [ [ [ ! ! ! ! ",
"! ! ! ! [ [ [ [ [ [ [ [ [ [ [ [ [ [ [ [ [ [ [ [ [ [ [ [ [ [ [ [ [ [ [ [ [ [ [ [ [ [ [ [ [ [ [ [ [ [ [ [ [ [ [ [ [ [ [ [ ! ! ! ! ",
"! ! ! ! [ [ [ [ [ [ [ [ [ [ [ [ [ [ [ [ [ [ [ [ [ [ [ [ [ [ [ [ [ [ [ [ [ [ [ [ [ [ [ [ [ [ [ [ [ [ [ [ [ [ [ [ [ [ [ [ ! ! ! ! ",
"! ! ! ! [ [ [ [ [ [ [ [ [ [ [ [ [ [ [ [ [ [ [ [ [ [ [ [ [ [ [ [ [ [ [ [ [ [ [ [ [ [ [ [ [ [ [ [ [ [ [ [ [ [ [ [ [ [ [ [ ! ! ! ! ",
"! ! ! ! [ [ [ [ [ [ [ [ [ [ [ [ [ [ [ [ [ [ [ [ [ [ [ [ [ [ [ [ [ [ [ [ [ [ [ [ [ [ [ [ [ [ [ [ [ [ [ [ [ [ [ [ [ [ [ [ ! ! ! ! ",
"! ! ! ! [ [ [ [ [ [ [ [ [ [ [ [ [ [ [ [ [ [ [ [ [ [ [ [ [ [ [ [ [ [ [ [ [ [ [ [ [ [ [ [ [ [ [ [ [ [ [ [ [ [ [ [ [ [ [ [ ! ! ! ! ",
"! ! ! ! [ [ [ [ [ [ [ [ [ [ [ [ [ [ [ [ [ [ [ [ [ [ [ [ [ [ [ [ [ [ [ [ [ [ [ [ [ [ [ [ [ [ [ [ [ [ [ [ [ [ [ [ [ [ [ [ ! ! ! ! ",
"! ! ! ! [ [ [ [ [ [ [ [ [ [ [ [ [ [ [ [ [ [ [ [ [ [ [ [ [ [ [ [ [ [ [ [ [ [ [ [ [ [ [ [ [ [ [ [ [ [ [ [ [ [ [ [ [ [ [ [ ! ! ! ! ",
"! ! ! ! [ [ [ [ [ [ [ [ [ [ [ [ [ [ [ [ [ [ [ [ [ [ [ [ [ [ [ [ [ [ [ [ [ [ [ [ [ [ [ [ [ [ [ [ [ [ [ [ [ [ [ [ [ [ [ [ ! ! ! ! ",
"! ! ! ! ! ! ! ! ! ! ! ! ! ! ! ! ! ! ! ! ! ! ! ! ! ! ! ! ! ! ! ! ! ! ! ! ! ! ! ! ! ! ! ! ! ! ! ! ! ! ! ! ! ! ! ! ! ! ! ! ! ! ! ! ",
"! ! ! ! ! ! ! ! ! ! ! ! ! ! ! ! ! ! ! ! ! ! ! ! ! ! ! ! ! ! ! ! ! ! ! ! ! ! ! ! ! ! ! ! ! ! ! ! ! ! ! ! ! ! ! ! ! ! ! ! ! ! ! ! ",
"! ! ! ! ! ! ! ! ! ! ! ! ! ! ! ! ! ! ! ! ! ! ! ! ! ! ! ! ! ! ! ! ! ! ! ! ! ! ! ! ! ! ! ! ! ! ! ! ! ! ! ! ! ! ! ! ! ! ! ! ! ! ! ! ",
"! ! ! ! ! ! ! ! ! ! ! ! ! ! ! ! ! ! ! ! ! ! ! ! ! ! ! ! ! ! ! ! ! ! ! ! ! ! ! ! ! ! ! ! ! ! ! ! ! ! ! ! ! ! ! ! ! ! ! ! ! ! ! ! "
};
