/* XPM */
static char *_fcbecf1304b4f1aed889a86c754abe87dTNdEJki9v7zjuO[] = {
/* columns rows colors chars-per-pixel */
"64 64 103 2 ",
"   c #010101",
".  c #070000",
"X  c #060504",
"o  c #090000",
"O  c #0B0303",
"+  c #0C0301",
"@  c #0E0402",
"#  c #0E0904",
"$  c #110703",
"%  c #130803",
"&  c #170A04",
"*  c #1A0E06",
"=  c #120B0B",
"-  c #120C0C",
";  c #1F1207",
":  c #1B1308",
">  c #1E1509",
",  c #1F120D",
"<  c gray12",
"1  c #221408",
"2  c #241509",
"3  c #261B0B",
"4  c #28180A",
"5  c #2C1B0B",
"6  c #281D0C",
"7  c #2F1D0C",
"8  c #311E0D",
"9  c #211811",
"0  c #271811",
"q  c #271A14",
"w  c #291B15",
"e  c #231D1D",
"r  c #33250F",
"t  c #39250F",
"y  c #262020",
"u  c #2A2323",
"i  c #2C2525",
"p  c #322B2B",
"a  c #5A3E19",
"s  c #5C3F1A",
"d  c #40322C",
"f  c #5F411C",
"g  c #6B4B1E",
"h  c #6E4D1F",
"j  c #5C4332",
"k  c #724F20",
"l  c #735022",
"z  c #745121",
"x  c #775422",
"c  c #785422",
"v  c #7C5723",
"b  c #7B5724",
"n  c #7F5A24",
"m  c #654936",
"M  c #805A24",
"N  c #835D26",
"B  c #845D26",
"V  c #896227",
"C  c #8A6328",
"Z  c #92672A",
"A  c #93692B",
"S  c #966A2B",
"D  c #976B2C",
"F  c #9B6E2D",
"G  c #9C6F2D",
"H  c #9C702D",
"J  c #9C702E",
"K  c #A1722F",
"L  c #A2752F",
"P  c #A17330",
"I  c #A27531",
"U  c #A47630",
"Y  c #A77831",
"T  c #AA7B32",
"R  c #AC7B32",
"E  c #AD7D33",
"W  c #B07F34",
"Q  c #836047",
"!  c #846147",
"~  c #876349",
"^  c #89664D",
"/  c #9A755B",
"(  c #9C755B",
")  c #B38135",
"_  c #B78337",
"`  c #B78436",
"'  c #BB8738",
"]  c #BC8738",
"[  c #BF893A",
"{  c #C08A3A",
"}  c #C38D3B",
"|  c #C48E3B",
" . c #C58F3C",
".. c #C7903C",
"X. c #C8913D",
"o. c #CB933E",
"O. c #CD953E",
"+. c #BD8F70",
"@. c #BE9070",
"#. c #BF9475",
"$. c #D29940",
"%. c #C09476",
"&. c #C19679",
/* pixels */
"~ ~ ~ ~ ~ ~ ~ ~ ~ ~ ~ ~ ~ ~ ~ ~ ~ ~ ~ ~ ~ ~ ~ ~ ~ ~ ~ ~ ~ ~ ~ ~ ~ ~ ~ ~ ~ ~ ~ ~ ~ ~ ~ ~ ~ ~ ~ ~ ~ ~ ~ ~ ~ ~ ~ ~ ~ ~ ~ ~ ~ ~ ~ ~ ",
"~ ~ ~ ~ ~ ~ ~ ~ ~ ~ ~ ~ ~ ~ ~ ~ ~ ~ ~ ~ ~ ~ ~ ~ ~ ~ ~ ~ ~ ~ ~ ~ ~ ~ ~ ~ ~ ~ ~ ~ ~ ~ ~ ~ ~ ~ ~ ~ ~ ~ ~ ~ ~ ~ ~ ~ ~ ~ ~ ~ ~ ~ ~ ~ ",
"~ ~ ~ ~ ~ ~ ~ ~ ~ ~ ~ ~ ~ ~ ~ ~ ~ ~ ~ ~ ~ ~ ~ ~ ~ ~ ~ ~ ~ ~ ~ ~ ~ ~ ~ ~ ~ ~ ~ ~ ~ ~ ~ ~ ~ ~ ~ ~ ~ ~ ~ ~ ~ ~ ~ ~ ~ ~ ~ ~ ~ ~ ~ ~ ",
"~ ~ ~ ~ ~ ~ ~ ~ ~ ~ ~ ~ ~ ~ ~ ~ ~ ~ ~ ~ ~ ~ ~ ~ ~ ~ ~ ~ ~ ~ ~ ~ ~ ~ ~ ~ ~ ~ ~ ~ ~ ~ ~ ~ ~ ~ ~ ~ ~ ~ ~ ~ ~ ~ ~ ~ ~ ~ ~ ~ ~ ~ ~ ~ ",
"~ ~ ~ ~ @.@.@.@.@.@.@.@.@.@.@.@.@.@.@.@.@.@.@.@.@.@.@.@.@.@.@.@.@.@.@.@.@.@.@.@.@.@.@.@.@.@.@.@.@.@.@.@.@.@.@.@.@.@.@.@.~ ~ ~ ~ ",
"~ ~ ~ ~ @.@.@.@.@.@.@.@.@.@.@.@.@.@.@.@.@.@.@.@.@.@.@.@.@.@.@.@.@.@.@.@.@.@.@.@.@.@.@.@.@.@.@.@.@.@.@.@.@.@.@.@.@.@.@.@.~ ~ ~ ~ ",
"~ ~ ~ ~ @.@.@.@.@.@.@.@.@.@.@.@.@.@.@.@.@.@.@.@.@.@.@.@.@.@.@.@.@.@.@.@.@.@.@.@.@.@.@.@.@.@.@.@.@.@.@.@.@.@.@.@.@.@.@.@.~ ~ ~ ~ ",
"~ ~ ~ ~ @.@.@.@.@.@.@.@.@.@.@.@.@.@.@.@.@.@.@.@.@.@.@.@.@.@.@.@.@.@.@.@.@.@.@.@.@.@.@.@.@.@.@.@.@.@.@.@.@.@.@.@.@.@.@.@.~ ~ ~ ~ ",
"~ ~ ~ ~ @.@.@.@.@.@.@.@.@.@.@.@.@.@.@.@.@.@.@.@.@.@.@.@.@.@.@.@.@.@.@.@.@.@.@.@.@.@.@.@.@.@.@.@.@.@.@.@.@.@.@.@.@.@.@.@.~ ~ ~ ~ ",
"~ ~ ~ ~ @.@.@.@.@.@.@.@.@.@.@.@.@.@.@.@.@.@.@.@.@.@.@.@.@.@.@.@.@.@.@.@.@.@.@.@.@.@.@.@.@.@.@.@.@.@.@.@.@.@.@.@.@.@.@.@.~ ~ ~ ~ ",
"~ ~ ~ ~ @.@.@.@.@.@.@.@.@.@.@.@.@.@.@.@.@.@.@.@.@.@.@.@.@.@.@.@.@.@.@.@.@.@.@.@.@.@.@.@.@.@.@.@.@.@.@.@.@.@.@.@.@.@.@.@.~ ~ ~ ~ ",
"~ ~ ~ ~ @.@.@.@.@.@.@.@.@.@.@.@.@.@.@.@.@.@.@.@.@.@.@.@.@.@.@.@.@.@.@.@.@.@.@.@.@.@.@.@.@.@.@.@.@.@.@.@.@.@.@.@.@.@.@.@.~ ~ ~ ~ ",
"~ ~ ~ ~ ~ ~ ~ ~ ~ ~ ~ ~ ~ ~ ~ ~ ~ ~ ~ ~ ~ ~ ~ .                                   . ~ ~ ~ ~ ~ ~ ~ ~ ~ ~ ~ ~ ~ ~ ~ ~ ~ ~ ~ ~ ~ ~ ",
"~ ~ ~ ~ ~ ~ ~ ~ ~ ~ ~ ~ ~ ~ ~ ~ ~ ~ ~ ~ ~ ~ ~   o o o o o o o o o o o o o o o o o o ~ ~ ~ ~ ~ ~ ~ ~ ~ ~ ~ ~ ~ ~ ~ ~ ~ ~ ~ ~ ~ ~ ",
"~ ~ ~ ~ ~ ~ ~ ~ ~ ~ ~ ~ ! 0 0 0 0 0 0 0 0 0 q . o o o o o o o o o o o o o o o o o o 0 0 0 0 0 0 0 0 0 d ~ ~ ~ ~ ~ ~ ~ ~ ~ ~ ~ ~ ",
"~ ~ ~ ~ ~ ~ ~ ~ ~ ~ ~ ~ Q o o o o o o o o o o o o o o o o o o o o o o o o o o o o o o o o o o o o o o u ~ ~ ~ ~ ~ ~ ~ ~ ~ ~ ~ ~ ",
"~ ~ ~ ~ @.@.@.@.@.@.@.@.@.o o o o o o o o o o             . o o .                   o o o o o o o o o i @.@.@.@.@.@.@.@.~ ~ ~ ~ ",
"~ ~ ~ ~ @.@.@.@.@.@.9 X X o o o o o o o o o @ T U K O.O.$.; o + z O.O.O.O.O.O.U U K   o o o o o o o o o X X X @.@.@.@.@.~ ~ ~ ~ ",
"~ ~ ~ ~ @.@.@.@.@.@.X o o o o o o o o o o o @ U H F X. .X.; o + l  . . . . .X.H H F   o o o o o o o o o o o o @.@.@.@.@.~ ~ ~ ~ ",
"~ ~ ~ ~ @.@.@.( ( ( . o o 2 2 2 4 5 5 5 5 5 8 L H H I I U * o o f I I I [ [ { U U I 3 5 5 5 5 5 5 2 2 1 . o o ( ( / @.@.~ ~ ~ ~ ",
"~ ~ ~ ~ @.@.@.o o o o o + T H H )  . . . . .| H H T   o o o o o o o o   F H H  . . . . . . . . . .H H A   o o o o   @.+.~ ~ ~ ~ ",
"~ ~ ~ ~ @.@.@.o o o o o + T H H )  . . . . .| H H T   o o o o o o o o   F H H  . . . . . . . . . .H H A   o o o o   @.+.~ ~ ~ ~ ",
"~ ~ ~ ~ w 0 0 o o . C B B } [ [ }  . . . . .{ : 1 > C B N P U U U U U U [ [ [  . . . . . . . . . .[ [ ' N B C   o o q 0 , m ~ ~ ",
"~ ~ ~ ~ o o o o o . I H H X. . . . . . . . .[   o   Y H H {  . . . . . . . . . . . . . . . . . . . . .} H H I   o o o o o j ~ ~ ",
"~ ~ ~ ~ o o o o o . I H H X. . . . . . . . .{       E U I X.O.O.O.O.O.O.O.O.O. . . . . . . . . . . . .} H H I   o o o o o j ~ ~ ",
"~ ~ ~ ~ o o o o o . I H H X. . . . . . . . .| L L W     .                     X. . . . . . . . . . . .} H H I   o o o o o j ~ ~ ",
"~ ~ ~ ~ o o o o o . I H H X. . . . . . . . .| H H T   o o o o o o o o o o o   X. . . . . . . . . . . .} H H I   o o o o o j ~ ~ ",
"~ ~ ~ ~ o o o o o . b x c { ] ] {  . . . . .| Y T ) 6 7 8 + o o ; 8 8 7 t t r .. . . . . . . . . .[ ] _ z x b   o o o o o j ~ ~ ",
"~ ~ ~ ~ o o o o o o o o + T H H )  . . . . . . . .X.G H L * o o s H H F  . . . . . . . . . . . . .H H A   o o o o o o o o j ~ ~ ",
"~ ~ ~ ~ o o o o o o . . o E L L ` X.X.X.X.X.X...X.X.G H L & . . a H H F  .......X.X.X.X.X.X.X.X.X.L L D   . . o o o o o o j ~ ~ ",
"~ ~ ~ ~ o o o o o . n c c                   o U H H H H H L I I K H H H H H H H H F                   o n c n   o o o o o j ~ ~ ",
"~ ~ ~ ~ o o o o o . c x z   o o o o o o o o @ U H H H H H H H H H H H H H H H H H F   o o o o o o o o $ c x c   o o o o o j ~ ~ ",
"~ ~ ~ ~       o o . B N n                     ) R R R R R R R R R R R R R R R R R T                   . B N B   o .       j ~ ~ ",
"~ ~ ~ ~ @.@.@.o o o o o + n x x C H H H H H D   o o o o o o o o o o o o o o o o o @ E H H H H H G x x h . o o o .   @.@.~ ~ ~ ~ ",
"~ ~ ~ ~ @.@.@.o o o o o o n z z V F G G G G S . o o o o o o o o o o o o o o o o o @ T G G G G G F x z h . o o o o . @.@.~ ~ ~ ~ ",
"~ ~ ~ ~ @.@.@.@.@.@.. o o $ $ $ % & & & & & * k h g A Z Z Z Z Z Z Z Z Z Z Z A h h g # & & & & & & $ $ $ o o . @.@.@.@.@.~ ^ ~ ~ ",
"~ ~ ~ ~ @.@.@.@.@.@.  o o o o o o o o o o o + v x z K H H H H H H H H H H H K x x z   o o o o o o o o o o o   @.@.@.@.@.~ ~ ~ ~ ",
"~ ~ ~ ~ @.@.@.@.@.@.  . . o o o o o o o o o + M c c U L L L L L L L L L L L U v c x   o o o o o o o o o   .   @.@.@.@.@.~ ~ ~ ~ ",
"~ ~ ~ ~ @.@.@.@.@.@.@.@.@.  o o o o o o o o o . . .                           . . . o o o o . . o o o - @.@.@.@.@.@.@.@.~ ~ ~ ~ ",
"~ ~ ~ ~ @.@.@.@.@.@.@.@.@.  o o o o o o o o o o o o o o o o o o o o o o o o o o o o o o o o . . o o o = @.@.@.@.@.@.@.@.~ ~ ~ ~ ",
"~ ~ ~ ~ @.@.@.@.@.@.@.@.@.< e e e e e e e e e . o o o o o o o o o o o o o o o o o o y e e e e e e e e p @.@.@.@.@.@.@.@.~ ~ ~ ~ ",
"~ ~ ~ ~ @.@.@.@.@.@.@.@.@.@.@.@.@.@.@.@.@.@.@.  o o o o o o o o o o o o o o o o o o @.@.@.@.@.@.@.@.@.@.@.@.@.@.@.@.@.@.~ ~ ~ ~ ",
"~ ~ ~ ~ @.@.@.@.@.@.@.@.@.@.@.@.@.@.@.@.@.@.@.  . . . . . . . . . . . . . . . . . o @.@.@.@.@.@.@.@.@.@.@.@.@.@.@.@.@.@.~ ~ ~ ~ ",
"~ ~ ~ ~ @.@.@.@.@.@.@.@.@.@.@.@.@.@.@.#.%.%.@.@.@.@.@.@.@.@.@.@.@.@.@.@.~ ~ ~ ~ @.@.&.@.@.@.@.@.@.@.@.@.@.@.@.@.@.@.@.@.~ ~ ~ ~ ",
"~ ~ ~ ~ ~ ~ ~ ~ ~ ~ ~ ~ ~ ~ ~ ~ ~ ~ ~ ~ ~ ~ ~ ~ ~ ~ ~ ~ ~ ~ ~ ~ ~ ~ ~ ~ ~ ~ ~ ~ ~ ~ ~ ~ ~ ~ ~ ~ ~ ~ ~ ~ ~ ~ ~ ~ ~ ~ ~ ~ ~ ~ ~ ~ ",
"~ ~ ~ ~ ~ ~ ~ ~ ~ ~ ~ ~ ~ ~ ~ ~ ~ ~ ~ ~ ~ ~ ~ ~ ~ ~ ~ ~ ~ ~ ~ ~ ~ ~ ~ ~ ~ ~ ~ ~ ~ ~ ~ ~ ~ ~ ~ ~ ~ ~ ~ ~ ~ ~ ~ ~ ~ ~ ~ ~ ~ ~ ~ ~ ",
"~ ~ ~ ~ ~ ~ ~ ~ ~ ~ ~ ~ ~ ~ ~ ~ ~ ~ ~ ~ ~ ~ ~ ~ ~ ~ ~ ~ ~ ~ ~ ~ ~ ~ ~ ~ ~ ~ ~ ~ ~ ~ ~ ~ ~ ~ ~ ~ ~ ~ ~ ~ ~ ~ ~ ~ ~ ~ ~ ~ ~ ~ ~ ~ ",
"~ ~ ~ ~ ~ ~ ~ ~ ~ ~ ~ ~ ~ ~ ~ ~ ~ ~ ~ ~ ~ ~ ~ ~ ~ ~ ~ ~ ~ ~ ~ ~ ~ ~ ~ ~ ~ ~ ~ ~ ~ ~ ~ ~ ~ ~ ~ ~ ~ ~ ~ ~ ~ ~ ~ ~ ~ ~ ~ ~ ~ ~ ~ ~ ",
"~ ~ ~ ~ @.@.@.@.@.@.@.@.@.@.@.@.@.@.@.@.@.@.@.@.@.@.@.@.@.@.@.@.@.@.@.@.@.@.@.@.@.@.@.@.@.@.@.@.@.@.@.@.@.@.@.@.@.@.@.@.~ ~ ~ ~ ",
"~ ~ ~ ~ @.@.@.@.@.@.@.@.@.@.@.@.@.@.@.@.@.@.@.@.@.@.@.@.@.@.@.@.@.@.@.@.@.@.@.@.@.@.@.@.@.@.@.@.@.@.@.@.@.@.@.@.@.@.@.@.~ ~ ~ ~ ",
"~ ~ ~ ~ @.@.@.@.@.@.@.@.@.@.@.@.@.@.@.@.@.@.@.@.@.@.@.@.@.@.@.@.@.@.@.@.@.@.@.@.@.@.@.@.@.@.@.@.@.@.@.@.@.@.@.@.@.@.@.@.~ ~ ~ ~ ",
"~ ~ ~ ~ @.@.@.@.@.@.@.@.@.@.@.@.@.@.@.@.@.@.@.@.@.@.@.@.@.@.@.@.@.@.@.@.@.@.@.@.@.@.@.@.@.@.@.@.@.@.@.@.@.@.@.@.@.@.@.@.~ ~ ~ ~ ",
"~ ~ ~ ~ @.@.@.@.@.@.@.@.@.@.@.@.@.@.@.@.@.@.@.@.@.@.@.@.@.@.@.@.@.@.@.@.@.@.@.@.@.@.@.@.@.@.@.@.@.@.@.@.@.@.@.@.@.@.@.@.~ ~ ~ ~ ",
"~ ~ ~ ~ @.@.@.@.@.@.@.@.@.@.@.@.@.@.@.@.@.@.@.@.@.@.@.@.@.@.@.@.@.@.@.@.@.@.@.@.@.@.@.@.@.@.@.@.@.@.@.@.@.@.@.@.@.@.@.@.~ ~ ~ ~ ",
"~ ~ ~ ~ @.@.@.@.@.@.@.@.@.@.@.@.@.@.@.@.@.@.@.@.@.@.@.@.@.@.@.@.@.@.@.@.@.@.@.@.@.@.@.@.@.@.@.@.@.@.@.@.@.@.@.@.@.@.@.@.~ ~ ~ ~ ",
"~ ~ ~ ~ @.@.@.@.@.@.@.@.@.@.@.@.@.@.@.@.@.@.@.@.@.@.@.@.@.@.@.@.@.@.@.@.@.@.@.@.@.@.@.@.@.@.@.@.@.@.@.@.@.@.@.@.@.@.@.@.~ ~ ~ ~ ",
"~ ~ ~ ~ @.@.@.@.@.@.@.@.@.@.@.@.@.@.@.@.@.@.@.@.@.@.@.@.@.@.@.@.@.@.@.@.@.@.@.@.@.@.@.@.@.@.@.@.@.@.@.@.@.@.@.@.@.@.@.@.~ ~ ~ ~ ",
"~ ~ ~ ~ @.@.@.@.@.@.@.@.@.@.@.@.@.@.@.@.@.@.@.@.@.@.@.@.@.@.@.@.@.@.@.@.@.@.@.@.@.@.@.@.@.@.@.@.@.@.@.@.@.@.@.@.@.@.@.@.~ ~ ~ ~ ",
"~ ~ ~ ~ @.@.@.@.@.@.@.@.@.@.@.@.@.@.@.@.@.@.@.@.@.@.@.@.@.@.@.@.@.@.@.@.@.@.@.@.@.@.@.@.@.@.@.@.@.@.@.@.@.@.@.@.@.@.@.@.~ ~ ~ ~ ",
"~ ~ ~ ~ @.@.@.@.@.@.@.@.@.@.@.@.@.@.@.@.@.@.@.@.@.@.@.@.@.@.@.@.@.@.@.@.@.@.@.@.@.@.@.@.@.@.@.@.@.@.@.@.@.@.@.@.@.@.@.@.~ ~ ~ ~ ",
"~ ~ ~ ~ ~ ~ ~ ~ ~ ~ ~ ~ ~ ~ ~ ~ ~ ~ ~ ~ ~ ~ ~ ~ ~ ~ ~ ~ ~ ~ ~ ~ ~ ~ ~ ~ ~ ~ ~ ~ ~ ~ ~ ~ ~ ~ ~ ~ ~ ~ ~ ~ ~ ~ ~ ~ ~ ~ ~ ~ ~ ~ ~ ~ ",
"~ ~ ~ ~ ~ ~ ~ ~ ~ ~ ~ ~ ~ ~ ~ ~ ~ ~ ~ ~ ~ ~ ~ ~ ~ ~ ~ ~ ~ ~ ~ ~ ~ ~ ~ ~ ~ ~ ~ ~ ~ ~ ~ ~ ~ ~ ~ ~ ~ ~ ~ ~ ~ ~ ~ ~ ~ ~ ~ ~ ~ ~ ~ ~ ",
"~ ~ ~ ~ ~ ~ ~ ~ ~ ~ ~ ~ ~ ~ ~ ~ ~ ~ ~ ~ ~ ~ ~ ~ ~ ~ ~ ~ ~ ~ ~ ~ ~ ~ ~ ~ ~ ~ ~ ~ ~ ~ ~ ~ ~ ~ ~ ~ ~ ~ ~ ~ ~ ~ ~ ~ ~ ~ ~ ~ ~ ~ ~ ~ ",
"~ ~ ~ ~ ~ ~ ~ ~ ~ ~ ~ ~ ~ ~ ~ ~ ~ ~ ~ ~ ~ ~ ~ ~ ~ ~ ~ ~ ~ ~ ~ ~ ~ ~ ~ ~ ~ ~ ~ ~ ~ ~ ~ ~ ~ ~ ~ ~ ~ ~ ~ ~ ~ ~ ~ ~ ~ ~ ~ ~ ~ ~ ~ ~ "
};
