/* XPM */
static char *_5b29365e2d24959f77792d324cc5757FdoE0KAF0kePcKn0[] = {
/* columns rows colors chars-per-pixel */
"64 64 103 2 ",
"   c #010101",
".  c #040302",
"X  c #060403",
"o  c #0A0000",
"O  c #0D0000",
"+  c #0F0302",
"@  c #090505",
"#  c #0A0806",
"$  c #110302",
"%  c #120502",
"&  c #150603",
"*  c #110505",
"=  c #160A05",
"-  c #170C05",
";  c #180C05",
":  c #1D1007",
">  c #1F160A",
",  c #181212",
"<  c #23170C",
"1  c #201A0D",
"2  c #261B0E",
"3  c #231C0F",
"4  c #281C0F",
"5  c #231915",
"6  c #2B1E11",
"7  c #251E18",
"8  c #2A1E18",
"9  c #2B1F1C",
"0  c #2A2113",
"q  c #2F2113",
"w  c #2B2315",
"e  c #2B201B",
"r  c #2C211D",
"t  c #312315",
"y  c #332416",
"u  c #352A17",
"i  c #3A2A17",
"p  c #272323",
"a  c #2A2525",
"s  c #2F2A2A",
"d  c #352F2F",
"f  c #413530",
"g  c #594021",
"h  c #5D4324",
"j  c #5C4537",
"k  c #694D26",
"l  c #6F5028",
"z  c #715229",
"x  c #73552A",
"c  c #75552A",
"v  c #78582B",
"b  c #7B5B2C",
"n  c #7C5B2C",
"m  c #7F5E2E",
"M  c #634B3A",
"N  c #805E2E",
"B  c #82602E",
"V  c #85622F",
"C  c #866330",
"Z  c #8E6732",
"A  c #8F6933",
"S  c #926A33",
"D  c #936B34",
"F  c #966E35",
"G  c #977035",
"H  c #997136",
"J  c #9C7237",
"K  c #9D7537",
"L  c #9C7338",
"P  c #9B7438",
"I  c #9F7638",
"U  c #A1773A",
"Y  c #A27839",
"T  c #A57A3A",
"R  c #A77C3B",
"E  c #A87C3A",
"W  c #A87C3B",
"Q  c #AB7E3C",
"!  c #81614A",
"~  c #83634C",
"^  c #85664F",
"/  c #97765D",
"(  c #98765D",
")  c #AE803D",
"_  c #B2833E",
"`  c #B78640",
"'  c #BB8942",
"]  c #BC8A42",
"[  c #BE8C43",
"{  c #B98F71",
"}  c #B99073",
"|  c #BB9376",
" . c #BC9377",
".. c #BD957A",
"X. c #C08D43",
"o. c #C08E44",
"O. c #C38F45",
"+. c #C39045",
"@. c #C69246",
"#. c #C89346",
"$. c #C89446",
"%. c #CD9848",
"&. c white",
/* pixels */
"~ ~ ~ ~ ~ ~ ~ ~ ~ ~ ~ ~ ~ ~ ~ ~ ~ ~ ~ ~ ~ ~ ~ ~ ~ ~ ~ ~ ~ ~ ~ ~ ~ ~ ~ ~ ~ ~ ~ ~ ~ ~ ~ ~ ~ ~ ~ ~ ~ ~ ~ ~ ~ ~ ~ ~ ~ ~ ~ ~ ~ ~ ~ ~ ",
"~ ~ ~ ~ ~ ~ ~ ~ ~ ~ ~ ~ ~ ~ ~ ~ ~ ~ ~ ~ ~ ~ ~ ~ ~ ~ ~ ~ ~ ~ ~ ~ ~ ~ ~ ~ ~ ~ ~ ~ ~ ~ ~ ~ ~ ~ ~ ~ ~ ~ ~ ~ ~ ~ ~ ~ ~ ~ ~ ~ ~ ~ ~ ~ ",
"~ ~ ~ ~ ~ ~ ~ ~ ~ ~ ~ ~ ~ ~ ~ ~ ~ ~ ~ ~ ~ ~ ~ ~ ~ ~ ~ ~ ~ ~ ~ ~ ~ ~ ~ ~ ~ ~ ~ ~ ~ ~ ~ ~ ~ ~ ~ ~ ~ ~ ~ ~ ~ ~ ~ ~ ~ ~ ~ ~ ~ ~ ~ ~ ",
"~ ~ ~ ~ ~ ~ ~ ~ ~ ~ ~ ~ ~ ~ ~ ~ ~ ~ ~ ~ ~ ~ ~ ~ ~ ~ ~ ~ ~ ~ ~ ~ ~ ~ ~ ~ ~ ~ ~ ~ ~ ~ ~ ~ ~ ~ ~ ~ ~ ~ ~ ~ ~ ~ ~ ~ ~ ~ ~ ~ ~ ~ ~ ~ ",
"~ ~ ~ ~ { { { { { { { { { { { { { { { { { { { { { { { { { { { { { { { { { { { { { { { { { { { { { { { { { { { { { { { { ~ ~ ~ ~ ",
"~ ~ ~ ~ { { { { { { { { { { { { { { { { { { { { { { { { { { { { { { { { { { { { { { { { { { { { { { { { { { { { { { { { ~ ~ ~ ~ ",
"~ ~ ~ ~ { { { { { { { { { { { { { { { { { { { { { { { { { { { { { { { { { { { { { { { { { { { { { { { { { { { { { { { { ~ ~ ~ ~ ",
"~ ~ ~ ~ { { { { { { { { { { { { { { { { { { { { { { { { { { { { { { { { { { { { { { { { { { { { { { { { { { { { { { { { ~ ~ ~ ~ ",
"~ ~ ~ ~ { { { { { { { { { { { { { { { { { { { { { { { { { { { { { { { { { { { { { { { { { { { { { { { { { { { { { { { { ~ ~ ~ ~ ",
"~ ~ ~ ~ { { { { { { { { { { { { { { { { { { { { { { { { { { { { { { { { { { { { { { { { { { { { { { { { { { { { { { { { ~ ~ ~ ~ ",
"~ ~ ~ ~ { { { { { { { { { { { { { { { { { { { { { { { { { { { { { { { { { { { { { { { { { { { { { { { { { { { { { { { { ~ ~ ~ ~ ",
"~ ~ ~ ~ { { { { { { { { { { { { { { { { { { { { { { { { { { { { { { { { { { { { { { { { { { { { { { { { { { { { { { { { ~ ~ ~ ~ ",
"~ ~ ~ ~ ~ ~ ~ ~ ~ ~ ~ ~ ~ ~ ~ ~ ~ ~ ~ ~ ~ ~ ~ X                                   X ~ ~ ~ ~ ~ ~ ~ ~ ~ ~ ~ ~ ~ ~ ~ ~ ~ ~ ~ ~ ~ ~ ",
"~ ~ ~ ~ ~ ~ ~ ~ ~ ~ ~ ~ ~ ~ ~ ~ ~ ~ ~ ~ ~ ~ ~ . O O O O O O O O O O O O O O O O O $ ~ ~ ~ ~ ~ ~ ~ ~ ~ ~ ~ ~ ~ ~ ~ ~ ~ ~ ~ ~ ~ ~ ",
"~ ~ ~ ~ ~ ~ ~ ~ ~ ~ ~ ~ ! 8 8 8 8 8 8 8 8 8 e o O O O O O O O O O O O O O O O O O O 8 8 8 8 8 8 8 8 8 f ~ ~ ~ ~ ~ ~ ~ ~ ~ ~ ~ ~ ",
"~ ~ ~ ~ ~ ~ ~ ~ ~ ~ ~ ~ ! O O O O O O O O O O O O O O O O O O O O O O O O O O O O O O O O O O O O O O s ~ ~ ~ ~ ~ ~ ~ ~ ~ ~ ~ ~ ",
"~ ~ ~ ~ { { { { { { { { { O O O O O O O O O O . . .       o O O o             . . . O O O O O O O O O s { { { { { { { { ~ ~ ~ ~ ",
"~ ~ ~ ~ { { { { { { 7 # # O O O O O O O O O & T I J $.$.%.1 O % c $.$.$.$.$.$.I I J   O O O O O O O O O # # # { { { { { ~ ~ ~ ~ ",
"~ ~ ~ ~ { { { { { { # O O O O O O O O O O O & I H F +.o.@.1 O % z o.o.o.o.o.o.H H F   O O O O O O O O O O O O { { { { { ~ ~ ~ ~ ",
"~ ~ ~ ~ { { { ( ( ( @ O O 6 4 4 6 q q q q q y K H H I I U > O $ h I I P ' ' ' U U I 0 q q q q q q 4 4 2 o O O ( ( / { { ~ ~ ~ ~ ",
"~ ~ ~ ~ { { { O O O O O & T H H ) o.o.o.o.o.[ G H T   O O O O O O O O   F H G o.o.o.o.o.o.o.o.o.o.H H A . O O O O . { { ~ ~ ~ ~ ",
"~ ~ ~ ~ { { { O O O O O & T H H ) o.o.o.o.o.[ G H T   O O O O O O O O   F H G o.o.o.o.o.o.o.o.o.o.H H A . O O O O . { { ~ ~ ~ ~ ",
"~ ~ ~ ~ r 8 8 O O o C N B [ ' ' [ o.o.o.o.o.' 1 2 3 C N m L U U U U U I ' ' ' o.o.o.o.o.o.o.o.o.o.' ' ` m N C   O O 9 8 5 M ~ ~ ",
"~ ~ ~ ~ * O O O O . I H H @.o.o.o.o.o.o.o.o.'   O   Y H H ] o.o.o.o.o.o.o.o.o.o.o.o.o.o.o.o.o.o.o.o.o.[ H H I   O O O O O j ~ ~ ",
"~ ~ ~ ~ * O O O O . I H H @.o.o.o.o.o.o.o.o.'       W I I o.#.#.#.#.#.#.#.#.$.o.o.o.o.o.o.o.o.o.o.o.o.[ H H I   O O O O O j ~ ~ ",
"~ ~ ~ ~ * O O O O . I H H @.o.o.o.o.o.o.o.o.[ K K Q   . .                     o.o.o.o.o.o.o.o.o.o.o.o.[ H H I   O O O O O j ~ ~ ",
"~ ~ ~ ~ * O O O O . I H H o.o.o.o.o.o.o.o.o.[ G H T   O O O O O O O O O O O   o.o.o.o.o.o.o.o.o.o.o.o.[ H H I   O O O O O j ~ ~ ",
"~ ~ ~ ~ * O O O O o b c c ] ` ` ] o.o.o.o.o.X.Y Y ) w t y & O O < t t t i i u o.o.o.o.o.o.o.o.o.o.` ` _ x c b   O O O O O j ~ ~ ",
"~ ~ ~ ~ * O O O O O O O & T H H ) o.o.o.o.o.o.o.o.@.F H K > O $ g H H F o.o.o.o.o.o.o.o.o.o.o.o.o.H H A . O O O O O O O O j ~ ~ ",
"~ ~ ~ ~ * O O O O O o o O W K K _ @.@.@.@.@.@.o.o.@.F H K : . o g H H F o.o.o.o.o.o.@.@.@.@.@.@.@.K K D   o o O O O O O O j ~ ~ ",
"~ ~ ~ ~ * O O O O o b v c   . .             O I H G H H H K I I H H H H H H H H H F   .           . . % b v b   O O O O O j ~ ~ ",
"~ ~ ~ ~ &.O O O O o v c z   O O O O O O O O & I H H H H H H H H H H H H H H H H H F   O O O O O O O O = v c v   O O O O O j ~ ~ ",
"~ ~ ~ ~ &.&.&.O O o B m b                     ) T T T T T T T T T T T R T T T T W Y                   o B m B   O O       j ~ ~ ",
"~ ~ ~ ~ { { { &.O O O O % b x x C G H H H H D . O O O O O O O O O O O O O O O O O % R H H H H H F c x k o O O O O . { { ~ ~ ~ ~ ",
"~ ~ ~ ~ { { { &.&.&.O O % b x x V F F F F F S . O O O O O O O O O O O O O O O O O & T F F F F F F x x k . O O O O o { { ~ ~ ~ ~ ",
"~ ~ ~ ~ { { { { { { . O O ; - - ; ; ; ; ; ; > l k k A Z Z Z Z Z A A A A Z Z A k k k - ; ; ; ; ; ; - - = O O . { { { | { ~ ^ ~ ~ ",
"~ ~ ~ ~ { { { { { { &.&.O O O O O O O O O O % v c x H H H H H H H H H H H H H c c z   O O O O O O O O O O O . { { { { { ~ ~ ~ ~ ",
"~ ~ ~ ~ { { { { { { &.&.&.&.O O O O O O O O % n v c U K K K K K K K K K K K U v v c   O O O O O O O O O . .   { { { { { ~ ~ ~ ~ ",
"~ ~ ~ ~ { { { { { { { { { &.O O O O O O O O O . . .                           . . . O O O O O O O O O , { { { { { { { { ~ ~ ~ ~ ",
"~ ~ ~ ~ { { { { { { { { { &.&.&.&.O O O O O O O O O O O O O O O O O O O O O O O O O O O O O O O O O O , { { { { { { { { ~ ~ ~ ~ ",
"~ ~ ~ ~ { { { { { { { { { &.&.&.&.&.&.&.&.&.&.o O O O O O O O O O O O O O O O O O O a p p p p p p p p d { { { { { { { { ~ ~ ~ ~ ",
"~ ~ ~ ~ { { { { { { { { { { { { { { { { { { { &.&.&.&.&.&.O O O O O O O O O O O O * { { { { { { { { { { { { { { { { { { ~ ~ ~ ~ ",
"~ ~ ~ ~ { { { { { { { { { { { { { { { { { { { &.&.&.&.&.&.&.&.&.&.o o o o o o o o O { { { { { { { { { { { { { { { { { { ~ ~ ~ ~ ",
"~ ~ ~ ~ { { { { { { { { { { { { { { { |  . .} { { { { { { { { { { { { { ~ ~ ~ ~ { { ..{ { } { { { { { { { { { { { { { { ~ ~ ~ ~ ",
"~ ~ ~ ~ ~ ~ ~ ~ ~ ~ ~ ~ ~ ~ ~ ~ ~ ~ ~ ~ ~ ~ ~ ~ ~ ~ ~ ~ ~ ~ ~ ~ ~ ~ ~ ~ ~ ~ ~ ~ ~ ~ ~ ~ ~ ~ ~ ~ ~ ~ ~ ~ ~ ~ ~ ~ ~ ~ ~ ~ ~ ~ ~ ~ ",
"~ ~ ~ ~ ~ ~ ~ ~ ~ ~ ~ ~ ~ ~ ~ ~ ~ ~ ~ ~ ~ ~ ~ ~ ~ ~ ~ ~ ~ ~ ~ ~ ~ ~ ~ ~ ~ ~ ~ ~ ~ ~ ~ ~ ~ ~ ~ ~ ~ ~ ~ ~ ~ ~ ~ ~ ~ ~ ~ ~ ~ ~ ~ ~ ",
"~ ~ ~ ~ ~ ~ ~ ~ ~ ~ ~ ~ ~ ~ ~ ~ ~ ~ ~ ~ ~ ~ ~ ~ ~ ~ ~ ~ ~ ~ ~ ~ ~ ~ ~ ~ ~ ~ ~ ~ ~ ~ ~ ~ ~ ~ ~ ~ ~ ~ ~ ~ ~ ~ ~ ~ ~ ~ ~ ~ ~ ~ ~ ~ ",
"~ ~ ~ ~ ~ ~ ~ ~ ~ ~ ~ ~ ~ ~ ~ ~ ~ ~ ~ ~ ~ ~ ~ ~ ~ ~ ~ ~ ~ ~ ~ ~ ~ ~ ~ ~ ~ ~ ~ ~ ~ ~ ~ ~ ~ ~ ~ ~ ~ ~ ~ ~ ~ ~ ~ ~ ~ ~ ~ ~ ~ ~ ~ ~ ",
"~ ~ ~ ~ { { { { { { { { { { { { { { { { { { { { { { { { { { { { { { { { { { { { { { { { { { { { { { { { { { { { { { { { ~ ~ ~ ~ ",
"~ ~ ~ ~ { { { { { { { { { { { { { { { { { { { { { { { { { { { { { { { { { { { { { { { { { { { { { { { { { { { { { { { { ~ ~ ~ ~ ",
"~ ~ ~ ~ { { { { { { { { { { { { { { { { { { { { { { { { { { { { { { { { { { { { { { { { { { { { { { { { { { { { { { { { ~ ~ ~ ~ ",
"~ ~ ~ ~ { { { { { { { { { { { { { { { { { { { { { { { { { { { { { { { { { { { { { { { { { { { { { { { { { { { { { { { { ~ ~ ~ ~ ",
"~ ~ ~ ~ { { { { { { { { { { { { { { { { { { { { { { { { { { { { { { { { { { { { { { { { { { { { { { { { { { { { { { { { ~ ~ ~ ~ ",
"~ ~ ~ ~ { { { { { { { { { { { { { { { { { { { { { { { { { { { { { { { { { { { { { { { { { { { { { { { { { { { { { { { { ~ ~ ~ ~ ",
"~ ~ ~ ~ { { { { { { { { { { { { { { { { { { { { { { { { { { { { { { { { { { { { { { { { { { { { { { { { { { { { { { { { ~ ~ ~ ~ ",
"~ ~ ~ ~ { { { { { { { { { { { { { { { { { { { { { { { { { { { { { { { { { { { { { { { { { { { { { { { { { { { { { { { { ~ ~ ~ ~ ",
"~ ~ ~ ~ { { { { { { { { { { { { { { { { { { { { { { { { { { { { { { { { { { { { { { { { { { { { { { { { { { { { { { { { ~ ~ ~ ~ ",
"~ ~ ~ ~ { { { { { { { { { { { { { { { { { { { { { { { { { { { { { { { { { { { { { { { { { { { { { { { { { { { { { { { { ~ ~ ~ ~ ",
"~ ~ ~ ~ { { { { { { { { { { { { { { { { { { { { { { { { { { { { { { { { { { { { { { { { { { { { { { { { { { { { { { { { ~ ~ ~ ~ ",
"~ ~ ~ ~ { { { { { { { { { { { { { { { { { { { { { { { { { { { { { { { { { { { { { { { { { { { { { { { { { { { { { { { { ~ ~ ~ ~ ",
"~ ~ ~ ~ ~ ~ ~ ~ ~ ~ ~ ~ ~ ~ ~ ~ ~ ~ ~ ~ ~ ~ ~ ~ ~ ~ ~ ~ ~ ~ ~ ~ ~ ~ ~ ~ ~ ~ ~ ~ ~ ~ ~ ~ ~ ~ ~ ~ ~ ~ ~ ~ ~ ~ ~ ~ ~ ~ ~ ~ ~ ~ ~ ~ ",
"~ ~ ~ ~ ~ ~ ~ ~ ~ ~ ~ ~ ~ ~ ~ ~ ~ ~ ~ ~ ~ ~ ~ ~ ~ ~ ~ ~ ~ ~ ~ ~ ~ ~ ~ ~ ~ ~ ~ ~ ~ ~ ~ ~ ~ ~ ~ ~ ~ ~ ~ ~ ~ ~ ~ ~ ~ ~ ~ ~ ~ ~ ~ ~ ",
"~ ~ ~ ~ ~ ~ ~ ~ ~ ~ ~ ~ ~ ~ ~ ~ ~ ~ ~ ~ ~ ~ ~ ~ ~ ~ ~ ~ ~ ~ ~ ~ ~ ~ ~ ~ ~ ~ ~ ~ ~ ~ ~ ~ ~ ~ ~ ~ ~ ~ ~ ~ ~ ~ ~ ~ ~ ~ ~ ~ ~ ~ ~ ~ ",
"~ ~ ~ ~ ~ ~ ~ ~ ~ ~ ~ ~ ~ ~ ~ ~ ~ ~ ~ ~ ~ ~ ~ ~ ~ ~ ~ ~ ~ ~ ~ ~ ~ ~ ~ ~ ~ ~ ~ ~ ~ ~ ~ ~ ~ ~ ~ ~ ~ ~ ~ ~ ~ ~ ~ ~ ~ ~ ~ ~ ~ ~ ~ ~ "
};
