/* XPM */
static char *_604ab6b1c1a405784b05af191dcacadq6a9X5PUTS4aRJvW[] = {
/* columns rows colors chars-per-pixel */
"64 64 99 2 ",
"   c #010101",
".  c #040302",
"X  c #060403",
"o  c #0A0000",
"O  c #0D0000",
"+  c #0F0302",
"@  c #0A0806",
"#  c #110302",
"$  c #120502",
"%  c #150603",
"&  c #110505",
"*  c #160A05",
"=  c #170C05",
"-  c #180C05",
";  c #1F160A",
":  c #181212",
">  c #23170C",
",  c #201A0D",
"<  c #261B0E",
"1  c #231C0F",
"2  c #281C0F",
"3  c #231915",
"4  c #2B1E11",
"5  c #251E18",
"6  c #2A1E18",
"7  c #2B1F1C",
"8  c #2A2113",
"9  c #2F2113",
"0  c #2B201B",
"q  c #2C211D",
"w  c #312215",
"e  c #332416",
"r  c #352A17",
"t  c #3A2A17",
"y  c #272323",
"u  c gray14",
"i  c #2A2525",
"p  c #2F2A2A",
"a  c #352F2F",
"s  c #413530",
"d  c #5D4324",
"f  c #5C4537",
"g  c #694D26",
"h  c #6F5028",
"j  c #715229",
"k  c #73552A",
"l  c #75552A",
"z  c #78582B",
"x  c #7B5B2C",
"c  c #7C5B2C",
"v  c #7F5E2E",
"b  c #634B3A",
"n  c #805E2E",
"m  c #81602E",
"M  c #85622F",
"N  c #866330",
"B  c #8E6732",
"V  c #8F6933",
"C  c #926A33",
"Z  c #936B34",
"A  c #966E35",
"S  c #977035",
"D  c #997136",
"F  c #9C7237",
"G  c #9D7537",
"H  c #9C7338",
"J  c #9B7438",
"K  c #9F7638",
"L  c #A1773A",
"P  c #A27839",
"I  c #A57A3A",
"U  c #A87C3A",
"Y  c #A87C3B",
"T  c #AB7E3C",
"R  c #81614A",
"E  c #83634C",
"W  c #85664F",
"Q  c #97765D",
"!  c #98765D",
"~  c #AE803D",
"^  c #B2833E",
"/  c #B78640",
"(  c #BB8942",
")  c #BC8A42",
"_  c #BF8D43",
"`  c #B98F71",
"'  c #B99073",
"]  c #BB9376",
"[  c #BC9377",
"{  c #BD957A",
"}  c #C08D43",
"|  c #C08E44",
" . c #C38F45",
".. c #C39045",
"X. c #C69246",
"o. c #C89346",
"O. c #C89446",
"+. c #CD9848",
"@. c white",
/* pixels */
"E E E E E E E E E E E E E E E E E E E E E E E E E E E E E E E E E E E E E E E E E E E E E E E E E E E E E E E E E E E E E E E E ",
"E E E E E E E E E E E E E E E E E E E E E E E E E E E E E E E E E E E E E E E E E E E E E E E E E E E E E E E E E E E E E E E E ",
"E E E E E E E E E E E E E E E E E E E E E E E E E E E E E E E E E E E E E E E E E E E E E E E E E E E E E E E E E E E E E E E E ",
"E E E E E E E E E E E E E E E E E E E E E E E E E E E E E E E E E E E E E E E E E E E E E E E E E E E E E E E E E E E E E E E E ",
"E E E E ` ` ` ` ` ` ` ` ` ` ` ` ` ` ` ` ` ` ` ` ` ` ` ` ` ` ` ` ` ` ` ` ` ` ` ` ` ` ` ` ` ` ` ` ` ` ` ` ` ` ` ` ` ` ` ` E E E E ",
"E E E E ` ` ` ` ` ` ` ` ` ` ` ` ` ` ` ` ` ` ` ` ` ` ` ` ` ` ` ` ` ` ` ` ` ` ` ` ` ` ` ` ` ` ` ` ` ` ` ` ` ` ` ` ` ` ` ` E E E E ",
"E E E E ` ` ` ` ` ` ` ` ` ` ` ` ` ` ` ` ` ` ` ` ` ` ` ` ` ` ` ` ` ` ` ` ` ` ` ` ` ` ` ` ` ` ` ` ` ` ` ` ` ` ` ` ` ` ` ` E E E E ",
"E E E E ` ` ` ` ` ` ` ` ` ` ` ` ` ` ` ` ` ` ` ` ` ` ` ` ` ` ` ` ` ` ` ` ` ` ` ` ` ` ` ` ` ` ` ` ` ` ` ` ` ` ` ` ` ` ` ` E E E E ",
"E E E E ` ` ` ` ` ` ` ` ` ` ` ` ` ` ` ` ` ` ` ` ` ` ` ` ` ` ` ` ` ` ` ` ` ` ` ` ` ` ` ` ` ` ` ` ` ` ` ` ` ` ` ` ` ` ` ` E E E E ",
"E E E E ` ` ` ` ` ` ` ` ` ` ` ` ` ` ` ` ` ` ` ` ` ` ` ` ` ` ` ` ` ` ` ` ` ` ` ` ` ` ` ` ` ` ` ` ` ` ` ` ` ` ` ` ` ` ` ` E E E E ",
"E E E E ` ` ` ` ` ` ` ` ` ` ` ` ` ` ` ` ` ` ` ` ` ` ` ` ` ` ` ` ` ` ` ` ` ` ` ` ` ` ` ` ` ` ` ` ` ` ` ` ` ` ` ` ` ` ` ` E E E E ",
"E E E E ` ` ` ` ` ` ` ` ` ` ` ` ` ` ` ` ` ` ` ` ` ` ` ` ` ` ` ` ` ` ` ` ` ` ` ` ` ` ` ` ` ` ` ` ` ` ` ` ` ` ` ` ` ` ` ` E E E E ",
"E E E E E E E E E E E E E E E E E E E E E E E X                                   X E E E E E E E E E E E E E E E E E E E E E E ",
"E E E E E E E E E E E E E E E E E E E E E E E . O O O O O O O O O O O O O O O O O # E E E E E E E E E E E E E E E E E E E E E E ",
"E E E E E E E E E E E E R 6 6 6 6 6 6 6 6 6 0 o O O O O O O O O O O O O O O O O O O 6 6 6 6 6 6 6 6 6 s E E E E E E E E E E E E ",
"E E E E E E E E E E E E R O O O O O O O O O O O O O O O O O O O O O O O O O O O O O O O O O O O O O O p E E E E E E E E E E E E ",
"E E E E ` ` ` ` ` ` ` ` ` O O O O O O O O O O . . .       o O O o             . . . O O O O O O O O O p ` ` ` ` ` ` ` ` E E E E ",
"E E E E ` ` ` ` ` ` 5 @ @ O O O O O O O O O % I K F O.O.+., O $ l O.O.O.O.O.O.K K F   O O O O O O O O O @ @ @ ` ` ` ` ` E E E E ",
"E E E E ` ` ` ` ` ` @ O O O O O O O O O O O % K D A ..| X., O $ j | | | | | | D D A   O O O O O O O O O O O O ` ` ` ` ` E E E E ",
"E E E E ` ` ` ! ! ! @.O O 4 2 2 4 9 9 9 9 9 e G D D K K L ; O # d K K J ( ( ( L L K 8 9 9 9 9 9 9 2 2 < o O O ! ! Q ` ` E E E E ",
"E E E E ` ` ` O O @.@.@.% I D D ~ | | | | | _ S D I   O O O O O O O O   A D S | | | | | | | | | | D D V . O O O O . ` ` E E E E ",
"E E E E ` ` ` O O @.@.@.@.I D D ~ | | | | | _ S D I   O O O O O O O O   A D S | | | | | | | | | | D D V . O O O O . ` ` E E E E ",
"E E E E q 6 6 O O o N @.@.@.@.@.@.| | | | | ( , < 1 N n v H L L L L L K ( ( ( | | | | | | | | | | ( ( / v n N   O O 7 6 3 b E E ",
"E E E E & O O O O . K D D X.@.@.@.@.@.| | | (   O   P D D ) | | | | | | | | | | | | | | | | | | | | | _ D D K   O O O O O f E E ",
"E E E E & O O O O . K D D X.| | @.@.@.@.@.@.(       Y K K | o.o.o.o.o.o.o.o.O.| | | | | | | | | | | | _ D D K   O O O O O f E E ",
"E E E E & O O O O . K D D | | | | | @.@.@.@.@.@.G T   . .                     | | | | | | | | | | | | _ D D K   O O O O O f E E ",
"E E E E & O O O O . K D D | | | | | | | @.@.@.@.@.@.@.@.O O O O O O O O O O   | | | | | | | | | | | | _ D D K   O O O O O f E E ",
"E E E E & O O O O . x l l ) / / ) | | | | | } P @.@.@.@.@.@.@.O > w w w t t r | | | | | | | | | | / / ^ k l x   O O O O O f E E ",
"E E E E & O O O O O O O % I D D ~ | | | | | | | | X.A @.@.@.@.@.@.@.D A | | | | | | | | | | | | | D D V . O O O O O O O O f E E ",
"E E E E & O O O O O o o O Y G G ^ X.X.X.X.X.X.| | X.A D G @.@.@.@.@.@.@.@.@.| | | | X.X.X.X.X.X.X.G G Z   o o O O O O O O f E E ",
"E E E E & O O O O o x z l   . .             O K D S D D D G K K @.@.@.@.@.@.@.@.@.A   .           . . $ x z x   O O O O O f E E ",
"E E E E & O O O O o z l j   O O O O O O O O % K D D D D D D D D D D D @.@.@.@.@.@.@.@.@.@.O O O O O O * z l z   O O O O O f E E ",
"E E E E       O O o m v x                     ~ I I I I I I I I I I I Y I I I @.@.@.@.@.@.@.@.@.      o m v m   O O       f E E ",
"E E E E ` ` ` O O O O O $ x k k N S D D D D Z . O O O O O O O O O O O O O O O O O $ @.@.@.@.@.@.@.@.@.g o O O O O . ` ` E E E E ",
"E E E E ` ` ` & O O O O $ x k k M A A A A A C . O O O O O O O O O O O O O O O O O % I A A A @.@.@.@.@.@.@.O O O O o ` ` E E E E ",
"E E E E ` ` ` ` ` ` . O O - = = - - - - - - ; h g g V B B B B B V V V V B B V g g g = - - - - - - = @.@.@.@.@.` ` ` ] ` E W E E ",
"E E E E ` ` ` ` ` ` . O O O O O O O O O O O $ z l k D D D D D D D D D D D D D l l j   O O O O O O O O O O O @.` ` ` ` ` E E E E ",
"E E E E ` ` ` ` ` `   . . O O O O O O O O O $ c z l L G G G G G G G G G G G L z z l   O O O O O O O O O . .   ` ` ` ` ` E E E E ",
"E E E E ` ` ` ` ` ` ` ` `   O O O O O O O O O . . .                           . . . O O O O O O O O O : ` ` ` ` ` ` ` ` E E E E ",
"E E E E ` ` ` ` ` ` ` ` `   O O O O O O O O O O O O O O O O O O O O O O O O O O O O O O O O O O O O O : ` ` ` ` ` ` ` ` E E E E ",
"E E E E ` ` ` ` ` ` ` ` ` u y y y y y y y y y o O O O O O O O O O O O O O O O O O O i y y y y y y y y a ` ` ` ` ` ` ` ` E E E E ",
"E E E E ` ` ` ` ` ` ` ` ` ` ` ` ` ` ` ` ` ` `   O O O O O O O O O O O O O O O O O & ` ` ` ` ` ` ` ` ` ` ` ` ` ` ` ` ` ` E E E E ",
"E E E E ` ` ` ` ` ` ` ` ` ` ` ` ` ` ` ` ` ` `   o o o o o o o o o o o o o o o o o O ` ` ` ` ` ` ` ` ` ` ` ` ` ` ` ` ` ` E E E E ",
"E E E E ` ` ` ` ` ` ` ` ` ` ` ` ` ` ` ] [ [ ' ` ` ` ` ` ` ` ` ` ` ` ` ` E E E E ` ` { ` ` ' ` ` ` ` ` ` ` ` ` ` ` ` ` ` E E E E ",
"E E E E E E E E E E E E E E E E E E E E E E E E E E E E E E E E E E E E E E E E E E E E E E E E E E E E E E E E E E E E E E E E ",
"E E E E E E E E E E E E E E E E E E E E E E E E E E E E E E E E E E E E E E E E E E E E E E E E E E E E E E E E E E E E E E E E ",
"E E E E E E E E E E E E E E E E E E E E E E E E E E E E E E E E E E E E E E E E E E E E E E E E E E E E E E E E E E E E E E E E ",
"E E E E E E E E E E E E E E E E E E E E E E E E E E E E E E E E E E E E E E E E E E E E E E E E E E E E E E E E E E E E E E E E ",
"E E E E ` ` ` ` ` ` ` ` ` ` ` ` ` ` ` ` ` ` ` ` ` ` ` ` ` ` ` ` ` ` ` ` ` ` ` ` ` ` ` ` ` ` ` ` ` ` ` ` ` ` ` ` ` ` ` ` E E E E ",
"E E E E ` ` ` ` ` ` ` ` ` ` ` ` ` ` ` ` ` ` ` ` ` ` ` ` ` ` ` ` ` ` ` ` ` ` ` ` ` ` ` ` ` ` ` ` ` ` ` ` ` ` ` ` ` ` ` ` E E E E ",
"E E E E ` ` ` ` ` ` ` ` ` ` ` ` ` ` ` ` ` ` ` ` ` ` ` ` ` ` ` ` ` ` ` ` ` ` ` ` ` ` ` ` ` ` ` ` ` ` ` ` ` ` ` ` ` ` ` ` E E E E ",
"E E E E ` ` ` ` ` ` ` ` ` ` ` ` ` ` ` ` ` ` ` ` ` ` ` ` ` ` ` ` ` ` ` ` ` ` ` ` ` ` ` ` ` ` ` ` ` ` ` ` ` ` ` ` ` ` ` ` E E E E ",
"E E E E ` ` ` ` ` ` ` ` ` ` ` ` ` ` ` ` ` ` ` ` ` ` ` ` ` ` ` ` ` ` ` ` ` ` ` ` ` ` ` ` ` ` ` ` ` ` ` ` ` ` ` ` ` ` ` ` E E E E ",
"E E E E ` ` ` ` ` ` ` ` ` ` ` ` ` ` ` ` ` ` ` ` ` ` ` ` ` ` ` ` ` ` ` ` ` ` ` ` ` ` ` ` ` ` ` ` ` ` ` ` ` ` ` ` ` ` ` ` E E E E ",
"E E E E ` ` ` ` ` ` ` ` ` ` ` ` ` ` ` ` ` ` ` ` ` ` ` ` ` ` ` ` ` ` ` ` ` ` ` ` ` ` ` ` ` ` ` ` ` ` ` ` ` ` ` ` ` ` ` ` E E E E ",
"E E E E ` ` ` ` ` ` ` ` ` ` ` ` ` ` ` ` ` ` ` ` ` ` ` ` ` ` ` ` ` ` ` ` ` ` ` ` ` ` ` ` ` ` ` ` ` ` ` ` ` ` ` ` ` ` ` ` E E E E ",
"E E E E ` ` ` ` ` ` ` ` ` ` ` ` ` ` ` ` ` ` ` ` ` ` ` ` ` ` ` ` ` ` ` ` ` ` ` ` ` ` ` ` ` ` ` ` ` ` ` ` ` ` ` ` ` ` ` ` E E E E ",
"E E E E ` ` ` ` ` ` ` ` ` ` ` ` ` ` ` ` ` ` ` ` ` ` ` ` ` ` ` ` ` ` ` ` ` ` ` ` ` ` ` ` ` ` ` ` ` ` ` ` ` ` ` ` ` ` ` ` E E E E ",
"E E E E ` ` ` ` ` ` ` ` ` ` ` ` ` ` ` ` ` ` ` ` ` ` ` ` ` ` ` ` ` ` ` ` ` ` ` ` ` ` ` ` ` ` ` ` ` ` ` ` ` ` ` ` ` ` ` ` E E E E ",
"E E E E ` ` ` ` ` ` ` ` ` ` ` ` ` ` ` ` ` ` ` ` ` ` ` ` ` ` ` ` ` ` ` ` ` ` ` ` ` ` ` ` ` ` ` ` ` ` ` ` ` ` ` ` ` ` ` ` E E E E ",
"E E E E E E E E E E E E E E E E E E E E E E E E E E E E E E E E E E E E E E E E E E E E E E E E E E E E E E E E E E E E E E E E ",
"E E E E E E E E E E E E E E E E E E E E E E E E E E E E E E E E E E E E E E E E E E E E E E E E E E E E E E E E E E E E E E E E ",
"E E E E E E E E E E E E E E E E E E E E E E E E E E E E E E E E E E E E E E E E E E E E E E E E E E E E E E E E E E E E E E E E ",
"E E E E E E E E E E E E E E E E E E E E E E E E E E E E E E E E E E E E E E E E E E E E E E E E E E E E E E E E E E E E E E E E "
};
