/* XPM */
static char *_b30ae1f4e9e4116f4ed7b0999fd837f7t2llo2ApM4pfWV3[] = {
/* columns rows colors chars-per-pixel */
"64 64 103 2 ",
"   c #010101",
".  c #040302",
"X  c #060403",
"o  c #0A0000",
"O  c #0D0000",
"+  c #0F0302",
"@  c #090505",
"#  c #0A0806",
"$  c #110302",
"%  c #120502",
"&  c #150603",
"*  c #110505",
"=  c #160A05",
"-  c #150E06",
";  c #1A0F07",
":  c #1D1007",
">  c #1F160A",
",  c #181212",
"<  c #23170C",
"1  c #201A0D",
"2  c #261B0E",
"3  c #231C0F",
"4  c #281C0F",
"5  c #231915",
"6  c #2B1E11",
"7  c #251E18",
"8  c #2A1E18",
"9  c #2B1F1C",
"0  c #2A2113",
"q  c #2F2113",
"w  c #2B2315",
"e  c #2B201B",
"r  c #2C211D",
"t  c #312315",
"y  c #332416",
"u  c #352A17",
"i  c #3A2A17",
"p  c #272323",
"a  c gray14",
"s  c #2A2525",
"d  c #2F2A2A",
"f  c #352F2F",
"g  c #413530",
"h  c #594021",
"j  c #5D4324",
"k  c #5C4537",
"l  c #694D26",
"z  c #6F5028",
"x  c #715229",
"c  c #73552A",
"v  c #75552A",
"b  c #78582B",
"n  c #7B5B2C",
"m  c #7F5E2E",
"M  c #634B3A",
"N  c #805E2E",
"B  c #82602E",
"V  c #85622F",
"C  c #866330",
"Z  c #8E6732",
"A  c #8F6933",
"S  c #926A33",
"D  c #936B34",
"F  c #966E35",
"G  c #977035",
"H  c #997136",
"J  c #9C7237",
"K  c #9D7537",
"L  c #9C7338",
"P  c #9B7438",
"I  c #9F7638",
"U  c #A1773A",
"Y  c #A27839",
"T  c #A57A3A",
"R  c #A77C3B",
"E  c #A87C3A",
"W  c #A87C3B",
"Q  c #AB7E3C",
"!  c #81614A",
"~  c #83634C",
"^  c #85664F",
"/  c #97765D",
"(  c #98765D",
")  c #AE803D",
"_  c #B2833E",
"`  c #B78640",
"'  c #BB8942",
"]  c #BC8A42",
"[  c #BE8C43",
"{  c #B98F71",
"}  c #B99073",
"|  c #BB9376",
" . c #BC9377",
".. c #BD957A",
"X. c #C08D43",
"o. c #C08E44",
"O. c #C38F45",
"+. c #C39045",
"@. c #C69246",
"#. c #C89346",
"$. c #C89446",
"%. c #CD9848",
"&. c white",
/* pixels */
"~ ~ ~ ~ ~ ~ ~ ~ ~ ~ ~ ~ ~ ~ ~ ~ ~ ~ ~ ~ ~ ~ ~ ~ ~ ~ ~ ~ ~ ~ ~ ~ ~ ~ ~ ~ ~ ~ ~ ~ ~ ~ ~ ~ ~ ~ ~ ~ ~ ~ ~ ~ ~ ~ ~ ~ ~ ~ ~ ~ ~ ~ ~ ~ ",
"~ ~ ~ ~ ~ ~ ~ ~ ~ ~ ~ ~ ~ ~ ~ ~ ~ ~ ~ ~ ~ ~ ~ ~ ~ ~ ~ ~ ~ ~ ~ ~ ~ ~ ~ ~ ~ ~ ~ ~ ~ ~ ~ ~ ~ ~ ~ ~ ~ ~ ~ ~ ~ ~ ~ ~ ~ ~ ~ ~ ~ ~ ~ ~ ",
"~ ~ ~ ~ ~ ~ ~ ~ ~ ~ ~ ~ ~ ~ ~ ~ ~ ~ ~ ~ ~ ~ ~ ~ ~ ~ ~ ~ ~ ~ ~ ~ ~ ~ ~ ~ ~ ~ ~ ~ ~ ~ ~ ~ ~ ~ ~ ~ ~ ~ ~ ~ ~ ~ ~ ~ ~ ~ ~ ~ ~ ~ ~ ~ ",
"~ ~ ~ ~ ~ ~ ~ ~ ~ ~ ~ ~ ~ ~ ~ ~ ~ ~ ~ ~ ~ ~ ~ ~ ~ ~ ~ ~ ~ ~ ~ ~ ~ ~ ~ ~ ~ ~ ~ ~ ~ ~ ~ ~ ~ ~ ~ ~ ~ ~ ~ ~ ~ ~ ~ ~ ~ ~ ~ ~ ~ ~ ~ ~ ",
"~ ~ ~ ~ { { { { { { { { { { { { { { { { { { { { { { { { { { { { { { { { { { { { { { { { { { { { { { { { { { { { { { { { ~ ~ ~ ~ ",
"~ ~ ~ ~ { { { { { { { { { { { { { { { { { { { { { { { { { { { { { { { { { { { { { { { { { { { { { { { { { { { { { { { { ~ ~ ~ ~ ",
"~ ~ ~ ~ { { { { { { { { { { { { { { { { { { { { { { { { { { { { { { { { { { { { { { { { { { { { { { { { { { { { { { { { ~ ~ ~ ~ ",
"~ ~ ~ ~ { { { { { { { { { { { { { { { { { { { { { { { { { { { { { { { { { { { { { { { { { { { { { { { { { { { { { { { { ~ ~ ~ ~ ",
"~ ~ ~ ~ { { { { { { { { { { { { { { { { { { { { { { { { { { { { { { { { { { { { { { { { { { { { { { { { { { { { { { { { ~ ~ ~ ~ ",
"~ ~ ~ ~ { { { { { { { { { { { { { { { { { { { { { { { { { { { { { { { { { { { { { { { { { { { { { { { { { { { { { { { { ~ ~ ~ ~ ",
"~ ~ ~ ~ { { { { { { { { { { { { { { { { { { { { { { { { { { { { { { { { { { { { { { { { { { { { { { { { { { { { { { { { ~ ~ ~ ~ ",
"~ ~ ~ ~ { { { { { { { { { { { { { { { { { { { { { { { { { { { { { { { { { { { { { { { { { { { { { { { { { { { { { { { { ~ ~ ~ ~ ",
"~ ~ ~ ~ ~ ~ ~ ~ ~ ~ ~ ~ ~ ~ ~ ~ ~ ~ ~ ~ ~ ~ ~ X                                   X ~ ~ ~ ~ ~ ~ ~ ~ ~ ~ ~ ~ ~ ~ ~ ~ ~ ~ ~ ~ ~ ~ ",
"~ ~ ~ ~ ~ ~ ~ ~ ~ ~ ~ ~ ~ ~ ~ ~ ~ ~ ~ ~ ~ ~ ~ . O O O O O O O O O O O O O O O O O $ ~ ~ ~ ~ ~ ~ ~ ~ ~ ~ ~ ~ ~ ~ ~ ~ ~ ~ ~ ~ ~ ~ ",
"~ ~ ~ ~ ~ ~ ~ ~ ~ ~ ~ ~ ! 8 8 8 8 8 8 8 8 8 e o O O O O O O O O O O O O O O O O O O 8 8 8 8 8 8 8 8 8 g ~ ~ ~ ~ ~ ~ ~ ~ ~ ~ ~ ~ ",
"~ ~ ~ ~ ~ ~ ~ ~ ~ ~ ~ ~ ! O O O O O O O O O O O O O O O O O O O O O O O O O O O O O O O O O O O O O O d ~ ~ ~ ~ ~ ~ ~ ~ ~ ~ ~ ~ ",
"~ ~ ~ ~ { { { { { { { { { O O O O O O O O O O . . .       o O O o             . . . O O O O O O O O O d { { { { { { { { ~ ~ ~ ~ ",
"~ ~ ~ ~ { { { { { { 7 # # O O O O O O O O O & T I J $.$.%.1 O % v $.$.$.$.$.$.I I J   O O O O O O O O O # # # { { { { { ~ ~ ~ ~ ",
"~ ~ ~ ~ { { { { { { # O O O O O O O O O O O & I H F +.o.@.1 O % x o.o.o.o.o.o.H H F   O O O O O O O O O O O O { { { { { ~ ~ ~ ~ ",
"~ ~ ~ ~ { { { ( ( ( @ O O 6 4 4 6 q q q q q y K H H I I U > O $ j I I P ' ' ' U U I 0 q q q q q q 4 4 2 o O O ( ( / { { ~ ~ ~ ~ ",
"~ ~ ~ ~ { { { O O O O O & T H H ) o.o.o.o.o.[ G H T   O O O O O O O O   F H G o.o.o.o.o.o.o.o.o.o.H H A . O O O O . { { ~ ~ ~ ~ ",
"~ ~ ~ ~ { { { O O O O O & T H H ) o.o.o.o.o.[ G H T   O O O O O O O O   F H G o.o.o.o.o.o.o.o.o.o.H H A . O O O O . { { ~ ~ ~ ~ ",
"~ ~ ~ ~ r 8 8 O O o C N B [ ' ' [ o.o.o.o.o.' 1 2 3 C N m L U U U U U I ' ' ' o.o.o.o.o.o.o.o.o.o.' ' ` m N C   O O 9 8 5 M ~ ~ ",
"~ ~ ~ ~ * O O O O . I H H @.o.o.o.o.o.o.o.o.'   O   Y H H ] o.o.o.o.o.o.o.o.o.o.o.o.o.o.o.o.o.o.o.o.o.[ H H I   O O O O O k ~ ~ ",
"~ ~ ~ ~ * O O O O . I H H @.o.o.o.o.o.o.o.o.'       W I I o.#.#.#.#.#.#.#.#.$.o.o.o.o.o.o.o.o.o.o.o.o.[ H H I   O O O O O k ~ ~ ",
"~ ~ ~ ~ * O O O O . I H H @.o.o.o.o.o.o.o.o.[ K K Q   . .                     o.o.o.o.o.o.o.o.o.o.o.o.[ H H I   O O O O O k ~ ~ ",
"~ ~ ~ ~ * O O O O . I H H o.o.o.o.o.o.o.o.o.[ G H T   O O O O O O O O O O O   o.o.o.o.o.o.o.o.o.o.o.o.[ H H I   O O O O O k ~ ~ ",
"~ ~ ~ ~ * O O O O o n v v ] ` ` ] o.o.o.o.o.X.Y Y ) w t y & O O < t t t i i u o.o.o.o.o.o.o.o.o.o.` ` _ c v n   O O O O O k ~ ~ ",
"~ ~ ~ ~ &.&.O O O O O O & T H H ) o.o.o.o.o.o.o.o.@.F H K > O $ h H H F o.o.o.o.o.o.o.o.o.o.o.o.o.H H A . O O O O O O O O k ~ ~ ",
"~ ~ ~ ~ &.&.&.&.O O o o O W K K _ @.@.@.@.@.@.o.o.@.F H K : . o h H H F o.o.o.o.o.o.@.@.@.@.@.@.@.K K D   o o O O O O O O k ~ ~ ",
"~ ~ ~ ~ * &.&.&.&.&.n b v   . .             O I H G H H H K I I H H H H H H H H H F   .           . . % n b n   O O O O O k ~ ~ ",
"~ ~ ~ ~ * O O &.&.&.&.&.x   O O O O O O O O & I H H H H H H H H H H H H H H H H H F   O O O O O O O O = b v b   O O O O O k ~ ~ ",
"~ ~ ~ ~       O O &.&.&.&.                    ) T T T T T T T T R T T R T T T T W T                   o B m B   O O       k ~ ~ ",
"~ ~ ~ ~ { { { O O O &.&.&.&.c c C G H H H H D . O O O O O O O O O O O O O O O O O % R H H H H H F v c l o O O O O . { { ~ ~ ~ ~ ",
"~ ~ ~ ~ { { { * O O O O &.&.&.c V F F F F F S . O O O O O O O O O O O O O O O O O & T F F F F F F c c l . O O O O o { { ~ ~ ~ ~ ",
"~ ~ ~ ~ { { { { { { . O O &.&.&.&.; ; ; ; ; > z l l A Z Z Z Z Z Z A A A Z Z A l l l - ; ; ; ; ; ; - - = O O . { { { | { ~ ^ ~ ~ ",
"~ ~ ~ ~ { { { { { { . O O O &.&.&.&.&.&.O O % b v c H H H H H H H H H H H H H v v x   O O O O O O O O O O O . { { { { { ~ ~ ~ ~ ",
"~ ~ ~ ~ { { { { { {   . . O O &.&.&.&.&.&.&.&.&.&.v U K K K K K K K K K K K U b b v   O O O O O O O O O . .   { { { { { ~ ~ ~ ~ ",
"~ ~ ~ ~ { { { { { { { { {   O O O O &.&.&.&.&.&.&.&.&.&.&.&.                  . . . O O O O O O O O O , { { { { { { { { ~ ~ ~ ~ ",
"~ ~ ~ ~ { { { { { { { { {   O O O O O O O O O &.&.&.&.&.&.&.&.&.&.&.&.&.&.O O O O O O O O O O O O O O , { { { { { { { { ~ ~ ~ ~ ",
"~ ~ ~ ~ { { { { { { { { { a p p p p p p p p p o O O O O O &.&.&.&.&.&.&.&.&.&.&.O O s p p p p p p p p f { { { { { { { { ~ ~ ~ ~ ",
"~ ~ ~ ~ { { { { { { { { { { { { { { { { { { {   O O O O O O O O O O O O O &.&.&.&.&.{ { { { { { { { { { { { { { { { { { ~ ~ ~ ~ ",
"~ ~ ~ ~ { { { { { { { { { { { { { { { { { { {   o o o o o o o o o o o o o o o o &.&.{ { { { { { { { { { { { { { { { { { ~ ~ ~ ~ ",
"~ ~ ~ ~ { { { { { { { { { { { { { { { |  . .} { { { { { { { { { { { { { ~ ~ ~ ~ { { ..{ { } { { { { { { { { { { { { { { ~ ~ ~ ~ ",
"~ ~ ~ ~ ~ ~ ~ ~ ~ ~ ~ ~ ~ ~ ~ ~ ~ ~ ~ ~ ~ ~ ~ ~ ~ ~ ~ ~ ~ ~ ~ ~ ~ ~ ~ ~ ~ ~ ~ ~ ~ ~ ~ ~ ~ ~ ~ ~ ~ ~ ~ ~ ~ ~ ~ ~ ~ ~ ~ ~ ~ ~ ~ ~ ",
"~ ~ ~ ~ ~ ~ ~ ~ ~ ~ ~ ~ ~ ~ ~ ~ ~ ~ ~ ~ ~ ~ ~ ~ ~ ~ ~ ~ ~ ~ ~ ~ ~ ~ ~ ~ ~ ~ ~ ~ ~ ~ ~ ~ ~ ~ ~ ~ ~ ~ ~ ~ ~ ~ ~ ~ ~ ~ ~ ~ ~ ~ ~ ~ ",
"~ ~ ~ ~ ~ ~ ~ ~ ~ ~ ~ ~ ~ ~ ~ ~ ~ ~ ~ ~ ~ ~ ~ ~ ~ ~ ~ ~ ~ ~ ~ ~ ~ ~ ~ ~ ~ ~ ~ ~ ~ ~ ~ ~ ~ ~ ~ ~ ~ ~ ~ ~ ~ ~ ~ ~ ~ ~ ~ ~ ~ ~ ~ ~ ",
"~ ~ ~ ~ ~ ~ ~ ~ ~ ~ ~ ~ ~ ~ ~ ~ ~ ~ ~ ~ ~ ~ ~ ~ ~ ~ ~ ~ ~ ~ ~ ~ ~ ~ ~ ~ ~ ~ ~ ~ ~ ~ ~ ~ ~ ~ ~ ~ ~ ~ ~ ~ ~ ~ ~ ~ ~ ~ ~ ~ ~ ~ ~ ~ ",
"~ ~ ~ ~ { { { { { { { { { { { { { { { { { { { { { { { { { { { { { { { { { { { { { { { { { { { { { { { { { { { { { { { { ~ ~ ~ ~ ",
"~ ~ ~ ~ { { { { { { { { { { { { { { { { { { { { { { { { { { { { { { { { { { { { { { { { { { { { { { { { { { { { { { { { ~ ~ ~ ~ ",
"~ ~ ~ ~ { { { { { { { { { { { { { { { { { { { { { { { { { { { { { { { { { { { { { { { { { { { { { { { { { { { { { { { { ~ ~ ~ ~ ",
"~ ~ ~ ~ { { { { { { { { { { { { { { { { { { { { { { { { { { { { { { { { { { { { { { { { { { { { { { { { { { { { { { { { ~ ~ ~ ~ ",
"~ ~ ~ ~ { { { { { { { { { { { { { { { { { { { { { { { { { { { { { { { { { { { { { { { { { { { { { { { { { { { { { { { { ~ ~ ~ ~ ",
"~ ~ ~ ~ { { { { { { { { { { { { { { { { { { { { { { { { { { { { { { { { { { { { { { { { { { { { { { { { { { { { { { { { ~ ~ ~ ~ ",
"~ ~ ~ ~ { { { { { { { { { { { { { { { { { { { { { { { { { { { { { { { { { { { { { { { { { { { { { { { { { { { { { { { { ~ ~ ~ ~ ",
"~ ~ ~ ~ { { { { { { { { { { { { { { { { { { { { { { { { { { { { { { { { { { { { { { { { { { { { { { { { { { { { { { { { ~ ~ ~ ~ ",
"~ ~ ~ ~ { { { { { { { { { { { { { { { { { { { { { { { { { { { { { { { { { { { { { { { { { { { { { { { { { { { { { { { { ~ ~ ~ ~ ",
"~ ~ ~ ~ { { { { { { { { { { { { { { { { { { { { { { { { { { { { { { { { { { { { { { { { { { { { { { { { { { { { { { { { ~ ~ ~ ~ ",
"~ ~ ~ ~ { { { { { { { { { { { { { { { { { { { { { { { { { { { { { { { { { { { { { { { { { { { { { { { { { { { { { { { { ~ ~ ~ ~ ",
"~ ~ ~ ~ { { { { { { { { { { { { { { { { { { { { { { { { { { { { { { { { { { { { { { { { { { { { { { { { { { { { { { { { ~ ~ ~ ~ ",
"~ ~ ~ ~ ~ ~ ~ ~ ~ ~ ~ ~ ~ ~ ~ ~ ~ ~ ~ ~ ~ ~ ~ ~ ~ ~ ~ ~ ~ ~ ~ ~ ~ ~ ~ ~ ~ ~ ~ ~ ~ ~ ~ ~ ~ ~ ~ ~ ~ ~ ~ ~ ~ ~ ~ ~ ~ ~ ~ ~ ~ ~ ~ ~ ",
"~ ~ ~ ~ ~ ~ ~ ~ ~ ~ ~ ~ ~ ~ ~ ~ ~ ~ ~ ~ ~ ~ ~ ~ ~ ~ ~ ~ ~ ~ ~ ~ ~ ~ ~ ~ ~ ~ ~ ~ ~ ~ ~ ~ ~ ~ ~ ~ ~ ~ ~ ~ ~ ~ ~ ~ ~ ~ ~ ~ ~ ~ ~ ~ ",
"~ ~ ~ ~ ~ ~ ~ ~ ~ ~ ~ ~ ~ ~ ~ ~ ~ ~ ~ ~ ~ ~ ~ ~ ~ ~ ~ ~ ~ ~ ~ ~ ~ ~ ~ ~ ~ ~ ~ ~ ~ ~ ~ ~ ~ ~ ~ ~ ~ ~ ~ ~ ~ ~ ~ ~ ~ ~ ~ ~ ~ ~ ~ ~ ",
"~ ~ ~ ~ ~ ~ ~ ~ ~ ~ ~ ~ ~ ~ ~ ~ ~ ~ ~ ~ ~ ~ ~ ~ ~ ~ ~ ~ ~ ~ ~ ~ ~ ~ ~ ~ ~ ~ ~ ~ ~ ~ ~ ~ ~ ~ ~ ~ ~ ~ ~ ~ ~ ~ ~ ~ ~ ~ ~ ~ ~ ~ ~ ~ "
};
