/* XPM */
static char *_13667efd6ab47cc9724a629a8de5382bPEZp0UyZJQeGQXQ[] = {
/* columns rows colors chars-per-pixel */
"64 64 102 2 ",
"   c #010101",
".  c #040302",
"X  c #060403",
"o  c #0A0000",
"O  c #0C0000",
"+  c #090505",
"@  c #0A0806",
"#  c #110302",
"$  c #120502",
"%  c #150603",
"&  c #110505",
"*  c #160A05",
"=  c #170C05",
"-  c #180C05",
";  c #1D1007",
":  c #1F160A",
">  c #181212",
",  c #23170C",
"<  c #201A0D",
"1  c #261B0E",
"2  c #231C0F",
"3  c #281C0F",
"4  c #231915",
"5  c #2B1E11",
"6  c #251E18",
"7  c #2A1E18",
"8  c #2B1F1C",
"9  c #2A2113",
"0  c #2F2113",
"q  c #2B2315",
"w  c #2B201B",
"e  c #2C211D",
"r  c #312315",
"t  c #322415",
"y  c #352A17",
"u  c #3A2A17",
"i  c #272323",
"p  c gray14",
"a  c #2A2525",
"s  c #2F2A2A",
"d  c #352F2F",
"f  c #413530",
"g  c #594021",
"h  c #5D4324",
"j  c #5C4537",
"k  c #694D26",
"l  c #6B4E27",
"z  c #6F5028",
"x  c #715229",
"c  c #73552A",
"v  c #75552A",
"b  c #78582B",
"n  c #7B5B2C",
"m  c #7C5B2C",
"M  c #7F5E2E",
"N  c #634B3A",
"B  c #805E2E",
"V  c #82602E",
"C  c #85622F",
"Z  c #866330",
"A  c #8E6732",
"S  c #8F6933",
"D  c #926A33",
"F  c #936B34",
"G  c #966E35",
"H  c #977035",
"J  c #987036",
"K  c #9C7237",
"L  c #9E7437",
"P  c #9B7438",
"I  c #9F7538",
"U  c #A1773A",
"Y  c #A27839",
"T  c #A57A3A",
"R  c #A77C3B",
"E  c #A87C3A",
"W  c #A87C3B",
"Q  c #AB7E3C",
"!  c #81614A",
"~  c #83634C",
"^  c #85664F",
"/  c #97765D",
"(  c #98765D",
")  c #AE803D",
"_  c #B2833E",
"`  c #B78640",
"'  c #BB8942",
"]  c #BC8A42",
"[  c #BE8C43",
"{  c #B98F71",
"}  c #B99073",
"|  c #BB9376",
" . c #BC9377",
".. c #BD957A",
"X. c #C08D43",
"o. c #C08E44",
"O. c #C39045",
"+. c #C69246",
"@. c #C89346",
"#. c #C89446",
"$. c #CD9848",
"%. c white",
/* pixels */
"~ ~ ~ ~ ~ ~ ~ ~ ~ ~ ~ ~ ~ ~ ~ ~ ~ ~ ~ ~ ~ ~ ~ ~ ~ ~ ~ ~ ~ ~ ~ ~ ~ ~ ~ ~ ~ ~ ~ ~ ~ ~ ~ ~ ~ ~ ~ ~ ~ ~ ~ ~ ~ ~ ~ ~ ~ ~ ~ ~ ~ ~ ~ ~ ",
"~ ~ ~ ~ ~ ~ ~ ~ ~ ~ ~ ~ ~ ~ ~ ~ ~ ~ ~ ~ ~ ~ ~ ~ ~ ~ ~ ~ ~ ~ ~ ~ ~ ~ ~ ~ ~ ~ ~ ~ ~ ~ ~ ~ ~ ~ ~ ~ ~ ~ ~ ~ ~ ~ ~ ~ ~ ~ ~ ~ ~ ~ ~ ~ ",
"~ ~ ~ ~ ~ ~ ~ ~ ~ ~ ~ ~ ~ ~ ~ ~ ~ ~ ~ ~ ~ ~ ~ ~ ~ ~ ~ ~ ~ ~ ~ ~ ~ ~ ~ ~ ~ ~ ~ ~ ~ ~ ~ ~ ~ ~ ~ ~ ~ ~ ~ ~ ~ ~ ~ ~ ~ ~ ~ ~ ~ ~ ~ ~ ",
"~ ~ ~ ~ ~ ~ ~ ~ ~ ~ ~ ~ ~ ~ ~ ~ ~ ~ ~ ~ ~ ~ ~ ~ ~ ~ ~ ~ ~ ~ ~ ~ ~ ~ ~ ~ ~ ~ ~ ~ ~ ~ ~ ~ ~ ~ ~ ~ ~ ~ ~ ~ ~ ~ ~ ~ ~ ~ ~ ~ ~ ~ ~ ~ ",
"~ ~ ~ ~ { { { { { { { { { { { { { { { { { { { { { { { { { { { { { { { { { { { { { { { { { { { { { { { { { { { { { { { { ~ ~ ~ ~ ",
"~ ~ ~ ~ { { { { { { { { { { { { { { { { { { { { { { { { { { { { { { { { { { { { { { { { { { { { { { { { { { { { { { { { ~ ~ ~ ~ ",
"~ ~ ~ ~ { { { { { { { { { { { { { { { { { { { { { { { { { { { { { { { { { { { { { { { { { { { { { { { { { { { { { { { { ~ ~ ~ ~ ",
"~ ~ ~ ~ { { { { { { { { { { { { { { { { { { { { { { { { { { { { { { { { { { { { { { { { { { { { { { { { { { { { { { { { ~ ~ ~ ~ ",
"~ ~ ~ ~ { { { { { { { { { { { { { { { { { { { { { { { { { { { { { { { { { { { { { { { { { { { { { { { { { { { { { { { { ~ ~ ~ ~ ",
"~ ~ ~ ~ { { { { { { { { { { { { { { { { { { { { { { { { { { { { { { { { { { { { { { { { { { { { { { { { { { { { { { { { ~ ~ ~ ~ ",
"~ ~ ~ ~ { { { { { { { { { { { { { { { { { { { { { { { { { { { { { { { { { { { { { { { { { { { { { { { { { { { { { { { { ~ ~ ~ ~ ",
"~ ~ ~ ~ { { { { { { { { { { { { { { { { { { { { { { { { { { { { { { { { { { { { { { { { { { { { { { { { { { { { { { { { ~ ~ ~ ~ ",
"~ ~ ~ ~ ~ ~ ~ ~ ~ ~ ~ ~ ~ ~ ~ ~ ~ ~ ~ ~ ~ ~ ~ X                                   X ~ ~ ~ ~ ~ ~ ~ ~ ~ ~ ~ ~ ~ ~ ~ ~ ~ ~ ~ ~ ~ ~ ",
"~ ~ ~ ~ ~ ~ ~ ~ ~ ~ ~ ~ ~ ~ ~ ~ ~ ~ ~ ~ ~ ~ ~ . O O O O O O O O O O O O O O O O O # ~ ~ ~ ~ ~ ~ ~ ~ ~ ~ ~ ~ ~ ~ ~ ~ ~ ~ ~ ~ ~ ~ ",
"~ ~ ~ ~ ~ ~ ~ ~ ~ ~ ~ ~ ! 7 7 7 7 7 7 7 7 7 w o O O O O O O O O O O O O O O O O O O 7 7 7 7 7 7 7 7 7 f ~ ~ ~ ~ ~ ~ ~ ~ ~ ~ ~ ~ ",
"~ ~ ~ ~ ~ ~ ~ ~ ~ ~ ~ ~ ! %.O O O O O O O O O O O O O O O O O O O O O O O O O O O O O O O O O O O O O s ~ ~ ~ ~ ~ ~ ~ ~ ~ ~ ~ ~ ",
"~ ~ ~ ~ { { { { { { { { { %.%.%.%.%.O O O O O . . .       o O O o             . . . O O O O O O O O O s { { { { { { { { ~ ~ ~ ~ ",
"~ ~ ~ ~ { { { { { { 6 @ @ %.%.%.%.%.%.%.%.O % T I K #.#.$.< O $ v #.#.#.#.#.#.I I K   O O O O O O O O O @ @ @ { { { { { ~ ~ ~ ~ ",
"~ ~ ~ ~ { { { { { { @ O O O O O O %.%.%.%.%.%.%.%.G O.o.+.< O $ x o.o.o.o.o.o.J J G   O O O O O O O O O O O O { { { { { ~ ~ ~ ~ ",
"~ ~ ~ ~ { { { ( ( ( + O O 5 3 3 5 0 0 0 0 %.%.%.%.%.%.%.U : O # h I I P ' ' ' U U I 9 0 0 0 0 0 0 3 3 1 o O O ( ( / { { ~ ~ ~ ~ ",
"~ ~ ~ ~ { { { O O O O O % T J J ) o.o.o.o.o.[ H %.%.%.%.%.%.O O O O O   G J H o.o.o.o.o.o.o.o.o.o.J J S . O O O O . { { ~ ~ ~ ~ ",
"~ ~ ~ ~ { { { O O O O O % T J J ) o.o.o.o.o.[ H J T   %.%.%.%.%.O O O   G J H o.o.o.o.o.o.o.o.o.o.J J S . O O O O . { { ~ ~ ~ ~ ",
"~ ~ ~ ~ e 7 7 O O o Z B V [ ' ' [ o.o.o.o.o.' < 1 2 Z B M %.%.%.%.%.U I ' ' ' o.o.o.o.o.o.o.o.o.o.' ' ` M B Z   O O 8 7 4 N ~ ~ ",
"~ ~ ~ ~ & O O O O . I J J +.o.o.o.o.o.o.o.o.'   O   Y J J ] o.%.%.%.%.%.o.o.o.o.o.o.o.o.o.o.o.o.o.o.o.[ J J I   O O O O O j ~ ~ ",
"~ ~ ~ ~ & O O O O . I J J +.o.o.o.o.o.o.o.o.'       W I I o.@.@.@.%.%.%.%.%.#.o.o.o.o.o.o.o.o.o.o.o.o.[ J J I   O O O O O j ~ ~ ",
"~ ~ ~ ~ & O O O O . I J J +.o.o.o.o.o.o.o.o.[ L L Q   . .             %.%.%.%.%.%.%.o.o.o.o.o.o.o.o.o.[ J J I   O O O O O j ~ ~ ",
"~ ~ ~ ~ & O O O O . I J J +.o.o.o.o.o.o.o.o.[ H J T   O O O O O O O O O O O %.%.%.%.%.%.%.o.o.o.o.o.o.[ J J I   O O O O O j ~ ~ ",
"~ ~ ~ ~ & O O O O o n v v ] ` ` ] o.o.o.o.o.X.Y Y ) q r t % O O , r r r u u y o.o.%.%.%.%.%.o.o.o.` ` _ c v n   O O O O O j ~ ~ ",
"~ ~ ~ ~ & O O O O O O O % T J J ) o.o.o.o.o.o.o.o.+.G J L : O # g J J G o.o.o.o.o.o.o.o.%.%.%.%.%.%.J S . O O O O O O O O j ~ ~ ",
"~ ~ ~ ~ & O O O O O o o O W L L _ +.+.+.+.+.+.o.o.+.G J L ; . o g J J G o.o.o.o.o.o.+.+.+.+.+.%.%.%.%.%.%.o o O O O O O O j ~ ~ ",
"~ ~ ~ ~ & O O O O o n b v   . .             O I J H J J J L I I J J J J J J J J J G               . %.%.%.%.%.  O O O O O j ~ ~ ",
"~ ~ ~ ~ & O O O O o b v x   O O O O O O O O % I J J J J J J J J J J J J J J J J J G   O O O O O O O O * b %.%.%.%.%.O O O j ~ ~ ",
"~ ~ ~ ~       O O o V M n                     ) T T T T T T T W W T T T T T T W W T                   o V M V   %.%.%.    j ~ ~ ",
"~ ~ ~ ~ { { { O O O O O $ n c c Z H J J J J F . O O O O O O O O O O O O O O O O O $ R J J J J J G v c k o O O O O . %.{ ~ ~ ~ ~ ",
"~ ~ ~ ~ { { { & O O O O $ n c c C G G G G G D . # O O O O # O O O O $ $ O # O O O % T G G G G G G c c k . O O O O o { { ~ ~ ~ ~ ",
"~ ~ ~ ~ { { { { { { . O O - = = - - - - - - : z k k S A A A A A A A A A A A S k k k = - - - - - - = = * O O . { { { | { ~ ^ ~ ~ ",
"~ ~ ~ ~ { { { { { { . O O O O O O O O O O O $ b v c J J J J J J J J J J J J J v v x   O O O O O O O O O O O . { { { { { ~ ~ ~ ~ ",
"~ ~ ~ ~ { { { { { {   . . O O O O O O O O O $ m b v U L L L L L L L L L L L U b b v   O O O O O O O O O . .   { { { { { ~ ~ ~ ~ ",
"~ ~ ~ ~ { { { { { { { { {   O O O O O O O O O . . .                           . . . O O O O O O O O O > { { { { { { { { ~ ~ ~ ~ ",
"~ ~ ~ ~ { { { { { { { { {   O O O O O O O O O O O O O O O O O O O O O O O O O O O O O O O O O O O O O > { { { { { { { { ~ ~ ~ ~ ",
"~ ~ ~ ~ { { { { { { { { { p i i i i i i i i i o O O O O O O O O O O O O O O O O O O a i i i i i i i i d { { { { { { { { ~ ~ ~ ~ ",
"~ ~ ~ ~ { { { { { { { { { { { { { { { { { { {   O O O O O O O O O O O O O O O O O & { { { { { { { { { { { { { { { { { { ~ ~ ~ ~ ",
"~ ~ ~ ~ { { { { { { { { { { { { { { { { { { {   o o o o o o o o o o o o o o o o o O { { { { { { { { { { { { { { { { { { ~ ~ ~ ~ ",
"~ ~ ~ ~ { { { { { { { { { { { { { { { |  . .} { { { { { { { { { { { { { ~ ~ ~ ~ { { ..{ { } { { { { { { { { { { { { { { ~ ~ ~ ~ ",
"~ ~ ~ ~ ~ ~ ~ ~ ~ ~ ~ ~ ~ ~ ~ ~ ~ ~ ~ ~ ~ ~ ~ ~ ~ ~ ~ ~ ~ ~ ~ ~ ~ ~ ~ ~ ~ ~ ~ ~ ~ ~ ~ ~ ~ ~ ~ ~ ~ ~ ~ ~ ~ ~ ~ ~ ~ ~ ~ ~ ~ ~ ~ ~ ",
"~ ~ ~ ~ ~ ~ ~ ~ ~ ~ ~ ~ ~ ~ ~ ~ ~ ~ ~ ~ ~ ~ ~ ~ ~ ~ ~ ~ ~ ~ ~ ~ ~ ~ ~ ~ ~ ~ ~ ~ ~ ~ ~ ~ ~ ~ ~ ~ ~ ~ ~ ~ ~ ~ ~ ~ ~ ~ ~ ~ ~ ~ ~ ~ ",
"~ ~ ~ ~ ~ ~ ~ ~ ~ ~ ~ ~ ~ ~ ~ ~ ~ ~ ~ ~ ~ ~ ~ ~ ~ ~ ~ ~ ~ ~ ~ ~ ~ ~ ~ ~ ~ ~ ~ ~ ~ ~ ~ ~ ~ ~ ~ ~ ~ ~ ~ ~ ~ ~ ~ ~ ~ ~ ~ ~ ~ ~ ~ ~ ",
"~ ~ ~ ~ ~ ~ ~ ~ ~ ~ ~ ~ ~ ~ ~ ~ ~ ~ ~ ~ ~ ~ ~ ~ ~ ~ ~ ~ ~ ~ ~ ~ ~ ~ ~ ~ ~ ~ ~ ~ ~ ~ ~ ~ ~ ~ ~ ~ ~ ~ ~ ~ ~ ~ ~ ~ ~ ~ ~ ~ ~ ~ ~ ~ ",
"~ ~ ~ ~ { { { { { { { { { { { { { { { { { { { { { { { { { { { { { { { { { { { { { { { { { { { { { { { { { { { { { { { { ~ ~ ~ ~ ",
"~ ~ ~ ~ { { { { { { { { { { { { { { { { { { { { { { { { { { { { { { { { { { { { { { { { { { { { { { { { { { { { { { { { ~ ~ ~ ~ ",
"~ ~ ~ ~ { { { { { { { { { { { { { { { { { { { { { { { { { { { { { { { { { { { { { { { { { { { { { { { { { { { { { { { { ~ ~ ~ ~ ",
"~ ~ ~ ~ { { { { { { { { { { { { { { { { { { { { { { { { { { { { { { { { { { { { { { { { { { { { { { { { { { { { { { { { ~ ~ ~ ~ ",
"~ ~ ~ ~ { { { { { { { { { { { { { { { { { { { { { { { { { { { { { { { { { { { { { { { { { { { { { { { { { { { { { { { { ~ ~ ~ ~ ",
"~ ~ ~ ~ { { { { { { { { { { { { { { { { { { { { { { { { { { { { { { { { { { { { { { { { { { { { { { { { { { { { { { { { ~ ~ ~ ~ ",
"~ ~ ~ ~ { { { { { { { { { { { { { { { { { { { { { { { { { { { { { { { { { { { { { { { { { { { { { { { { { { { { { { { { ~ ~ ~ ~ ",
"~ ~ ~ ~ { { { { { { { { { { { { { { { { { { { { { { { { { { { { { { { { { { { { { { { { { { { { { { { { { { { { { { { { ~ ~ ~ ~ ",
"~ ~ ~ ~ { { { { { { { { { { { { { { { { { { { { { { { { { { { { { { { { { { { { { { { { { { { { { { { { { { { { { { { { ~ ~ ~ ~ ",
"~ ~ ~ ~ { { { { { { { { { { { { { { { { { { { { { { { { { { { { { { { { { { { { { { { { { { { { { { { { { { { { { { { { ~ ~ ~ ~ ",
"~ ~ ~ ~ { { { { { { { { { { { { { { { { { { { { { { { { { { { { { { { { { { { { { { { { { { { { { { { { { { { { { { { { ~ ~ ~ ~ ",
"~ ~ ~ ~ { { { { { { { { { { { { { { { { { { { { { { { { { { { { { { { { { { { { { { { { { { { { { { { { { { { { { { { { ~ ~ ~ ~ ",
"~ ~ ~ ~ ~ ~ ~ ~ ~ ~ ~ ~ ~ ~ ~ ~ ~ ~ ~ ~ ~ ~ ~ ~ ~ ~ ~ ~ ~ ~ ~ ~ ~ ~ ~ ~ ~ ~ ~ ~ ~ ~ ~ ~ ~ ~ ~ ~ ~ ~ ~ ~ ~ ~ ~ ~ ~ ~ ~ ~ ~ ~ ~ ~ ",
"~ ~ ~ ~ ~ ~ ~ ~ ~ ~ ~ ~ ~ ~ ~ ~ ~ ~ ~ ~ ~ ~ ~ ~ ~ ~ ~ ~ ~ ~ ~ ~ ~ ~ ~ ~ ~ ~ ~ ~ ~ ~ ~ ~ ~ ~ ~ ~ ~ ~ ~ ~ ~ ~ ~ ~ ~ ~ ~ ~ ~ ~ ~ ~ ",
"~ ~ ~ ~ ~ ~ ~ ~ ~ ~ ~ ~ ~ ~ ~ ~ ~ ~ ~ ~ ~ ~ ~ ~ ~ ~ ~ ~ ~ ~ ~ ~ ~ ~ ~ ~ ~ ~ ~ ~ ~ ~ ~ ~ ~ ~ ~ ~ ~ ~ ~ ~ ~ ~ ~ ~ ~ ~ ~ ~ ~ ~ ~ ~ ",
"~ ~ ~ ~ ~ ~ ~ ~ ~ ~ ~ ~ ~ ~ ~ ~ ~ ~ ~ ~ ~ ~ ~ ~ ~ ~ ~ ~ ~ ~ ~ ~ ~ ~ ~ ~ ~ ~ ~ ~ ~ ~ ~ ~ ~ ~ ~ ~ ~ ~ ~ ~ ~ ~ ~ ~ ~ ~ ~ ~ ~ ~ ~ ~ "
};
