/* XPM */
static char *e464b1b23c3f4e9eaf82f5adc79740f4r1MND8yvItj6QWYk[] = {
/* columns rows colors chars-per-pixel */
"64 64 104 2 ",
"   c #010101",
".  c #040302",
"X  c #060403",
"o  c #0A0000",
"O  c #0D0000",
"+  c #0F0302",
"@  c #090505",
"#  c #0A0806",
"$  c #110302",
"%  c #120502",
"&  c #150603",
"*  c #110505",
"=  c #160A05",
"-  c #170C05",
";  c #180C05",
":  c #1D1007",
">  c #1F160A",
",  c #181212",
"<  c #23170C",
"1  c #201A0D",
"2  c #261B0E",
"3  c #231C0F",
"4  c #281C0F",
"5  c #231915",
"6  c #2B1E11",
"7  c #251E18",
"8  c #2A1E18",
"9  c #2B1F1C",
"0  c #2A2113",
"q  c #2F2113",
"w  c #2B2315",
"e  c #2B201B",
"r  c #2C211D",
"t  c #312315",
"y  c #332416",
"u  c #352A17",
"i  c #3A2A17",
"p  c #272323",
"a  c gray14",
"s  c #2A2525",
"d  c #2F2A2A",
"f  c #352F2F",
"g  c #413530",
"h  c #594021",
"j  c #5D4324",
"k  c #5C4537",
"l  c #694D26",
"z  c #6F5028",
"x  c #715229",
"c  c #73552A",
"v  c #75552A",
"b  c #78582B",
"n  c #7B5B2C",
"m  c #7C5B2C",
"M  c #7F5E2E",
"N  c #634B3A",
"B  c #805E2E",
"V  c #82602E",
"C  c #85622F",
"Z  c #866330",
"A  c #8E6732",
"S  c #8F6933",
"D  c #926A33",
"F  c #936B34",
"G  c #966E35",
"H  c #977035",
"J  c #997136",
"K  c #9C7237",
"L  c #9D7537",
"P  c #9C7338",
"I  c #9B7438",
"U  c #9F7638",
"Y  c #A1773A",
"T  c #A27839",
"R  c #A57A3A",
"E  c #A77C3B",
"W  c #A87C3A",
"Q  c #A87C3B",
"!  c #AB7E3C",
"~  c #81614A",
"^  c #83634C",
"/  c #85664F",
"(  c #97765D",
")  c #98765D",
"_  c #AE803D",
"`  c #B2833E",
"'  c #B78640",
"]  c #BB8942",
"[  c #BC8A42",
"{  c #BE8C43",
"}  c #B98F71",
"|  c #B99073",
" . c #BB9376",
".. c #BC9377",
"X. c #BD957A",
"o. c #C08D43",
"O. c #C08E44",
"+. c #C38F45",
"@. c #C39045",
"#. c #C69246",
"$. c #C89346",
"%. c #C89446",
"&. c #CD9848",
"*. c white",
/* pixels */
"^ ^ ^ ^ ^ ^ ^ ^ ^ ^ ^ ^ ^ ^ ^ ^ ^ ^ ^ ^ ^ ^ ^ ^ ^ ^ ^ ^ ^ ^ ^ ^ ^ ^ ^ ^ ^ ^ ^ ^ ^ ^ ^ ^ ^ ^ ^ ^ ^ ^ ^ ^ ^ ^ ^ ^ ^ ^ ^ ^ ^ ^ ^ ^ ",
"^ ^ ^ ^ ^ ^ ^ ^ ^ ^ ^ ^ ^ ^ ^ ^ ^ ^ ^ ^ ^ ^ ^ ^ ^ ^ ^ ^ ^ ^ ^ ^ ^ ^ ^ ^ ^ ^ ^ ^ ^ ^ ^ ^ ^ ^ ^ ^ ^ ^ ^ ^ ^ ^ ^ ^ ^ ^ ^ ^ ^ ^ ^ ^ ",
"^ ^ ^ ^ ^ ^ ^ ^ ^ ^ ^ ^ ^ ^ ^ ^ ^ ^ ^ ^ ^ ^ ^ ^ ^ ^ ^ ^ ^ ^ ^ ^ ^ ^ ^ ^ ^ ^ ^ ^ ^ ^ ^ ^ ^ ^ ^ ^ ^ ^ ^ ^ ^ ^ ^ ^ ^ ^ ^ ^ ^ ^ ^ ^ ",
"^ ^ ^ ^ ^ ^ ^ ^ ^ ^ ^ ^ ^ ^ ^ ^ ^ ^ ^ ^ ^ ^ ^ ^ ^ ^ ^ ^ ^ ^ ^ ^ ^ ^ ^ ^ ^ ^ ^ ^ ^ ^ ^ ^ ^ ^ ^ ^ ^ ^ ^ ^ ^ ^ ^ ^ ^ ^ ^ ^ ^ ^ ^ ^ ",
"^ ^ ^ ^ } } } } } } } } } } } } } } } } } } } } } } } } } } } } } } } } } } } } } } } } } } } } } } } } } } } } } } } } ^ ^ ^ ^ ",
"^ ^ ^ ^ } } } } } } } } } } } } } } } } } } } } } } } } } } } } } } } } } } } } } } } } } } } } } } } } } } } } } } } } ^ ^ ^ ^ ",
"^ ^ ^ ^ } } } } } } } } } } } } } } } } } } } } } } } } } } } } } } } } } } } } } } } } } } } } } } } } } } } } } } } } ^ ^ ^ ^ ",
"^ ^ ^ ^ } } } } } } } } } } } } } } } } } } } } } } } } } } } } } } } } } } } } } } } } } } } } } } } } } } } } } } } } ^ ^ ^ ^ ",
"^ ^ ^ ^ } } } } } } } } } } } } } } } } } } } } } } } } } } } } } } } } } } } } } } } } } } } } } } } } } } } } } } } } ^ ^ ^ ^ ",
"^ ^ ^ ^ } } } } } } } } } } } } } } } } } } } } } } } } } } } } } } } } } } } } } } } } } } } } } } } } } } } } } } } } ^ ^ ^ ^ ",
"^ ^ ^ ^ } } } } } } } } } } } } } } } } } } } } } } } } } } } } } } } } } } } } } } } } } } } } } } } } } } } } } } } } ^ ^ ^ ^ ",
"^ ^ ^ ^ } } } } } } } } } } } } } } } } } } } } } } } } } } } } } } } } } } } } } } } } } } } } } } } } } } } } } } } } ^ ^ ^ ^ ",
"^ ^ ^ ^ ^ ^ ^ ^ ^ ^ ^ ^ ^ ^ ^ ^ ^ ^ ^ ^ ^ ^ ^ X           *.*.*.*.*.              X ^ ^ ^ ^ ^ ^ ^ ^ ^ ^ ^ ^ ^ ^ ^ ^ ^ ^ ^ ^ ^ ^ ",
"^ ^ ^ ^ ^ ^ ^ ^ ^ ^ ^ ^ ^ ^ ^ ^ ^ ^ ^ ^ ^ ^ ^ . O O O O O O *.*.*.*.*.*.*.*.*.O O $ ^ ^ ^ ^ ^ ^ ^ ^ ^ ^ ^ ^ ^ ^ ^ ^ ^ ^ ^ ^ ^ ^ ",
"^ ^ ^ ^ ^ ^ ^ ^ ^ ^ ^ ^ ~ 8 8 8 8 8 8 8 8 8 e o O O O O O O O O O O *.*.*.*.*.*.*.*.*.*.8 8 8 8 8 8 8 g ^ ^ ^ ^ ^ ^ ^ ^ ^ ^ ^ ^ ",
"^ ^ ^ ^ ^ ^ ^ ^ ^ ^ ^ ^ ~ O O O O O O O O O O O O O O O O O O O O O O O O O O *.*.*.*.*.*.*.*.*.O O O d ^ ^ ^ ^ ^ ^ ^ ^ ^ ^ ^ ^ ",
"^ ^ ^ ^ } } } } } } } } } O O O O O O O O O O . . .       o O O o             . . . *.*.*.*.*.*.*.*.O d } } } } } } } } ^ ^ ^ ^ ",
"^ ^ ^ ^ } } } } } } 7 # # O O O O O O O O O & R U K %.%.&.1 O % v %.%.%.%.%.%.U U K   O O O *.*.*.*.*.*.*.*.*.} } } } } ^ ^ ^ ^ ",
"^ ^ ^ ^ } } } } } } # O O O O O O O O O O O & U J G @.O.#.1 O % x O.O.O.O.O.O.J J G   O O O O O O O O *.*.*.*.} } } } } ^ ^ ^ ^ ",
"^ ^ ^ ^ } } } ) ) ) @ O O 6 4 4 6 q q q q q y L J J U U Y > O $ j U U I ] ] ] Y Y U 0 q q q q q q 4 4 2 o O O ) ) ( } } ^ ^ ^ ^ ",
"^ ^ ^ ^ } } } O O O O O & R J J _ O.O.O.O.O.{ H J R   O O O O O O O O   G J H O.O.O.O.O.O.O.O.O.O.J J S . O O O O . } } ^ ^ ^ ^ ",
"^ ^ ^ ^ } } } O O O O O & R J J _ O.O.O.O.O.{ H J R   O O O O O O O O   G J H O.O.O.O.O.O.O.O.O.O.J J S . O O O O . } } ^ ^ ^ ^ ",
"^ ^ ^ ^ r 8 8 O O o Z B V { ] ] { O.O.O.O.O.] 1 2 3 Z B M P Y Y Y Y Y U ] ] ] O.O.O.O.O.O.O.O.O.O.] ] ' M B Z   O O 9 8 5 N ^ ^ ",
"^ ^ ^ ^ * O O O O . U J J #.O.O.O.O.O.O.O.O.]   O   T J J [ O.O.O.O.O.O.O.O.O.O.O.O.O.O.O.O.O.O.O.O.O.{ J J U   O O O O O k ^ ^ ",
"^ ^ ^ ^ * O O O O . U J J #.O.O.O.O.O.O.O.O.]       Q U U O.$.$.$.$.$.$.$.$.%.O.O.O.O.O.O.O.O.O.O.O.O.{ J J U   O O O O O k ^ ^ ",
"^ ^ ^ ^ * O O O O . U J J #.O.O.O.O.O.O.O.O.{ L L !   . .                     O.O.O.O.O.O.O.O.O.O.O.O.{ J J U   O O O O O k ^ ^ ",
"^ ^ ^ ^ * O O O O . U J J O.O.O.O.O.O.O.O.O.{ H J R   O O O O O O O O O O O   O.O.O.O.O.O.O.O.O.O.O.O.{ J J U   O O O O O k ^ ^ ",
"^ ^ ^ ^ * O O O O o n v v [ ' ' [ O.O.O.O.O.o.T T _ w t y & O O < t t t i i u O.O.O.O.O.O.O.O.O.O.' ' ` c v n   O O O O O k ^ ^ ",
"^ ^ ^ ^ * O O O O O O O & R J J _ O.O.O.O.O.O.O.O.#.G J L > O $ h J J G O.O.O.O.O.O.O.O.O.O.O.O.O.J J S . O O O O O O O O k ^ ^ ",
"^ ^ ^ ^ * O O O O O o o O Q L L ` #.#.#.#.#.#.O.O.#.G J L : . o h J J G O.O.O.O.O.O.#.#.#.#.#.#.#.L L F   o o O O O O O O k ^ ^ ",
"^ ^ ^ ^ * O O O O o n b v   . .             O U J H J J J L U U J J J J J J J J J G   .           . . % n b n   O O O O O k ^ ^ ",
"^ ^ ^ ^ * O O O O o b v x   O O O O O O O O & U J J J J J J J J J J J J J J J J J G   O O O O O O O O = b v b   O O O O O k ^ ^ ",
"^ ^ ^ ^       O O o V M n                     _ R R R R R R R R R R R E R R R R Q T                   o V M V   O O       k ^ ^ ",
"^ ^ ^ ^ } } } O O O O O % n c c Z H J J J J F . O O O O O O O O O O O O O O O O O % E J J J J J G v c l o O O O O . } } ^ ^ ^ ^ ",
"^ ^ ^ ^ } } } * O O O O % n c c C G G G G G D . O O O O O O O O O O O O O O O O O & R G G G G G G c c l . O O O O o } } ^ ^ ^ ^ ",
"^ ^ ^ ^ } } } } } } . O O ; - - ; ; ; ; ; ; > z l l S A A A A A S S S S A A S l l l - ; ; ; ; ; ; - - = O O . } } }  .} ^ / ^ ^ ",
"^ ^ ^ ^ } } } } } } . O O O O O O O O O O O % b v c J J J J J J J J J J J J J v v x   O O O O O O O O O O O . } } } } } ^ ^ ^ ^ ",
"^ ^ ^ ^ } } } } } }   . . O O O O O O O O O % m b v Y L L L L L L L L L L L Y b b v   O O O O O O O O O . .   } } } } } ^ ^ ^ ^ ",
"^ ^ ^ ^ } } } } } } } } }   O O O O O O O O O . . .                           . . . O O O O O O O O O , } } } } } } } } ^ ^ ^ ^ ",
"^ ^ ^ ^ } } } } } } } } }   O O O O O O O O O O O O O O O O O O O O O O O O O O O O O O O O O O O O O , } } } } } } } } ^ ^ ^ ^ ",
"^ ^ ^ ^ } } } } } } } } } a p p p p p p p p p o O O O O O O O O O O O O O O O O O O s p p p p p p p p f } } } } } } } } ^ ^ ^ ^ ",
"^ ^ ^ ^ } } } } } } } } } } } } } } } } } } }   O O O O O O O O O O O O O O O O O * } } } } } } } } } } } } } } } } } } ^ ^ ^ ^ ",
"^ ^ ^ ^ } } } } } } } } } } } } } } } } } } }   o o o o o o o o o o o o o o o o o O } } } } } } } } } } } } } } } } } } ^ ^ ^ ^ ",
"^ ^ ^ ^ } } } } } } } } } } } } } } }  .....| } } } } } } } } } } } } } ^ ^ ^ ^ } } X.} } | } } } } } } } } } } } } } } ^ ^ ^ ^ ",
"^ ^ ^ ^ ^ ^ ^ ^ ^ ^ ^ ^ ^ ^ ^ ^ ^ ^ ^ ^ ^ ^ ^ ^ ^ ^ ^ ^ ^ ^ ^ ^ ^ ^ ^ ^ ^ ^ ^ ^ ^ ^ ^ ^ ^ ^ ^ ^ ^ ^ ^ ^ ^ ^ ^ ^ ^ ^ ^ ^ ^ ^ ^ ^ ",
"^ ^ ^ ^ ^ ^ ^ ^ ^ ^ ^ ^ ^ ^ ^ ^ ^ ^ ^ ^ ^ ^ ^ ^ ^ ^ ^ ^ ^ ^ ^ ^ ^ ^ ^ ^ ^ ^ ^ ^ ^ ^ ^ ^ ^ ^ ^ ^ ^ ^ ^ ^ ^ ^ ^ ^ ^ ^ ^ ^ ^ ^ ^ ^ ",
"^ ^ ^ ^ ^ ^ ^ ^ ^ ^ ^ ^ ^ ^ ^ ^ ^ ^ ^ ^ ^ ^ ^ ^ ^ ^ ^ ^ ^ ^ ^ ^ ^ ^ ^ ^ ^ ^ ^ ^ ^ ^ ^ ^ ^ ^ ^ ^ ^ ^ ^ ^ ^ ^ ^ ^ ^ ^ ^ ^ ^ ^ ^ ^ ",
"^ ^ ^ ^ ^ ^ ^ ^ ^ ^ ^ ^ ^ ^ ^ ^ ^ ^ ^ ^ ^ ^ ^ ^ ^ ^ ^ ^ ^ ^ ^ ^ ^ ^ ^ ^ ^ ^ ^ ^ ^ ^ ^ ^ ^ ^ ^ ^ ^ ^ ^ ^ ^ ^ ^ ^ ^ ^ ^ ^ ^ ^ ^ ^ ",
"^ ^ ^ ^ } } } } } } } } } } } } } } } } } } } } } } } } } } } } } } } } } } } } } } } } } } } } } } } } } } } } } } } } ^ ^ ^ ^ ",
"^ ^ ^ ^ } } } } } } } } } } } } } } } } } } } } } } } } } } } } } } } } } } } } } } } } } } } } } } } } } } } } } } } } ^ ^ ^ ^ ",
"^ ^ ^ ^ } } } } } } } } } } } } } } } } } } } } } } } } } } } } } } } } } } } } } } } } } } } } } } } } } } } } } } } } ^ ^ ^ ^ ",
"^ ^ ^ ^ } } } } } } } } } } } } } } } } } } } } } } } } } } } } } } } } } } } } } } } } } } } } } } } } } } } } } } } } ^ ^ ^ ^ ",
"^ ^ ^ ^ } } } } } } } } } } } } } } } } } } } } } } } } } } } } } } } } } } } } } } } } } } } } } } } } } } } } } } } } ^ ^ ^ ^ ",
"^ ^ ^ ^ } } } } } } } } } } } } } } } } } } } } } } } } } } } } } } } } } } } } } } } } } } } } } } } } } } } } } } } } ^ ^ ^ ^ ",
"^ ^ ^ ^ } } } } } } } } } } } } } } } } } } } } } } } } } } } } } } } } } } } } } } } } } } } } } } } } } } } } } } } } ^ ^ ^ ^ ",
"^ ^ ^ ^ } } } } } } } } } } } } } } } } } } } } } } } } } } } } } } } } } } } } } } } } } } } } } } } } } } } } } } } } ^ ^ ^ ^ ",
"^ ^ ^ ^ } } } } } } } } } } } } } } } } } } } } } } } } } } } } } } } } } } } } } } } } } } } } } } } } } } } } } } } } ^ ^ ^ ^ ",
"^ ^ ^ ^ } } } } } } } } } } } } } } } } } } } } } } } } } } } } } } } } } } } } } } } } } } } } } } } } } } } } } } } } ^ ^ ^ ^ ",
"^ ^ ^ ^ } } } } } } } } } } } } } } } } } } } } } } } } } } } } } } } } } } } } } } } } } } } } } } } } } } } } } } } } ^ ^ ^ ^ ",
"^ ^ ^ ^ } } } } } } } } } } } } } } } } } } } } } } } } } } } } } } } } } } } } } } } } } } } } } } } } } } } } } } } } ^ ^ ^ ^ ",
"^ ^ ^ ^ ^ ^ ^ ^ ^ ^ ^ ^ ^ ^ ^ ^ ^ ^ ^ ^ ^ ^ ^ ^ ^ ^ ^ ^ ^ ^ ^ ^ ^ ^ ^ ^ ^ ^ ^ ^ ^ ^ ^ ^ ^ ^ ^ ^ ^ ^ ^ ^ ^ ^ ^ ^ ^ ^ ^ ^ ^ ^ ^ ^ ",
"^ ^ ^ ^ ^ ^ ^ ^ ^ ^ ^ ^ ^ ^ ^ ^ ^ ^ ^ ^ ^ ^ ^ ^ ^ ^ ^ ^ ^ ^ ^ ^ ^ ^ ^ ^ ^ ^ ^ ^ ^ ^ ^ ^ ^ ^ ^ ^ ^ ^ ^ ^ ^ ^ ^ ^ ^ ^ ^ ^ ^ ^ ^ ^ ",
"^ ^ ^ ^ ^ ^ ^ ^ ^ ^ ^ ^ ^ ^ ^ ^ ^ ^ ^ ^ ^ ^ ^ ^ ^ ^ ^ ^ ^ ^ ^ ^ ^ ^ ^ ^ ^ ^ ^ ^ ^ ^ ^ ^ ^ ^ ^ ^ ^ ^ ^ ^ ^ ^ ^ ^ ^ ^ ^ ^ ^ ^ ^ ^ ",
"^ ^ ^ ^ ^ ^ ^ ^ ^ ^ ^ ^ ^ ^ ^ ^ ^ ^ ^ ^ ^ ^ ^ ^ ^ ^ ^ ^ ^ ^ ^ ^ ^ ^ ^ ^ ^ ^ ^ ^ ^ ^ ^ ^ ^ ^ ^ ^ ^ ^ ^ ^ ^ ^ ^ ^ ^ ^ ^ ^ ^ ^ ^ ^ "
};
