/* XPM */
static char *e71e86036d2344d2c490ad24f9aeaf1eaFEySvVILfyPvt3L[] = {
/* columns rows colors chars-per-pixel */
"500 500 10 1 ",
"  c None",
". c #572824",
"X c #602D27",
"o c #6B322A",
"O c #683428",
"+ c #72312A",
"@ c #78342C",
"# c #7C3B34",
"$ c #81413B",
"% c #884D47",
/* pixels */
"XXXXXXXXXXXXXXXXXXXXXXXXXXXXXXX...............................ooooooooooooooooooooooooooooooooooooooooooooooooooooooooooooooooooooooooooooooooooooooooooooooXXXXXXXXXXXXXXXXXXXXXXXXXXXXXXXXXXXXXXXXXXXXXXXXXXXXXXXXXXXXXXXoooooooooooooooooooooooooooooooooooooooooooooooooooooooooooooo...............................XXXXXXXXXXXXXXXXXXXXXXXXXXXXXXXXXXXXXXXXXXXXXXXXXXXXXXXXXXXXXXXooooooooooooooooooooooooooooooo...............................................................XXXXXXXXXXXXXXXXXXXXXXXXXXXXXXX",
"XXXXXXXXXXXXXXXXXXXXXXXXXXXXXXX...............................ooooooooooooooooooooooooooooooooooooooooooooooooooooooooooooooooooooooooooooooooooooooooooooooXXXXXXXXXXXXXXXXXXXXXXXXXXXXXXXXXXXXXXXXXXXXXXXXXXXXXXXXXXXXXXXoooooooooooooooooooooooooooooooooooooooooooooooooooooooooooooo...............................XXXXXXXXXXXXXXXXXXXXXXXXXXXXXXXXXXXXXXXXXXXXXXXXXXXXXXXXXXXXXXXooooooooooooooooooooooooooooooo...............................................................XXXXXXXXXXXXXXXXXXXXXXXXXXXXXXX",
"XXXXXXXXXXXXXXXXXXXXXXXXXXXXXXX...............................ooooooooooooooooooooooooooooooooooooooooooooooooooooooooooooooooooooooooooooooooooooooooooooooXXXXXXXXXXXXXXXXXXXXXXXXXXXXXXXXXXXXXXXXXXXXXXXXXXXXXXXXXXXXXXXoooooooooooooooooooooooooooooooooooooooooooooooooooooooooooooo...............................XXXXXXXXXXXXXXXXXXXXXXXXXXXXXXXXXXXXXXXXXXXXXXXXXXXXXXXXXXXXXXXooooooooooooooooooooooooooooooo...............................................................XXXXXXXXXXXXXXXXXXXXXXXXXXXXXXX",
"XXXXXXXXXXXXXXXXXXXXXXXXXXXXXXX...............................ooooooooooooooooooooooooooooooooooooooooooooooooooooooooooooooooooooooooooooooooooooooooooooooXXXXXXXXXXXXXXXXXXXXXXXXXXXXXXXXXXXXXXXXXXXXXXXXXXXXXXXXXXXXXXXoooooooooooooooooooooooooooooooooooooooooooooooooooooooooooooo...............................XXXXXXXXXXXXXXXXXXXXXXXXXXXXXXXXXXXXXXXXXXXXXXXXXXXXXXXXXXXXXXXooooooooooooooooooooooooooooooo...............................................................XXXXXXXXXXXXXXXXXXXXXXXXXXXXXXX",
"XXXXXXXXXXXXXXXXXXXXXXXXXXXXXXX...............................ooooooooooooooooooooooooooooooooooooooooooooooooooooooooooooooooooooooooooooooooooooooooooooooXXXXXXXXXXXXXXXXXXXXXXXXXXXXXXXXXXXXXXXXXXXXXXXXXXXXXXXXXXXXXXXoooooooooooooooooooooooooooooooooooooooooooooooooooooooooooooo...............................XXXXXXXXXXXXXXXXXXXXXXXXXXXXXXXXXXXXXXXXXXXXXXXXXXXXXXXXXXXXXXXooooooooooooooooooooooooooooooo...............................................................XXXXXXXXXXXXXXXXXXXXXXXXXXXXXXX",
"XXXXXXXXXXXXXXXXXXXXXXXXXXXXXXX...............................ooooooooooooooooooooooooooooooooooooooooooooooooooooooooooooooooooooooooooooooooooooooooooooooXXXXXXXXXXXXXXXXXXXXXXXXXXXXXXXXXXXXXXXXXXXXXXXXXXXXXXXXXXXXXXXoooooooooooooooooooooooooooooooooooooooooooooooooooooooooooooo...............................XXXXXXXXXXXXXXXXXXXXXXXXXXXXXXXXXXXXXXXXXXXXXXXXXXXXXXXXXXXXXXXooooooooooooooooooooooooooooooo...............................................................XXXXXXXXXXXXXXXXXXXXXXXXXXXXXXX",
"XXXXXXXXXXXXXXXXXXXXXXXXXXXXXXX...............................ooooooooooooooooooooooooooooooooooooooooooooooooooooooooooooooooooooooooooooooooooooooooooooooXXXXXXXXXXXXXXXXXXXXXXXXXXXXXXXXXXXXXXXXXXXXXXXXXXXXXXXXXXXXXXXoooooooooooooooooooooooooooooooooooooooooooooooooooooooooooooo...............................XXXXXXXXXXXXXXXXXXXXXXXXXXXXXXXXXXXXXXXXXXXXXXXXXXXXXXXXXXXXXXXooooooooooooooooooooooooooooooo...............................................................XXXXXXXXXXXXXXXXXXXXXXXXXXXXXXX",
"XXXXXXXXXXXXXXXXXXXXXXXXXXXXXXX...............................ooooooooooooooooooooooooooooooooooooooooooooooooooooooooooooooooooooooooooooooooooooooooooooooXXXXXXXXXXXXXXXXXXXXXXXXXXXXXXXXXXXXXXXXXXXXXXXXXXXXXXXXXXXXXXXoooooooooooooooooooooooooooooooooooooooooooooooooooooooooooooo...............................XXXXXXXXXXXXXXXXXXXXXXXXXXXXXXXXXXXXXXXXXXXXXXXXXXXXXXXXXXXXXXXooooooooooooooooooooooooooooooo...............................................................XXXXXXXXXXXXXXXXXXXXXXXXXXXXXXX",
"XXXXXXXXXXXXXXXXXXXXXXXXXXXXXXX...............................ooooooooooooooooooooooooooooooooooooooooooooooooooooooooooooooooooooooooooooooooooooooooooooooXXXXXXXXXXXXXXXXXXXXXXXXXXXXXXXXXXXXXXXXXXXXXXXXXXXXXXXXXXXXXXXoooooooooooooooooooooooooooooooooooooooooooooooooooooooooooooo...............................XXXXXXXXXXXXXXXXXXXXXXXXXXXXXXXXXXXXXXXXXXXXXXXXXXXXXXXXXXXXXXXooooooooooooooooooooooooooooooo...............................................................XXXXXXXXXXXXXXXXXXXXXXXXXXXXXXX",
"XXXXXXXXXXXXXXXXXXXXXXXXXXXXXXX...............................ooooooooooooooooooooooooooooooooooooooooooooooooooooooooooooooooooooooooooooooooooooooooooooooXXXXXXXXXXXXXXXXXXXXXXXXXXXXXXXXXXXXXXXXXXXXXXXXXXXXXXXXXXXXXXXoooooooooooooooooooooooooooooooooooooooooooooooooooooooooooooo...............................XXXXXXXXXXXXXXXXXXXXXXXXXXXXXXXXXXXXXXXXXXXXXXXXXXXXXXXXXXXXXXXooooooooooooooooooooooooooooooo...............................................................XXXXXXXXXXXXXXXXXXXXXXXXXXXXXXX",
"XXXXXXXXXXXXXXXXXXXXXXXXXXXXXXX...............................ooooooooooooooooooooooooooooooooooooooooooooooooooooooooooooooooooooooooooooooooooooooooooooooXXXXXXXXXXXXXXXXXXXXXXXXXXXXXXXXXXXXXXXXXXXXXXXXXXXXXXXXXXXXXXXoooooooooooooooooooooooooooooooooooooooooooooooooooooooooooooo...............................XXXXXXXXXXXXXXXXXXXXXXXXXXXXXXXXXXXXXXXXXXXXXXXXXXXXXXXXXXXXXXXooooooooooooooooooooooooooooooo...............................................................XXXXXXXXXXXXXXXXXXXXXXXXXXXXXXX",
"XXXXXXXXXXXXXXXXXXXXXXXXXXXXXXX...............................ooooooooooooooooooooooooooooooooooooooooooooooooooooooooooooooooooooooooooooooooooooooooooooooXXXXXXXXXXXXXXXXXXXXXXXXXXXXXXXXXXXXXXXXXXXXXXXXXXXXXXXXXXXXXXXoooooooooooooooooooooooooooooooooooooooooooooooooooooooooooooo...............................XXXXXXXXXXXXXXXXXXXXXXXXXXXXXXXXXXXXXXXXXXXXXXXXXXXXXXXXXXXXXXXooooooooooooooooooooooooooooooo...............................................................XXXXXXXXXXXXXXXXXXXXXXXXXXXXXXX",
"XXXXXXXXXXXXXXXXXXXXXXXXXXXXXXX...............................ooooooooooooooooooooooooooooooooooooooooooooooooooooooooooooooooooooooooooooooooooooooooooooooXXXXXXXXXXXXXXXXXXXXXXXXXXXXXXXXXXXXXXXXXXXXXXXXXXXXXXXXXXXXXXXoooooooooooooooooooooooooooooooooooooooooooooooooooooooooooooo...............................XXXXXXXXXXXXXXXXXXXXXXXXXXXXXXXXXXXXXXXXXXXXXXXXXXXXXXXXXXXXXXXooooooooooooooooooooooooooooooo...............................................................XXXXXXXXXXXXXXXXXXXXXXXXXXXXXXX",
"XXXXXXXXXXXXXXXXXXXXXXXXXXXXXXX...............................ooooooooooooooooooooooooooooooooooooooooooooooooooooooooooooooooooooooooooooooooooooooooooooooXXXXXXXXXXXXXXXXXXXXXXXXXXXXXXXXXXXXXXXXXXXXXXXXXXXXXXXXXXXXXXXoooooooooooooooooooooooooooooooooooooooooooooooooooooooooooooo...............................XXXXXXXXXXXXXXXXXXXXXXXXXXXXXXXXXXXXXXXXXXXXXXXXXXXXXXXXXXXXXXXooooooooooooooooooooooooooooooo...............................................................XXXXXXXXXXXXXXXXXXXXXXXXXXXXXXX",
"XXXXXXXXXXXXXXXXXXXXXXXXXXXXXXX...............................ooooooooooooooooooooooooooooooooooooooooooooooooooooooooooooooooooooooooooooooooooooooooooooooXXXXXXXXXXXXXXXXXXXXXXXXXXXXXXXXXXXXXXXXXXXXXXXXXXXXXXXXXXXXXXXoooooooooooooooooooooooooooooooooooooooooooooooooooooooooooooo...............................XXXXXXXXXXXXXXXXXXXXXXXXXXXXXXXXXXXXXXXXXXXXXXXXXXXXXXXXXXXXXXXooooooooooooooooooooooooooooooo...............................................................XXXXXXXXXXXXXXXXXXXXXXXXXXXXXXX",
"XXXXXXXXXXXXXXXXXXXXXXXXXXXXXXX...............................ooooooooooooooooooooooooooooooooooooooooooooooooooooooooooooooooooooooooooooooooooooooooooooooXXXXXXXXXXXXXXXXXXXXXXXXXXXXXXXXXXXXXXXXXXXXXXXXXXXXXXXXXXXXXXXoooooooooooooooooooooooooooooooooooooooooooooooooooooooooooooo...............................XXXXXXXXXXXXXXXXXXXXXXXXXXXXXXXXXXXXXXXXXXXXXXXXXXXXXXXXXXXXXXXooooooooooooooooooooooooooooooo...............................................................XXXXXXXXXXXXXXXXXXXXXXXXXXXXXXX",
"XXXXXXXXXXXXXXXXXXXXXXXXXXXXXXX...............................ooooooooooooooooooooooooooooooooooooooooooooooooooooooooooooooooooooooooooooooooooooooooooooooXXXXXXXXXXXXXXXXXXXXXXXXXXXXXXXXXXXXXXXXXXXXXXXXXXXXXXXXXXXXXXXoooooooooooooooooooooooooooooooooooooooooooooooooooooooooooooo...............................XXXXXXXXXXXXXXXXXXXXXXXXXXXXXXXXXXXXXXXXXXXXXXXXXXXXXXXXXXXXXXXooooooooooooooooooooooooooooooo...............................................................XXXXXXXXXXXXXXXXXXXXXXXXXXXXXXX",
"XXXXXXXXXXXXXXXXXXXXXXXXXXXXXXX...............................ooooooooooooooooooooooooooooooooooooooooooooooooooooooooooooooooooooooooooooooooooooooooooooooXXXXXXXXXXXXXXXXXXXXXXXXXXXXXXXXXXXXXXXXXXXXXXXXXXXXXXXXXXXXXXXoooooooooooooooooooooooooooooooooooooooooooooooooooooooooooooo...............................XXXXXXXXXXXXXXXXXXXXXXXXXXXXXXXXXXXXXXXXXXXXXXXXXXXXXXXXXXXXXXXooooooooooooooooooooooooooooooo...............................................................XXXXXXXXXXXXXXXXXXXXXXXXXXXXXXX",
"XXXXXXXXXXXXXXXXXXXXXXXXXXXXXXX...............................ooooooooooooooooooooooooooooooooooooooooooooooooooooooooooooooooooooooooooooooooooooooooooooooXXXXXXXXXXXXXXXXXXXXXXXXXXXXXXXXXXXXXXXXXXXXXXXXXXXXXXXXXXXXXXXoooooooooooooooooooooooooooooooooooooooooooooooooooooooooooooo...............................XXXXXXXXXXXXXXXXXXXXXXXXXXXXXXXXXXXXXXXXXXXXXXXXXXXXXXXXXXXXXXXooooooooooooooooooooooooooooooo...............................................................XXXXXXXXXXXXXXXXXXXXXXXXXXXXXXX",
"XXXXXXXXXXXXXXXXXXXXXXXXXXXXXXX...............................ooooooooooooooooooooooooooooooooooooooooooooooooooooooooooooooooooooooooooooooooooooooooooooooXXXXXXXXXXXXXXXXXXXXXXXXXXXXXXXXXXXXXXXXXXXXXXXXXXXXXXXXXXXXXXXoooooooooooooooooooooooooooooooooooooooooooooooooooooooooooooo...............................XXXXXXXXXXXXXXXXXXXXXXXXXXXXXXXXXXXXXXXXXXXXXXXXXXXXXXXXXXXXXXXooooooooooooooooooooooooooooooo...............................................................XXXXXXXXXXXXXXXXXXXXXXXXXXXXXXX",
"XXXXXXXXXXXXXXXXXXXXXXXXXXXXXXX...............................ooooooooooooooooooooooooooooooooooooooooooooooooooooooooooooooooooooooooooooooooooooooooooooooXXXXXXXXXXXXXXXXXXXXXXXXXXXXXXXXXXXXXXXXXXXXXXXXXXXXXXXXXXXXXXXoooooooooooooooooooooooooooooooooooooooooooooooooooooooooooooo...............................XXXXXXXXXXXXXXXXXXXXXXXXXXXXXXXXXXXXXXXXXXXXXXXXXXXXXXXXXXXXXXXooooooooooooooooooooooooooooooo...............................................................XXXXXXXXXXXXXXXXXXXXXXXXXXXXXXX",
"XXXXXXXXXXXXXXXXXXXXXXXXXXXXXXX...............................ooooooooooooooooooooooooooooooooooooooooooooooooooooooooooooooooooooooooooooooooooooooooooooooXXXXXXXXXXXXXXXXXXXXXXXXXXXXXXXXXXXXXXXXXXXXXXXXXXXXXXXXXXXXXXXoooooooooooooooooooooooooooooooooooooooooooooooooooooooooooooo...............................XXXXXXXXXXXXXXXXXXXXXXXXXXXXXXXXXXXXXXXXXXXXXXXXXXXXXXXXXXXXXXXooooooooooooooooooooooooooooooo...............................................................XXXXXXXXXXXXXXXXXXXXXXXXXXXXXXX",
"XXXXXXXXXXXXXXXXXXXXXXXXXXXXXXX...............................ooooooooooooooooooooooooooooooooooooooooooooooooooooooooooooooooooooooooooooooooooooooooooooooXXXXXXXXXXXXXXXXXXXXXXXXXXXXXXXXXXXXXXXXXXXXXXXXXXXXXXXXXXXXXXXoooooooooooooooooooooooooooooooooooooooooooooooooooooooooooooo...............................XXXXXXXXXXXXXXXXXXXXXXXXXXXXXXXXXXXXXXXXXXXXXXXXXXXXXXXXXXXXXXXooooooooooooooooooooooooooooooo...............................................................XXXXXXXXXXXXXXXXXXXXXXXXXXXXXXX",
"XXXXXXXXXXXXXXXXXXXXXXXXXXXXXXX...............................ooooooooooooooooooooooooooooooooooooooooooooooooooooooooooooooooooooooooooooooooooooooooooooooXXXXXXXXXXXXXXXXXXXXXXXXXXXXXXXXXXXXXXXXXXXXXXXXXXXXXXXXXXXXXXXoooooooooooooooooooooooooooooooooooooooooooooooooooooooooooooo...............................XXXXXXXXXXXXXXXXXXXXXXXXXXXXXXXXXXXXXXXXXXXXXXXXXXXXXXXXXXXXXXXooooooooooooooooooooooooooooooo...............................................................XXXXXXXXXXXXXXXXXXXXXXXXXXXXXXX",
"XXXXXXXXXXXXXXXXXXXXXXXXXXXXXXX...............................ooooooooooooooooooooooooooooooooooooooooooooooooooooooooooooooooooooooooooooooooooooooooooooooXXXXXXXXXXXXXXXXXXXXXXXXXXXXXXXXXXXXXXXXXXXXXXXXXXXXXXXXXXXXXXXoooooooooooooooooooooooooooooooooooooooooooooooooooooooooooooo...............................XXXXXXXXXXXXXXXXXXXXXXXXXXXXXXXXXXXXXXXXXXXXXXXXXXXXXXXXXXXXXXXooooooooooooooooooooooooooooooo...............................................................XXXXXXXXXXXXXXXXXXXXXXXXXXXXXXX",
"XXXXXXXXXXXXXXXXXXXXXXXXXXXXXXX...............................ooooooooooooooooooooooooooooooooooooooooooooooooooooooooooooooooooooooooooooooooooooooooooooooXXXXXXXXXXXXXXXXXXXXXXXXXXXXXXXXXXXXXXXXXXXXXXXXXXXXXXXXXXXXXXXoooooooooooooooooooooooooooooooooooooooooooooooooooooooooooooo...............................XXXXXXXXXXXXXXXXXXXXXXXXXXXXXXXXXXXXXXXXXXXXXXXXXXXXXXXXXXXXXXXooooooooooooooooooooooooooooooo...............................................................XXXXXXXXXXXXXXXXXXXXXXXXXXXXXXX",
"XXXXXXXXXXXXXXXXXXXXXXXXXXXXXXX...............................ooooooooooooooooooooooooooooooooooooooooooooooooooooooooooooooooooooooooooooooooooooooooooooooXXXXXXXXXXXXXXXXXXXXXXXXXXXXXXXXXXXXXXXXXXXXXXXXXXXXXXXXXXXXXXXoooooooooooooooooooooooooooooooooooooooooooooooooooooooooooooo...............................XXXXXXXXXXXXXXXXXXXXXXXXXXXXXXXXXXXXXXXXXXXXXXXXXXXXXXXXXXXXXXXooooooooooooooooooooooooooooooo...............................................................XXXXXXXXXXXXXXXXXXXXXXXXXXXXXXX",
"XXXXXXXXXXXXXXXXXXXXXXXXXXXXXXX...............................ooooooooooooooooooooooooooooooooooooooooooooooooooooooooooooooooooooooooooooooooooooooooooooooXXXXXXXXXXXXXXXXXXXXXXXXXXXXXXXXXXXXXXXXXXXXXXXXXXXXXXXXXXXXXXXoooooooooooooooooooooooooooooooooooooooooooooooooooooooooooooo...............................XXXXXXXXXXXXXXXXXXXXXXXXXXXXXXXXXXXXXXXXXXXXXXXXXXXXXXXXXXXXXXXooooooooooooooooooooooooooooooo...............................................................XXXXXXXXXXXXXXXXXXXXXXXXXXXXXXX",
"XXXXXXXXXXXXXXXXXXXXXXXXXXXXXXX...............................ooooooooooooooooooooooooooooooooooooooooooooooooooooooooooooooooooooooooooooooooooooooooooooooXXXXXXXXXXXXXXXXXXXXXXXXXXXXXXXXXXXXXXXXXXXXXXXXXXXXXXXXXXXXXXXoooooooooooooooooooooooooooooooooooooooooooooooooooooooooooooo...............................XXXXXXXXXXXXXXXXXXXXXXXXXXXXXXXXXXXXXXXXXXXXXXXXXXXXXXXXXXXXXXXooooooooooooooooooooooooooooooo...............................................................XXXXXXXXXXXXXXXXXXXXXXXXXXXXXXX",
"XXXXXXXXXXXXXXXXXXXXXXXXXXXXXXX...............................ooooooooooooooooooooooooooooooooooooooooooooooooooooooooooooooooooooooooooooooooooooooooooooooXXXXXXXXXXXXXXXXXXXXXXXXXXXXXXXXXXXXXXXXXXXXXXXXXXXXXXXXXXXXXXXoooooooooooooooooooooooooooooooooooooooooooooooooooooooooooooo...............................XXXXXXXXXXXXXXXXXXXXXXXXXXXXXXXXXXXXXXXXXXXXXXXXXXXXXXXXXXXXXXXooooooooooooooooooooooooooooooo...............................................................XXXXXXXXXXXXXXXXXXXXXXXXXXXXXXX",
"XXXXXXXXXXXXXXXXXXXXXXXXXXXXXXX...............................ooooooooooooooooooooooooooooooooooooooooooooooooooooooooooooooooooooooooooooooooooooooooooooooXXXXXXXXXXXXXXXXXXXXXXXXXXXXXXXXXXXXXXXXXXXXXXXXXXXXXXXXXXXXXXXoooooooooooooooooooooooooooooooooooooooooooooooooooooooooooooo...............................XXXXXXXXXXXXXXXXXXXXXXXXXXXXXXXXXXXXXXXXXXXXXXXXXXXXXXXXXXXXXXXooooooooooooooooooooooooooooooo...............................................................XXXXXXXXXXXXXXXXXXXXXXXXXXXXXXX",
"...............................+++++++++++++++++++++++++++++++$$$$$$$$$$$$$$$$$$$$$$$$$$$$$$$$###############################%%%%%%%%%%%%%%%%%%%%%%%%%%%%%%%$$$$$$$$$$$$$$$$$$$$$$$$$$$$$$$$$$$$$$$$$$$$$$$$$$$$$$$$$$$$$$$$$$$$$$$$$$$$$$$$$$$$$$$$$$$$$$###############################%%%%%%%%%%%%%%%%%%%%%%%%%%%%%%%%%%%%%%%%%%%%%%%%%%%%%%%%%%%%%%%###############################$$$$$$$$$$$$$$$$$$$$$$$$$$$$$$$$$$$$$$$$$$$$$$$$$$$$$$$$$$$$$$++++++++++++++++++++++++++++++++...............................",
"...............................+++++++++++++++++++++++++++++++$$$$$$$$$$$$$$$$$$$$$$$$$$$$$$$$###############################%%%%%%%%%%%%%%%%%%%%%%%%%%%%%%%$$$$$$$$$$$$$$$$$$$$$$$$$$$$$$$$$$$$$$$$$$$$$$$$$$$$$$$$$$$$$$$$$$$$$$$$$$$$$$$$$$$$$$$$$$$$$$###############################%%%%%%%%%%%%%%%%%%%%%%%%%%%%%%%%%%%%%%%%%%%%%%%%%%%%%%%%%%%%%%%###############################$$$$$$$$$$$$$$$$$$$$$$$$$$$$$$$$$$$$$$$$$$$$$$$$$$$$$$$$$$$$$$++++++++++++++++++++++++++++++++...............................",
"...............................+++++++++++++++++++++++++++++++$$$$$$$$$$$$$$$$$$$$$$$$$$$$$$$$###############################%%%%%%%%%%%%%%%%%%%%%%%%%%%%%%%$$$$$$$$$$$$$$$$$$$$$$$$$$$$$$$$$$$$$$$$$$$$$$$$$$$$$$$$$$$$$$$$$$$$$$$$$$$$$$$$$$$$$$$$$$$$$$###############################%%%%%%%%%%%%%%%%%%%%%%%%%%%%%%%%%%%%%%%%%%%%%%%%%%%%%%%%%%%%%%%###############################$$$$$$$$$$$$$$$$$$$$$$$$$$$$$$$$$$$$$$$$$$$$$$$$$$$$$$$$$$$$$$++++++++++++++++++++++++++++++++...............................",
"...............................+++++++++++++++++++++++++++++++$$$$$$$$$$$$$$$$$$$$$$$$$$$$$$$$###############################%%%%%%%%%%%%%%%%%%%%%%%%%%%%%%%$$$$$$$$$$$$$$$$$$$$$$$$$$$$$$$$$$$$$$$$$$$$$$$$$$$$$$$$$$$$$$$$$$$$$$$$$$$$$$$$$$$$$$$$$$$$$$###############################%%%%%%%%%%%%%%%%%%%%%%%%%%%%%%%%%%%%%%%%%%%%%%%%%%%%%%%%%%%%%%%###############################$$$$$$$$$$$$$$$$$$$$$$$$$$$$$$$$$$$$$$$$$$$$$$$$$$$$$$$$$$$$$$++++++++++++++++++++++++++++++++...............................",
"...............................+++++++++++++++++++++++++++++++$$$$$$$$$$$$$$$$$$$$$$$$$$$$$$$$###############################%%%%%%%%%%%%%%%%%%%%%%%%%%%%%%%$$$$$$$$$$$$$$$$$$$$$$$$$$$$$$$$$$$$$$$$$$$$$$$$$$$$$$$$$$$$$$$$$$$$$$$$$$$$$$$$$$$$$$$$$$$$$$###############################%%%%%%%%%%%%%%%%%%%%%%%%%%%%%%%%%%%%%%%%%%%%%%%%%%%%%%%%%%%%%%%###############################$$$$$$$$$$$$$$$$$$$$$$$$$$$$$$$$$$$$$$$$$$$$$$$$$$$$$$$$$$$$$$++++++++++++++++++++++++++++++++...............................",
"...............................+++++++++++++++++++++++++++++++$$$$$$$$$$$$$$$$$$$$$$$$$$$$$$$$###############################%%%%%%%%%%%%%%%%%%%%%%%%%%%%%%%$$$$$$$$$$$$$$$$$$$$$$$$$$$$$$$$$$$$$$$$$$$$$$$$$$$$$$$$$$$$$$$$$$$$$$$$$$$$$$$$$$$$$$$$$$$$$$###############################%%%%%%%%%%%%%%%%%%%%%%%%%%%%%%%%%%%%%%%%%%%%%%%%%%%%%%%%%%%%%%%###############################$$$$$$$$$$$$$$$$$$$$$$$$$$$$$$$$$$$$$$$$$$$$$$$$$$$$$$$$$$$$$$++++++++++++++++++++++++++++++++...............................",
"...............................+++++++++++++++++++++++++++++++$$$$$$$$$$$$$$$$$$$$$$$$$$$$$$$$###############################%%%%%%%%%%%%%%%%%%%%%%%%%%%%%%%$$$$$$$$$$$$$$$$$$$$$$$$$$$$$$$$$$$$$$$$$$$$$$$$$$$$$$$$$$$$$$$$$$$$$$$$$$$$$$$$$$$$$$$$$$$$$$###############################%%%%%%%%%%%%%%%%%%%%%%%%%%%%%%%%%%%%%%%%%%%%%%%%%%%%%%%%%%%%%%%###############################$$$$$$$$$$$$$$$$$$$$$$$$$$$$$$$$$$$$$$$$$$$$$$$$$$$$$$$$$$$$$$++++++++++++++++++++++++++++++++...............................",
"...............................+++++++++++++++++++++++++++++++$$$$$$$$$$$$$$$$$$$$$$$$$$$$$$$$###############################%%%%%%%%%%%%%%%%%%%%%%%%%%%%%%%$$$$$$$$$$$$$$$$$$$$$$$$$$$$$$$$$$$$$$$$$$$$$$$$$$$$$$$$$$$$$$$$$$$$$$$$$$$$$$$$$$$$$$$$$$$$$$###############################%%%%%%%%%%%%%%%%%%%%%%%%%%%%%%%%%%%%%%%%%%%%%%%%%%%%%%%%%%%%%%%###############################$$$$$$$$$$$$$$$$$$$$$$$$$$$$$$$$$$$$$$$$$$$$$$$$$$$$$$$$$$$$$$++++++++++++++++++++++++++++++++...............................",
"...............................+++++++++++++++++++++++++++++++$$$$$$$$$$$$$$$$$$$$$$$$$$$$$$$$###############################%%%%%%%%%%%%%%%%%%%%%%%%%%%%%%%$$$$$$$$$$$$$$$$$$$$$$$$$$$$$$$$$$$$$$$$$$$$$$$$$$$$$$$$$$$$$$$$$$$$$$$$$$$$$$$$$$$$$$$$$$$$$$###############################%%%%%%%%%%%%%%%%%%%%%%%%%%%%%%%%%%%%%%%%%%%%%%%%%%%%%%%%%%%%%%%###############################$$$$$$$$$$$$$$$$$$$$$$$$$$$$$$$$$$$$$$$$$$$$$$$$$$$$$$$$$$$$$$++++++++++++++++++++++++++++++++...............................",
"...............................+++++++++++++++++++++++++++++++$$$$$$$$$$$$$$$$$$$$$$$$$$$$$$$$###############################%%%%%%%%%%%%%%%%%%%%%%%%%%%%%%%$$$$$$$$$$$$$$$$$$$$$$$$$$$$$$$$$$$$$$$$$$$$$$$$$$$$$$$$$$$$$$$$$$$$$$$$$$$$$$$$$$$$$$$$$$$$$$###############################%%%%%%%%%%%%%%%%%%%%%%%%%%%%%%%%%%%%%%%%%%%%%%%%%%%%%%%%%%%%%%%###############################$$$$$$$$$$$$$$$$$$$$$$$$$$$$$$$$$$$$$$$$$$$$$$$$$$$$$$$$$$$$$$++++++++++++++++++++++++++++++++...............................",
"...............................+++++++++++++++++++++++++++++++$$$$$$$$$$$$$$$$$$$$$$$$$$$$$$$$###############################%%%%%%%%%%%%%%%%%%%%%%%%%%%%%%%$$$$$$$$$$$$$$$$$$$$$$$$$$$$$$$$$$$$$$$$$$$$$$$$$$$$$$$$$$$$$$$$$$$$$$$$$$$$$$$$$$$$$$$$$$$$$$###############################%%%%%%%%%%%%%%%%%%%%%%%%%%%%%%%%%%%%%%%%%%%%%%%%%%%%%%%%%%%%%%%###############################$$$$$$$$$$$$$$$$$$$$$$$$$$$$$$$$$$$$$$$$$$$$$$$$$$$$$$$$$$$$$$++++++++++++++++++++++++++++++++...............................",
"...............................+++++++++++++++++++++++++++++++$$$$$$$$$$$$$$$$$$$$$$$$$$$$$$$$###############################%%%%%%%%%%%%%%%%%%%%%%%%%%%%%%%$$$$$$$$$$$$$$$$$$$$$$$$$$$$$$$$$$$$$$$$$$$$$$$$$$$$$$$$$$$$$$$$$$$$$$$$$$$$$$$$$$$$$$$$$$$$$$###############################%%%%%%%%%%%%%%%%%%%%%%%%%%%%%%%%%%%%%%%%%%%%%%%%%%%%%%%%%%%%%%%###############################$$$$$$$$$$$$$$$$$$$$$$$$$$$$$$$$$$$$$$$$$$$$$$$$$$$$$$$$$$$$$$++++++++++++++++++++++++++++++++...............................",
"...............................+++++++++++++++++++++++++++++++$$$$$$$$$$$$$$$$$$$$$$$$$$$$$$$$###############################%%%%%%%%%%%%%%%%%%%%%%%%%%%%%%%$$$$$$$$$$$$$$$$$$$$$$$$$$$$$$$$$$$$$$$$$$$$$$$$$$$$$$$$$$$$$$$$$$$$$$$$$$$$$$$$$$$$$$$$$$$$$$###############################%%%%%%%%%%%%%%%%%%%%%%%%%%%%%%%%%%%%%%%%%%%%%%%%%%%%%%%%%%%%%%%###############################$$$$$$$$$$$$$$$$$$$$$$$$$$$$$$$$$$$$$$$$$$$$$$$$$$$$$$$$$$$$$$++++++++++++++++++++++++++++++++...............................",
"...............................+++++++++++++++++++++++++++++++$$$$$$$$$$$$$$$$$$$$$$$$$$$$$$$$###############################%%%%%%%%%%%%%%%%%%%%%%%%%%%%%%%$$$$$$$$$$$$$$$$$$$$$$$$$$$$$$$$$$$$$$$$$$$$$$$$$$$$$$$$$$$$$$$$$$$$$$$$$$$$$$$$$$$$$$$$$$$$$$###############################%%%%%%%%%%%%%%%%%%%%%%%%%%%%%%%%%%%%%%%%%%%%%%%%%%%%%%%%%%%%%%%###############################$$$$$$$$$$$$$$$$$$$$$$$$$$$$$$$$$$$$$$$$$$$$$$$$$$$$$$$$$$$$$$++++++++++++++++++++++++++++++++...............................",
"...............................+++++++++++++++++++++++++++++++$$$$$$$$$$$$$$$$$$$$$$$$$$$$$$$$###############################%%%%%%%%%%%%%%%%%%%%%%%%%%%%%%%$$$$$$$$$$$$$$$$$$$$$$$$$$$$$$$$$$$$$$$$$$$$$$$$$$$$$$$$$$$$$$$$$$$$$$$$$$$$$$$$$$$$$$$$$$$$$$###############################%%%%%%%%%%%%%%%%%%%%%%%%%%%%%%%%%%%%%%%%%%%%%%%%%%%%%%%%%%%%%%%###############################$$$$$$$$$$$$$$$$$$$$$$$$$$$$$$$$$$$$$$$$$$$$$$$$$$$$$$$$$$$$$$++++++++++++++++++++++++++++++++...............................",
"...............................+++++++++++++++++++++++++++++++$$$$$$$$$$$$$$$$$$$$$$$$$$$$$$$$###############################%%%%%%%%%%%%%%%%%%%%%%%%%%%%%%%$$$$$$$$$$$$$$$$$$$$$$$$$$$$$$$$$$$$$$$$$$$$$$$$$$$$$$$$$$$$$$$$$$$$$$$$$$$$$$$$$$$$$$$$$$$$$$###############################%%%%%%%%%%%%%%%%%%%%%%%%%%%%%%%%%%%%%%%%%%%%%%%%%%%%%%%%%%%%%%%###############################$$$$$$$$$$$$$$$$$$$$$$$$$$$$$$$$$$$$$$$$$$$$$$$$$$$$$$$$$$$$$$++++++++++++++++++++++++++++++++...............................",
"...............................+++++++++++++++++++++++++++++++$$$$$$$$$$$$$$$$$$$$$$$$$$$$$$$$###############################%%%%%%%%%%%%%%%%%%%%%%%%%%%%%%%$$$$$$$$$$$$$$$$$$$$$$$$$$$$$$$$$$$$$$$$$$$$$$$$$$$$$$$$$$$$$$$$$$$$$$$$$$$$$$$$$$$$$$$$$$$$$$###############################%%%%%%%%%%%%%%%%%%%%%%%%%%%%%%%%%%%%%%%%%%%%%%%%%%%%%%%%%%%%%%%###############################$$$$$$$$$$$$$$$$$$$$$$$$$$$$$$$$$$$$$$$$$$$$$$$$$$$$$$$$$$$$$$++++++++++++++++++++++++++++++++...............................",
"...............................+++++++++++++++++++++++++++++++$$$$$$$$$$$$$$$$$$$$$$$$$$$$$$$$###############################%%%%%%%%%%%%%%%%%%%%%%%%%%%%%%%$$$$$$$$$$$$$$$$$$$$$$$$$$$$$$$$$$$$$$$$$$$$$$$$$$$$$$$$$$$$$$$$$$$$$$$$$$$$$$$$$$$$$$$$$$$$$$###############################%%%%%%%%%%%%%%%%%%%%%%%%%%%%%%%%%%%%%%%%%%%%%%%%%%%%%%%%%%%%%%%###############################$$$$$$$$$$$$$$$$$$$$$$$$$$$$$$$$$$$$$$$$$$$$$$$$$$$$$$$$$$$$$$++++++++++++++++++++++++++++++++...............................",
"...............................+++++++++++++++++++++++++++++++$$$$$$$$$$$$$$$$$$$$$$$$$$$$$$$$###############################%%%%%%%%%%%%%%%%%%%%%%%%%%%%%%%$$$$$$$$$$$$$$$$$$$$$$$$$$$$$$$$$$$$$$$$$$$$$$$$$$$$$$$$$$$$$$$$$$$$$$$$$$$$$$$$$$$$$$$$$$$$$$###############################%%%%%%%%%%%%%%%%%%%%%%%%%%%%%%%%%%%%%%%%%%%%%%%%%%%%%%%%%%%%%%%###############################$$$$$$$$$$$$$$$$$$$$$$$$$$$$$$$$$$$$$$$$$$$$$$$$$$$$$$$$$$$$$$++++++++++++++++++++++++++++++++...............................",
"...............................+++++++++++++++++++++++++++++++$$$$$$$$$$$$$$$$$$$$$$$$$$$$$$$$###############################%%%%%%%%%%%%%%%%%%%%%%%%%%%%%%%$$$$$$$$$$$$$$$$$$$$$$$$$$$$$$$$$$$$$$$$$$$$$$$$$$$$$$$$$$$$$$$$$$$$$$$$$$$$$$$$$$$$$$$$$$$$$$###############################%%%%%%%%%%%%%%%%%%%%%%%%%%%%%%%%%%%%%%%%%%%%%%%%%%%%%%%%%%%%%%%###############################$$$$$$$$$$$$$$$$$$$$$$$$$$$$$$$$$$$$$$$$$$$$$$$$$$$$$$$$$$$$$$++++++++++++++++++++++++++++++++...............................",
"...............................+++++++++++++++++++++++++++++++$$$$$$$$$$$$$$$$$$$$$$$$$$$$$$$$###############################%%%%%%%%%%%%%%%%%%%%%%%%%%%%%%%$$$$$$$$$$$$$$$$$$$$$$$$$$$$$$$$$$$$$$$$$$$$$$$$$$$$$$$$$$$$$$$$$$$$$$$$$$$$$$$$$$$$$$$$$$$$$$###############################%%%%%%%%%%%%%%%%%%%%%%%%%%%%%%%%%%%%%%%%%%%%%%%%%%%%%%%%%%%%%%%###############################$$$$$$$$$$$$$$$$$$$$$$$$$$$$$$$$$$$$$$$$$$$$$$$$$$$$$$$$$$$$$$++++++++++++++++++++++++++++++++...............................",
"...............................+++++++++++++++++++++++++++++++$$$$$$$$$$$$$$$$$$$$$$$$$$$$$$$$###############################%%%%%%%%%%%%%%%%%%%%%%%%%%%%%%%$$$$$$$$$$$$$$$$$$$$$$$$$$$$$$$$$$$$$$$$$$$$$$$$$$$$$$$$$$$$$$$$$$$$$$$$$$$$$$$$$$$$$$$$$$$$$$###############################%%%%%%%%%%%%%%%%%%%%%%%%%%%%%%%%%%%%%%%%%%%%%%%%%%%%%%%%%%%%%%%###############################$$$$$$$$$$$$$$$$$$$$$$$$$$$$$$$$$$$$$$$$$$$$$$$$$$$$$$$$$$$$$$++++++++++++++++++++++++++++++++...............................",
"...............................+++++++++++++++++++++++++++++++$$$$$$$$$$$$$$$$$$$$$$$$$$$$$$$$###############################%%%%%%%%%%%%%%%%%%%%%%%%%%%%%%%$$$$$$$$$$$$$$$$$$$$$$$$$$$$$$$$$$$$$$$$$$$$$$$$$$$$$$$$$$$$$$$$$$$$$$$$$$$$$$$$$$$$$$$$$$$$$$###############################%%%%%%%%%%%%%%%%%%%%%%%%%%%%%%%%%%%%%%%%%%%%%%%%%%%%%%%%%%%%%%%###############################$$$$$$$$$$$$$$$$$$$$$$$$$$$$$$$$$$$$$$$$$$$$$$$$$$$$$$$$$$$$$$++++++++++++++++++++++++++++++++...............................",
"...............................+++++++++++++++++++++++++++++++$$$$$$$$$$$$$$$$$$$$$$$$$$$$$$$$###############################%%%%%%%%%%%%%%%%%%%%%%%%%%%%%%%$$$$$$$$$$$$$$$$$$$$$$$$$$$$$$$$$$$$$$$$$$$$$$$$$$$$$$$$$$$$$$$$$$$$$$$$$$$$$$$$$$$$$$$$$$$$$$###############################%%%%%%%%%%%%%%%%%%%%%%%%%%%%%%%%%%%%%%%%%%%%%%%%%%%%%%%%%%%%%%%###############################$$$$$$$$$$$$$$$$$$$$$$$$$$$$$$$$$$$$$$$$$$$$$$$$$$$$$$$$$$$$$$++++++++++++++++++++++++++++++++...............................",
"...............................+++++++++++++++++++++++++++++++$$$$$$$$$$$$$$$$$$$$$$$$$$$$$$$$###############################%%%%%%%%%%%%%%%%%%%%%%%%%%%%%%%$$$$$$$$$$$$$$$$$$$$$$$$$$$$$$$$$$$$$$$$$$$$$$$$$$$$$$$$$$$$$$$$$$$$$$$$$$$$$$$$$$$$$$$$$$$$$$###############################%%%%%%%%%%%%%%%%%%%%%%%%%%%%%%%%%%%%%%%%%%%%%%%%%%%%%%%%%%%%%%%###############################$$$$$$$$$$$$$$$$$$$$$$$$$$$$$$$$$$$$$$$$$$$$$$$$$$$$$$$$$$$$$$++++++++++++++++++++++++++++++++...............................",
"...............................+++++++++++++++++++++++++++++++$$$$$$$$$$$$$$$$$$$$$$$$$$$$$$$$###############################%%%%%%%%%%%%%%%%%%%%%%%%%%%%%%%$$$$$$$$$$$$$$$$$$$$$$$$$$$$$$$$$$$$$$$$$$$$$$$$$$$$$$$$$$$$$$$$$$$$$$$$$$$$$$$$$$$$$$$$$$$$$$###############################%%%%%%%%%%%%%%%%%%%%%%%%%%%%%%%%%%%%%%%%%%%%%%%%%%%%%%%%%%%%%%%###############################$$$$$$$$$$$$$$$$$$$$$$$$$$$$$$$$$$$$$$$$$$$$$$$$$$$$$$$$$$$$$$++++++++++++++++++++++++++++++++...............................",
"...............................+++++++++++++++++++++++++++++++$$$$$$$$$$$$$$$$$$$$$$$$$$$$$$$$###############################%%%%%%%%%%%%%%%%%%%%%%%%%%%%%%%$$$$$$$$$$$$$$$$$$$$$$$$$$$$$$$$$$$$$$$$$$$$$$$$$$$$$$$$$$$$$$$$$$$$$$$$$$$$$$$$$$$$$$$$$$$$$$###############################%%%%%%%%%%%%%%%%%%%%%%%%%%%%%%%%%%%%%%%%%%%%%%%%%%%%%%%%%%%%%%%###############################$$$$$$$$$$$$$$$$$$$$$$$$$$$$$$$$$$$$$$$$$$$$$$$$$$$$$$$$$$$$$$++++++++++++++++++++++++++++++++...............................",
"...............................+++++++++++++++++++++++++++++++$$$$$$$$$$$$$$$$$$$$$$$$$$$$$$$$###############################%%%%%%%%%%%%%%%%%%%%%%%%%%%%%%%$$$$$$$$$$$$$$$$$$$$$$$$$$$$$$$$$$$$$$$$$$$$$$$$$$$$$$$$$$$$$$$$$$$$$$$$$$$$$$$$$$$$$$$$$$$$$$###############################%%%%%%%%%%%%%%%%%%%%%%%%%%%%%%%%%%%%%%%%%%%%%%%%%%%%%%%%%%%%%%%###############################$$$$$$$$$$$$$$$$$$$$$$$$$$$$$$$$$$$$$$$$$$$$$$$$$$$$$$$$$$$$$$++++++++++++++++++++++++++++++++...............................",
"...............................+++++++++++++++++++++++++++++++$$$$$$$$$$$$$$$$$$$$$$$$$$$$$$$$###############################%%%%%%%%%%%%%%%%%%%%%%%%%%%%%%%$$$$$$$$$$$$$$$$$$$$$$$$$$$$$$$$$$$$$$$$$$$$$$$$$$$$$$$$$$$$$$$$$$$$$$$$$$$$$$$$$$$$$$$$$$$$$$###############################%%%%%%%%%%%%%%%%%%%%%%%%%%%%%%%%%%%%%%%%%%%%%%%%%%%%%%%%%%%%%%%###############################$$$$$$$$$$$$$$$$$$$$$$$$$$$$$$$$$$$$$$$$$$$$$$$$$$$$$$$$$$$$$$++++++++++++++++++++++++++++++++...............................",
"...............................+++++++++++++++++++++++++++++++$$$$$$$$$$$$$$$$$$$$$$$$$$$$$$$$###############################%%%%%%%%%%%%%%%%%%%%%%%%%%%%%%%$$$$$$$$$$$$$$$$$$$$$$$$$$$$$$$$$$$$$$$$$$$$$$$$$$$$$$$$$$$$$$$$$$$$$$$$$$$$$$$$$$$$$$$$$$$$$$###############################%%%%%%%%%%%%%%%%%%%%%%%%%%%%%%%%%%%%%%%%%%%%%%%%%%%%%%%%%%%%%%%###############################$$$$$$$$$$$$$$$$$$$$$$$$$$$$$$$$$$$$$$$$$$$$$$$$$$$$$$$$$$$$$$++++++++++++++++++++++++++++++++...............................",
"...............................+++++++++++++++++++++++++++++++$$$$$$$$$$$$$$$$$$$$$$$$$$$$$$$$###############################%%%%%%%%%%%%%%%%%%%%%%%%%%%%%%%$$$$$$$$$$$$$$$$$$$$$$$$$$$$$$$$$$$$$$$$$$$$$$$$$$$$$$$$$$$$$$$$$$$$$$$$$$$$$$$$$$$$$$$$$$$$$$###############################%%%%%%%%%%%%%%%%%%%%%%%%%%%%%%%%%%%%%%%%%%%%%%%%%%%%%%%%%%%%%%%###############################$$$$$$$$$$$$$$$$$$$$$$$$$$$$$$$$$$$$$$$$$$$$$$$$$$$$$$$$$$$$$$++++++++++++++++++++++++++++++++...............................",
"XXXXXXXXXXXXXXXXXXXXXXXXXXXXXXX###############################ooooooooooooooooooooooooooooooooooooooooooooooooooooooooooooooo..............................................................................................XXXXXXXXXXXXXXXXXXXXXXXXXXXXXXXXXXXXXXXXXXXXXXXXXXXXXXXXXXXXXXXXXXXXXXXXXXXXXXXXXXXXXXXXXXXXXXXXXXXXXXXXXXXXXXXXXXXXXXXXXXXXX...............................oooooooooooooooooooooooooooooooooooooooooooooooooooooooooooooo################################XXXXXXXXXXXXXXXXXXXXXXXXXXXXXXX",
"XXXXXXXXXXXXXXXXXXXXXXXXXXXXXXX###############################ooooooooooooooooooooooooooooooooooooooooooooooooooooooooooooooo..............................................................................................XXXXXXXXXXXXXXXXXXXXXXXXXXXXXXXXXXXXXXXXXXXXXXXXXXXXXXXXXXXXXXXXXXXXXXXXXXXXXXXXXXXXXXXXXXXXXXXXXXXXXXXXXXXXXXXXXXXXXXXXXXXXX...............................oooooooooooooooooooooooooooooooooooooooooooooooooooooooooooooo################################XXXXXXXXXXXXXXXXXXXXXXXXXXXXXXX",
"XXXXXXXXXXXXXXXXXXXXXXXXXXXXXXX###############################ooooooooooooooooooooooooooooooooooooooooooooooooooooooooooooooo..............................................................................................XXXXXXXXXXXXXXXXXXXXXXXXXXXXXXXXXXXXXXXXXXXXXXXXXXXXXXXXXXXXXXXXXXXXXXXXXXXXXXXXXXXXXXXXXXXXXXXXXXXXXXXXXXXXXXXXXXXXXXXXXXXXX...............................oooooooooooooooooooooooooooooooooooooooooooooooooooooooooooooo################################XXXXXXXXXXXXXXXXXXXXXXXXXXXXXXX",
"XXXXXXXXXXXXXXXXXXXXXXXXXXXXXXX###############################ooooooooooooooooooooooooooooooooooooooooooooooooooooooooooooooo..............................................................................................XXXXXXXXXXXXXXXXXXXXXXXXXXXXXXXXXXXXXXXXXXXXXXXXXXXXXXXXXXXXXXXXXXXXXXXXXXXXXXXXXXXXXXXXXXXXXXXXXXXXXXXXXXXXXXXXXXXXXXXXXXXXX...............................oooooooooooooooooooooooooooooooooooooooooooooooooooooooooooooo################################XXXXXXXXXXXXXXXXXXXXXXXXXXXXXXX",
"XXXXXXXXXXXXXXXXXXXXXXXXXXXXXXX###############################ooooooooooooooooooooooooooooooooooooooooooooooooooooooooooooooo..............................................................................................XXXXXXXXXXXXXXXXXXXXXXXXXXXXXXXXXXXXXXXXXXXXXXXXXXXXXXXXXXXXXXXXXXXXXXXXXXXXXXXXXXXXXXXXXXXXXXXXXXXXXXXXXXXXXXXXXXXXXXXXXXXXX...............................oooooooooooooooooooooooooooooooooooooooooooooooooooooooooooooo################################XXXXXXXXXXXXXXXXXXXXXXXXXXXXXXX",
"XXXXXXXXXXXXXXXXXXXXXXXXXXXXXXX###############################ooooooooooooooooooooooooooooooooooooooooooooooooooooooooooooooo..............................................................................................XXXXXXXXXXXXXXXXXXXXXXXXXXXXXXXXXXXXXXXXXXXXXXXXXXXXXXXXXXXXXXXXXXXXXXXXXXXXXXXXXXXXXXXXXXXXXXXXXXXXXXXXXXXXXXXXXXXXXXXXXXXXX...............................oooooooooooooooooooooooooooooooooooooooooooooooooooooooooooooo################################XXXXXXXXXXXXXXXXXXXXXXXXXXXXXXX",
"XXXXXXXXXXXXXXXXXXXXXXXXXXXXXXX###############################ooooooooooooooooooooooooooooooooooooooooooooooooooooooooooooooo..............................................................................................XXXXXXXXXXXXXXXXXXXXXXXXXXXXXXXXXXXXXXXXXXXXXXXXXXXXXXXXXXXXXXXXXXXXXXXXXXXXXXXXXXXXXXXXXXXXXXXXXXXXXXXXXXXXXXXXXXXXXXXXXXXXX...............................oooooooooooooooooooooooooooooooooooooooooooooooooooooooooooooo################################XXXXXXXXXXXXXXXXXXXXXXXXXXXXXXX",
"XXXXXXXXXXXXXXXXXXXXXXXXXXXXXXX###############################ooooooooooooooooooooooooooooooooooooooooooooooooooooooooooooooo..............................................................................................XXXXXXXXXXXXXXXXXXXXXXXXXXXXXXXXXXXXXXXXXXXXXXXXXXXXXXXXXXXXXXXXXXXXXXXXXXXXXXXXXXXXXXXXXXXXXXXXXXXXXXXXXXXXXXXXXXXXXXXXXXXXX...............................oooooooooooooooooooooooooooooooooooooooooooooooooooooooooooooo################################XXXXXXXXXXXXXXXXXXXXXXXXXXXXXXX",
"XXXXXXXXXXXXXXXXXXXXXXXXXXXXXXX###############################ooooooooooooooooooooooooooooooooooooooooooooooooooooooooooooooo..............................................................................................XXXXXXXXXXXXXXXXXXXXXXXXXXXXXXXXXXXXXXXXXXXXXXXXXXXXXXXXXXXXXXXXXXXXXXXXXXXXXXXXXXXXXXXXXXXXXXXXXXXXXXXXXXXXXXXXXXXXXXXXXXXXX...............................oooooooooooooooooooooooooooooooooooooooooooooooooooooooooooooo################################XXXXXXXXXXXXXXXXXXXXXXXXXXXXXXX",
"XXXXXXXXXXXXXXXXXXXXXXXXXXXXXXX###############################ooooooooooooooooooooooooooooooooooooooooooooooooooooooooooooooo..............................................................................................XXXXXXXXXXXXXXXXXXXXXXXXXXXXXXXXXXXXXXXXXXXXXXXXXXXXXXXXXXXXXXXXXXXXXXXXXXXXXXXXXXXXXXXXXXXXXXXXXXXXXXXXXXXXXXXXXXXXXXXXXXXXX...............................oooooooooooooooooooooooooooooooooooooooooooooooooooooooooooooo################################XXXXXXXXXXXXXXXXXXXXXXXXXXXXXXX",
"XXXXXXXXXXXXXXXXXXXXXXXXXXXXXXX###############################ooooooooooooooooooooooooooooooooooooooooooooooooooooooooooooooo..............................................................................................XXXXXXXXXXXXXXXXXXXXXXXXXXXXXXXXXXXXXXXXXXXXXXXXXXXXXXXXXXXXXXXXXXXXXXXXXXXXXXXXXXXXXXXXXXXXXXXXXXXXXXXXXXXXXXXXXXXXXXXXXXXXX...............................oooooooooooooooooooooooooooooooooooooooooooooooooooooooooooooo################################XXXXXXXXXXXXXXXXXXXXXXXXXXXXXXX",
"XXXXXXXXXXXXXXXXXXXXXXXXXXXXXXX###############################ooooooooooooooooooooooooooooooooooooooooooooooooooooooooooooooo..............................................................................................XXXXXXXXXXXXXXXXXXXXXXXXXXXXXXXXXXXXXXXXXXXXXXXXXXXXXXXXXXXXXXXXXXXXXXXXXXXXXXXXXXXXXXXXXXXXXXXXXXXXXXXXXXXXXXXXXXXXXXXXXXXXX...............................oooooooooooooooooooooooooooooooooooooooooooooooooooooooooooooo################################XXXXXXXXXXXXXXXXXXXXXXXXXXXXXXX",
"XXXXXXXXXXXXXXXXXXXXXXXXXXXXXXX###############################ooooooooooooooooooooooooooooooooooooooooooooooooooooooooooooooo..............................................................................................XXXXXXXXXXXXXXXXXXXXXXXXXXXXXXXXXXXXXXXXXXXXXXXXXXXXXXXXXXXXXXXXXXXXXXXXXXXXXXXXXXXXXXXXXXXXXXXXXXXXXXXXXXXXXXXXXXXXXXXXXXXXX...............................oooooooooooooooooooooooooooooooooooooooooooooooooooooooooooooo################################XXXXXXXXXXXXXXXXXXXXXXXXXXXXXXX",
"XXXXXXXXXXXXXXXXXXXXXXXXXXXXXXX###############################ooooooooooooooooooooooooooooooooooooooooooooooooooooooooooooooo..............................................................................................XXXXXXXXXXXXXXXXXXXXXXXXXXXXXXXXXXXXXXXXXXXXXXXXXXXXXXXXXXXXXXXXXXXXXXXXXXXXXXXXXXXXXXXXXXXXXXXXXXXXXXXXXXXXXXXXXXXXXXXXXXXXX...............................oooooooooooooooooooooooooooooooooooooooooooooooooooooooooooooo################################XXXXXXXXXXXXXXXXXXXXXXXXXXXXXXX",
"XXXXXXXXXXXXXXXXXXXXXXXXXXXXXXX###############################ooooooooooooooooooooooooooooooooooooooooooooooooooooooooooooooo..............................................................................................XXXXXXXXXXXXXXXXXXXXXXXXXXXXXXXXXXXXXXXXXXXXXXXXXXXXXXXXXXXXXXXXXXXXXXXXXXXXXXXXXXXXXXXXXXXXXXXXXXXXXXXXXXXXXXXXXXXXXXXXXXXXX...............................oooooooooooooooooooooooooooooooooooooooooooooooooooooooooooooo################################XXXXXXXXXXXXXXXXXXXXXXXXXXXXXXX",
"XXXXXXXXXXXXXXXXXXXXXXXXXXXXXXX###############################ooooooooooooooooooooooooooooooooooooooooooooooooooooooooooooooo..............................................................................................XXXXXXXXXXXXXXXXXXXXXXXXXXXXXXXXXXXXXXXXXXXXXXXXXXXXXXXXXXXXXXXXXXXXXXXXXXXXXXXXXXXXXXXXXXXXXXXXXXXXXXXXXXXXXXXXXXXXXXXXXXXXX...............................oooooooooooooooooooooooooooooooooooooooooooooooooooooooooooooo################################XXXXXXXXXXXXXXXXXXXXXXXXXXXXXXX",
"XXXXXXXXXXXXXXXXXXXXXXXXXXXXXXX###############################ooooooooooooooooooooooooooooooooooooooooooooooooooooooooooooooo..............................................................................................XXXXXXXXXXXXXXXXXXXXXXXXXXXXXXXXXXXXXXXXXXXXXXXXXXXXXXXXXXXXXXXXXXXXXXXXXXXXXXXXXXXXXXXXXXXXXXXXXXXXXXXXXXXXXXXXXXXXXXXXXXXXX...............................oooooooooooooooooooooooooooooooooooooooooooooooooooooooooooooo################################XXXXXXXXXXXXXXXXXXXXXXXXXXXXXXX",
"XXXXXXXXXXXXXXXXXXXXXXXXXXXXXXX###############################ooooooooooooooooooooooooooooooooooooooooooooooooooooooooooooooo..............................................................................................XXXXXXXXXXXXXXXXXXXXXXXXXXXXXXXXXXXXXXXXXXXXXXXXXXXXXXXXXXXXXXXXXXXXXXXXXXXXXXXXXXXXXXXXXXXXXXXXXXXXXXXXXXXXXXXXXXXXXXXXXXXXX...............................oooooooooooooooooooooooooooooooooooooooooooooooooooooooooooooo################################XXXXXXXXXXXXXXXXXXXXXXXXXXXXXXX",
"XXXXXXXXXXXXXXXXXXXXXXXXXXXXXXX###############################ooooooooooooooooooooooooooooooooooooooooooooooooooooooooooooooo..............................................................................................XXXXXXXXXXXXXXXXXXXXXXXXXXXXXXXXXXXXXXXXXXXXXXXXXXXXXXXXXXXXXXXXXXXXXXXXXXXXXXXXXXXXXXXXXXXXXXXXXXXXXXXXXXXXXXXXXXXXXXXXXXXXX...............................oooooooooooooooooooooooooooooooooooooooooooooooooooooooooooooo################################XXXXXXXXXXXXXXXXXXXXXXXXXXXXXXX",
"XXXXXXXXXXXXXXXXXXXXXXXXXXXXXXX###############################ooooooooooooooooooooooooooooooooooooooooooooooooooooooooooooooo..............................................................................................XXXXXXXXXXXXXXXXXXXXXXXXXXXXXXXXXXXXXXXXXXXXXXXXXXXXXXXXXXXXXXXXXXXXXXXXXXXXXXXXXXXXXXXXXXXXXXXXXXXXXXXXXXXXXXXXXXXXXXXXXXXXX...............................oooooooooooooooooooooooooooooooooooooooooooooooooooooooooooooo################################XXXXXXXXXXXXXXXXXXXXXXXXXXXXXXX",
"XXXXXXXXXXXXXXXXXXXXXXXXXXXXXXX###############################ooooooooooooooooooooooooooooooooooooooooooooooooooooooooooooooo..............................................................................................XXXXXXXXXXXXXXXXXXXXXXXXXXXXXXXXXXXXXXXXXXXXXXXXXXXXXXXXXXXXXXXXXXXXXXXXXXXXXXXXXXXXXXXXXXXXXXXXXXXXXXXXXXXXXXXXXXXXXXXXXXXXX...............................oooooooooooooooooooooooooooooooooooooooooooooooooooooooooooooo################################XXXXXXXXXXXXXXXXXXXXXXXXXXXXXXX",
"XXXXXXXXXXXXXXXXXXXXXXXXXXXXXXX###############################ooooooooooooooooooooooooooooooooooooooooooooooooooooooooooooooo..............................................................................................XXXXXXXXXXXXXXXXXXXXXXXXXXXXXXXXXXXXXXXXXXXXXXXXXXXXXXXXXXXXXXXXXXXXXXXXXXXXXXXXXXXXXXXXXXXXXXXXXXXXXXXXXXXXXXXXXXXXXXXXXXXXX...............................oooooooooooooooooooooooooooooooooooooooooooooooooooooooooooooo################################XXXXXXXXXXXXXXXXXXXXXXXXXXXXXXX",
"XXXXXXXXXXXXXXXXXXXXXXXXXXXXXXX###############################ooooooooooooooooooooooooooooooooooooooooooooooooooooooooooooooo..............................................................................................XXXXXXXXXXXXXXXXXXXXXXXXXXXXXXXXXXXXXXXXXXXXXXXXXXXXXXXXXXXXXXXXXXXXXXXXXXXXXXXXXXXXXXXXXXXXXXXXXXXXXXXXXXXXXXXXXXXXXXXXXXXXX...............................oooooooooooooooooooooooooooooooooooooooooooooooooooooooooooooo################################XXXXXXXXXXXXXXXXXXXXXXXXXXXXXXX",
"XXXXXXXXXXXXXXXXXXXXXXXXXXXXXXX###############################ooooooooooooooooooooooooooooooooooooooooooooooooooooooooooooooo..............................................................................................XXXXXXXXXXXXXXXXXXXXXXXXXXXXXXXXXXXXXXXXXXXXXXXXXXXXXXXXXXXXXXXXXXXXXXXXXXXXXXXXXXXXXXXXXXXXXXXXXXXXXXXXXXXXXXXXXXXXXXXXXXXXX...............................oooooooooooooooooooooooooooooooooooooooooooooooooooooooooooooo################################XXXXXXXXXXXXXXXXXXXXXXXXXXXXXXX",
"XXXXXXXXXXXXXXXXXXXXXXXXXXXXXXX###############################ooooooooooooooooooooooooooooooooooooooooooooooooooooooooooooooo..............................................................................................XXXXXXXXXXXXXXXXXXXXXXXXXXXXXXXXXXXXXXXXXXXXXXXXXXXXXXXXXXXXXXXXXXXXXXXXXXXXXXXXXXXXXXXXXXXXXXXXXXXXXXXXXXXXXXXXXXXXXXXXXXXXX...............................oooooooooooooooooooooooooooooooooooooooooooooooooooooooooooooo################################XXXXXXXXXXXXXXXXXXXXXXXXXXXXXXX",
"XXXXXXXXXXXXXXXXXXXXXXXXXXXXXXX###############################ooooooooooooooooooooooooooooooooooooooooooooooooooooooooooooooo..............................................................................................XXXXXXXXXXXXXXXXXXXXXXXXXXXXXXXXXXXXXXXXXXXXXXXXXXXXXXXXXXXXXXXXXXXXXXXXXXXXXXXXXXXXXXXXXXXXXXXXXXXXXXXXXXXXXXXXXXXXXXXXXXXXX...............................oooooooooooooooooooooooooooooooooooooooooooooooooooooooooooooo################################XXXXXXXXXXXXXXXXXXXXXXXXXXXXXXX",
"XXXXXXXXXXXXXXXXXXXXXXXXXXXXXXX###############################ooooooooooooooooooooooooooooooooooooooooooooooooooooooooooooooo..............................................................................................XXXXXXXXXXXXXXXXXXXXXXXXXXXXXXXXXXXXXXXXXXXXXXXXXXXXXXXXXXXXXXXXXXXXXXXXXXXXXXXXXXXXXXXXXXXXXXXXXXXXXXXXXXXXXXXXXXXXXXXXXXXXX...............................oooooooooooooooooooooooooooooooooooooooooooooooooooooooooooooo################################XXXXXXXXXXXXXXXXXXXXXXXXXXXXXXX",
"XXXXXXXXXXXXXXXXXXXXXXXXXXXXXXX###############################ooooooooooooooooooooooooooooooooooooooooooooooooooooooooooooooo..............................................................................................XXXXXXXXXXXXXXXXXXXXXXXXXXXXXXXXXXXXXXXXXXXXXXXXXXXXXXXXXXXXXXXXXXXXXXXXXXXXXXXXXXXXXXXXXXXXXXXXXXXXXXXXXXXXXXXXXXXXXXXXXXXXX...............................oooooooooooooooooooooooooooooooooooooooooooooooooooooooooooooo################################XXXXXXXXXXXXXXXXXXXXXXXXXXXXXXX",
"XXXXXXXXXXXXXXXXXXXXXXXXXXXXXXX###############################ooooooooooooooooooooooooooooooooooooooooooooooooooooooooooooooo..............................................................................................XXXXXXXXXXXXXXXXXXXXXXXXXXXXXXXXXXXXXXXXXXXXXXXXXXXXXXXXXXXXXXXXXXXXXXXXXXXXXXXXXXXXXXXXXXXXXXXXXXXXXXXXXXXXXXXXXXXXXXXXXXXXX...............................oooooooooooooooooooooooooooooooooooooooooooooooooooooooooooooo################################XXXXXXXXXXXXXXXXXXXXXXXXXXXXXXX",
"XXXXXXXXXXXXXXXXXXXXXXXXXXXXXXX###############################ooooooooooooooooooooooooooooooooooooooooooooooooooooooooooooooo..............................................................................................XXXXXXXXXXXXXXXXXXXXXXXXXXXXXXXXXXXXXXXXXXXXXXXXXXXXXXXXXXXXXXXXXXXXXXXXXXXXXXXXXXXXXXXXXXXXXXXXXXXXXXXXXXXXXXXXXXXXXXXXXXXXX...............................oooooooooooooooooooooooooooooooooooooooooooooooooooooooooooooo################################XXXXXXXXXXXXXXXXXXXXXXXXXXXXXXX",
"XXXXXXXXXXXXXXXXXXXXXXXXXXXXXXX###############################ooooooooooooooooooooooooooooooooooooooooooooooooooooooooooooooo..............................................................................................XXXXXXXXXXXXXXXXXXXXXXXXXXXXXXXXXXXXXXXXXXXXXXXXXXXXXXXXXXXXXXXXXXXXXXXXXXXXXXXXXXXXXXXXXXXXXXXXXXXXXXXXXXXXXXXXXXXXXXXXXXXXX...............................oooooooooooooooooooooooooooooooooooooooooooooooooooooooooooooo################################XXXXXXXXXXXXXXXXXXXXXXXXXXXXXXX",
"XXXXXXXXXXXXXXXXXXXXXXXXXXXXXXX###############################ooooooooooooooooooooooooooooooooooooooooooooooooooooooooooooooo..............................................................................................XXXXXXXXXXXXXXXXXXXXXXXXXXXXXXXXXXXXXXXXXXXXXXXXXXXXXXXXXXXXXXXXXXXXXXXXXXXXXXXXXXXXXXXXXXXXXXXXXXXXXXXXXXXXXXXXXXXXXXXXXXXXX...............................oooooooooooooooooooooooooooooooooooooooooooooooooooooooooooooo################################XXXXXXXXXXXXXXXXXXXXXXXXXXXXXXX",
"XXXXXXXXXXXXXXXXXXXXXXXXXXXXXXX###############################XXXXXXXXXXXXXXXXXXXXXXXXXXXXXXXX                                                              ###############################                                                               ###############################                                                               OOOOOOOOOOOOOOOOOOOOOOOOOOOOOOO                               ...............................################################...............................",
"XXXXXXXXXXXXXXXXXXXXXXXXXXXXXXX###############################XXXXXXXXXXXXXXXXXXXXXXXXXXXXXXXX                                                              ###############################                                                               ###############################                                                               OOOOOOOOOOOOOOOOOOOOOOOOOOOOOOO                               ...............................################################...............................",
"XXXXXXXXXXXXXXXXXXXXXXXXXXXXXXX###############################XXXXXXXXXXXXXXXXXXXXXXXXXXXXXXXX                                                              ###############################                                                               ###############################                                                               OOOOOOOOOOOOOOOOOOOOOOOOOOOOOOO                               ...............................################################...............................",
"XXXXXXXXXXXXXXXXXXXXXXXXXXXXXXX###############################XXXXXXXXXXXXXXXXXXXXXXXXXXXXXXXX                                                              ###############################                                                               ###############################                                                               OOOOOOOOOOOOOOOOOOOOOOOOOOOOOOO                               ...............................################################...............................",
"XXXXXXXXXXXXXXXXXXXXXXXXXXXXXXX###############################XXXXXXXXXXXXXXXXXXXXXXXXXXXXXXXX                                                              ###############################                                                               ###############################                                                               OOOOOOOOOOOOOOOOOOOOOOOOOOOOOOO                               ...............................################################...............................",
"XXXXXXXXXXXXXXXXXXXXXXXXXXXXXXX###############################XXXXXXXXXXXXXXXXXXXXXXXXXXXXXXXX                                                              ###############################                                                               ###############################                                                               OOOOOOOOOOOOOOOOOOOOOOOOOOOOOOO                               ...............................################################...............................",
"XXXXXXXXXXXXXXXXXXXXXXXXXXXXXXX###############################XXXXXXXXXXXXXXXXXXXXXXXXXXXXXXXX                                                              ###############################                                                               ###############################                                                               OOOOOOOOOOOOOOOOOOOOOOOOOOOOOOO                               ...............................################################...............................",
"XXXXXXXXXXXXXXXXXXXXXXXXXXXXXXX###############################XXXXXXXXXXXXXXXXXXXXXXXXXXXXXXXX                                                              ###############################                                                               ###############################                                                               OOOOOOOOOOOOOOOOOOOOOOOOOOOOOOO                               ...............................################################...............................",
"XXXXXXXXXXXXXXXXXXXXXXXXXXXXXXX###############################XXXXXXXXXXXXXXXXXXXXXXXXXXXXXXXX                                                              ###############################                                                               ###############################                                                               OOOOOOOOOOOOOOOOOOOOOOOOOOOOOOO                               ...............................################################...............................",
"XXXXXXXXXXXXXXXXXXXXXXXXXXXXXXX###############################XXXXXXXXXXXXXXXXXXXXXXXXXXXXXXXX                                                              ###############################                                                               ###############################                                                               OOOOOOOOOOOOOOOOOOOOOOOOOOOOOOO                               ...............................################################...............................",
"XXXXXXXXXXXXXXXXXXXXXXXXXXXXXXX###############################XXXXXXXXXXXXXXXXXXXXXXXXXXXXXXXX                                                              ###############################                                                               ###############################                                                               OOOOOOOOOOOOOOOOOOOOOOOOOOOOOOO                               ...............................################################...............................",
"XXXXXXXXXXXXXXXXXXXXXXXXXXXXXXX###############################XXXXXXXXXXXXXXXXXXXXXXXXXXXXXXXX                                                              ###############################                                                               ###############################                                                               OOOOOOOOOOOOOOOOOOOOOOOOOOOOOOO                               ...............................################################...............................",
"XXXXXXXXXXXXXXXXXXXXXXXXXXXXXXX###############################XXXXXXXXXXXXXXXXXXXXXXXXXXXXXXXX                                                              ###############################                                                               ###############################                                                               OOOOOOOOOOOOOOOOOOOOOOOOOOOOOOO                               ...............................################################...............................",
"XXXXXXXXXXXXXXXXXXXXXXXXXXXXXXX###############################XXXXXXXXXXXXXXXXXXXXXXXXXXXXXXXX                                                              ###############################                                                               ###############################                                                               OOOOOOOOOOOOOOOOOOOOOOOOOOOOOOO                               ...............................################################...............................",
"XXXXXXXXXXXXXXXXXXXXXXXXXXXXXXX###############################XXXXXXXXXXXXXXXXXXXXXXXXXXXXXXXX                                                              ###############################                                                               ###############################                                                               OOOOOOOOOOOOOOOOOOOOOOOOOOOOOOO                               ...............................################################...............................",
"XXXXXXXXXXXXXXXXXXXXXXXXXXXXXXX###############################XXXXXXXXXXXXXXXXXXXXXXXXXXXXXXXX                                                              ###############################                                                               ###############################                                                               OOOOOOOOOOOOOOOOOOOOOOOOOOOOOOO                               ...............................################################...............................",
"XXXXXXXXXXXXXXXXXXXXXXXXXXXXXXX###############################XXXXXXXXXXXXXXXXXXXXXXXXXXXXXXXX                                                              ###############################                                                               ###############################                                                               OOOOOOOOOOOOOOOOOOOOOOOOOOOOOOO                               ...............................################################...............................",
"XXXXXXXXXXXXXXXXXXXXXXXXXXXXXXX###############################XXXXXXXXXXXXXXXXXXXXXXXXXXXXXXXX                                                              ###############################                                                               ###############################                                                               OOOOOOOOOOOOOOOOOOOOOOOOOOOOOOO                               ...............................################################...............................",
"XXXXXXXXXXXXXXXXXXXXXXXXXXXXXXX###############################XXXXXXXXXXXXXXXXXXXXXXXXXXXXXXXX                                                              ###############################                                                               ###############################                                                               OOOOOOOOOOOOOOOOOOOOOOOOOOOOOOO                               ...............................################################...............................",
"XXXXXXXXXXXXXXXXXXXXXXXXXXXXXXX###############################XXXXXXXXXXXXXXXXXXXXXXXXXXXXXXXX                                                              ###############################                                                               ###############################                                                               OOOOOOOOOOOOOOOOOOOOOOOOOOOOOOO                               ...............................################################...............................",
"XXXXXXXXXXXXXXXXXXXXXXXXXXXXXXX###############################XXXXXXXXXXXXXXXXXXXXXXXXXXXXXXXX                                                              ###############################                                                               ###############################                                                               OOOOOOOOOOOOOOOOOOOOOOOOOOOOOOO                               ...............................################################...............................",
"XXXXXXXXXXXXXXXXXXXXXXXXXXXXXXX###############################XXXXXXXXXXXXXXXXXXXXXXXXXXXXXXXX                                                              ###############################                                                               ###############################                                                               OOOOOOOOOOOOOOOOOOOOOOOOOOOOOOO                               ...............................################################...............................",
"XXXXXXXXXXXXXXXXXXXXXXXXXXXXXXX###############################XXXXXXXXXXXXXXXXXXXXXXXXXXXXXXXX                                                              ###############################                                                               ###############################                                                               OOOOOOOOOOOOOOOOOOOOOOOOOOOOOOO                               ...............................################################...............................",
"XXXXXXXXXXXXXXXXXXXXXXXXXXXXXXX###############################XXXXXXXXXXXXXXXXXXXXXXXXXXXXXXXX                                                              ###############################                                                               ###############################                                                               OOOOOOOOOOOOOOOOOOOOOOOOOOOOOOO                               ...............................################################...............................",
"XXXXXXXXXXXXXXXXXXXXXXXXXXXXXXX###############################XXXXXXXXXXXXXXXXXXXXXXXXXXXXXXXX                                                              ###############################                                                               ###############################                                                               OOOOOOOOOOOOOOOOOOOOOOOOOOOOOOO                               ...............................################################...............................",
"XXXXXXXXXXXXXXXXXXXXXXXXXXXXXXX###############################XXXXXXXXXXXXXXXXXXXXXXXXXXXXXXXX                                                              ###############################                                                               ###############################                                                               OOOOOOOOOOOOOOOOOOOOOOOOOOOOOOO                               ...............................################################...............................",
"XXXXXXXXXXXXXXXXXXXXXXXXXXXXXXX###############################XXXXXXXXXXXXXXXXXXXXXXXXXXXXXXXX                                                              ###############################                                                               ###############################                                                               OOOOOOOOOOOOOOOOOOOOOOOOOOOOOOO                               ...............................################################...............................",
"XXXXXXXXXXXXXXXXXXXXXXXXXXXXXXX###############################XXXXXXXXXXXXXXXXXXXXXXXXXXXXXXXX                                                              ###############################                                                               ###############################                                                               OOOOOOOOOOOOOOOOOOOOOOOOOOOOOOO                               ...............................################################...............................",
"XXXXXXXXXXXXXXXXXXXXXXXXXXXXXXX###############################XXXXXXXXXXXXXXXXXXXXXXXXXXXXXXXX                                                              ###############################                                                               ###############################                                                               OOOOOOOOOOOOOOOOOOOOOOOOOOOOOOO                               ...............................################################...............................",
"XXXXXXXXXXXXXXXXXXXXXXXXXXXXXXX###############################XXXXXXXXXXXXXXXXXXXXXXXXXXXXXXXX                                                              ###############################                                                               ###############################                                                               OOOOOOOOOOOOOOOOOOOOOOOOOOOOOOO                               ...............................################################...............................",
"XXXXXXXXXXXXXXXXXXXXXXXXXXXXXXX###############################XXXXXXXXXXXXXXXXXXXXXXXXXXXXXXXX                                                              ###############################                                                               ###############################                                                               OOOOOOOOOOOOOOOOOOOOOOOOOOOOOOO                               ...............................################################...............................",
"...............................###############################XXXXXXXXXXXXXXXXXXXXXXXXXXXXXXXX###############################OOOOOOOOOOOOOOOOOOOOOOOOOOOOOOO############################################################################################################################################################OOOOOOOOOOOOOOOOOOOOOOOOOOOOOOOOOOOOOOOOOOOOOOOOOOOOOOOOOOOOOOO###############################XXXXXXXXXXXXXXXXXXXXXXXXXXXXXXX################################...............................",
"...............................###############################XXXXXXXXXXXXXXXXXXXXXXXXXXXXXXXX###############################OOOOOOOOOOOOOOOOOOOOOOOOOOOOOOO############################################################################################################################################################OOOOOOOOOOOOOOOOOOOOOOOOOOOOOOOOOOOOOOOOOOOOOOOOOOOOOOOOOOOOOOO###############################XXXXXXXXXXXXXXXXXXXXXXXXXXXXXXX################################...............................",
"...............................###############################XXXXXXXXXXXXXXXXXXXXXXXXXXXXXXXX###############################OOOOOOOOOOOOOOOOOOOOOOOOOOOOOOO############################################################################################################################################################OOOOOOOOOOOOOOOOOOOOOOOOOOOOOOOOOOOOOOOOOOOOOOOOOOOOOOOOOOOOOOO###############################XXXXXXXXXXXXXXXXXXXXXXXXXXXXXXX################################...............................",
"...............................###############################XXXXXXXXXXXXXXXXXXXXXXXXXXXXXXXX###############################OOOOOOOOOOOOOOOOOOOOOOOOOOOOOOO############################################################################################################################################################OOOOOOOOOOOOOOOOOOOOOOOOOOOOOOOOOOOOOOOOOOOOOOOOOOOOOOOOOOOOOOO###############################XXXXXXXXXXXXXXXXXXXXXXXXXXXXXXX################################...............................",
"...............................###############################XXXXXXXXXXXXXXXXXXXXXXXXXXXXXXXX###############################OOOOOOOOOOOOOOOOOOOOOOOOOOOOOOO############################################################################################################################################################OOOOOOOOOOOOOOOOOOOOOOOOOOOOOOOOOOOOOOOOOOOOOOOOOOOOOOOOOOOOOOO###############################XXXXXXXXXXXXXXXXXXXXXXXXXXXXXXX################################...............................",
"...............................###############################XXXXXXXXXXXXXXXXXXXXXXXXXXXXXXXX###############################OOOOOOOOOOOOOOOOOOOOOOOOOOOOOOO############################################################################################################################################################OOOOOOOOOOOOOOOOOOOOOOOOOOOOOOOOOOOOOOOOOOOOOOOOOOOOOOOOOOOOOOO###############################XXXXXXXXXXXXXXXXXXXXXXXXXXXXXXX################################...............................",
"...............................###############################XXXXXXXXXXXXXXXXXXXXXXXXXXXXXXXX###############################OOOOOOOOOOOOOOOOOOOOOOOOOOOOOOO############################################################################################################################################################OOOOOOOOOOOOOOOOOOOOOOOOOOOOOOOOOOOOOOOOOOOOOOOOOOOOOOOOOOOOOOO###############################XXXXXXXXXXXXXXXXXXXXXXXXXXXXXXX################################...............................",
"...............................###############################XXXXXXXXXXXXXXXXXXXXXXXXXXXXXXXX###############################OOOOOOOOOOOOOOOOOOOOOOOOOOOOOOO############################################################################################################################################################OOOOOOOOOOOOOOOOOOOOOOOOOOOOOOOOOOOOOOOOOOOOOOOOOOOOOOOOOOOOOOO###############################XXXXXXXXXXXXXXXXXXXXXXXXXXXXXXX################################...............................",
"...............................###############################XXXXXXXXXXXXXXXXXXXXXXXXXXXXXXXX###############################OOOOOOOOOOOOOOOOOOOOOOOOOOOOOOO############################################################################################################################################################OOOOOOOOOOOOOOOOOOOOOOOOOOOOOOOOOOOOOOOOOOOOOOOOOOOOOOOOOOOOOOO###############################XXXXXXXXXXXXXXXXXXXXXXXXXXXXXXX################################...............................",
"...............................###############################XXXXXXXXXXXXXXXXXXXXXXXXXXXXXXXX###############################OOOOOOOOOOOOOOOOOOOOOOOOOOOOOOO############################################################################################################################################################OOOOOOOOOOOOOOOOOOOOOOOOOOOOOOOOOOOOOOOOOOOOOOOOOOOOOOOOOOOOOOO###############################XXXXXXXXXXXXXXXXXXXXXXXXXXXXXXX################################...............................",
"...............................###############################XXXXXXXXXXXXXXXXXXXXXXXXXXXXXXXX###############################OOOOOOOOOOOOOOOOOOOOOOOOOOOOOOO############################################################################################################################################################OOOOOOOOOOOOOOOOOOOOOOOOOOOOOOOOOOOOOOOOOOOOOOOOOOOOOOOOOOOOOOO###############################XXXXXXXXXXXXXXXXXXXXXXXXXXXXXXX################################...............................",
"...............................###############################XXXXXXXXXXXXXXXXXXXXXXXXXXXXXXXX###############################OOOOOOOOOOOOOOOOOOOOOOOOOOOOOOO############################################################################################################################################################OOOOOOOOOOOOOOOOOOOOOOOOOOOOOOOOOOOOOOOOOOOOOOOOOOOOOOOOOOOOOOO###############################XXXXXXXXXXXXXXXXXXXXXXXXXXXXXXX################################...............................",
"...............................###############################XXXXXXXXXXXXXXXXXXXXXXXXXXXXXXXX###############################OOOOOOOOOOOOOOOOOOOOOOOOOOOOOOO############################################################################################################################################################OOOOOOOOOOOOOOOOOOOOOOOOOOOOOOOOOOOOOOOOOOOOOOOOOOOOOOOOOOOOOOO###############################XXXXXXXXXXXXXXXXXXXXXXXXXXXXXXX################################...............................",
"...............................###############################XXXXXXXXXXXXXXXXXXXXXXXXXXXXXXXX###############################OOOOOOOOOOOOOOOOOOOOOOOOOOOOOOO############################################################################################################################################################OOOOOOOOOOOOOOOOOOOOOOOOOOOOOOOOOOOOOOOOOOOOOOOOOOOOOOOOOOOOOOO###############################XXXXXXXXXXXXXXXXXXXXXXXXXXXXXXX################################...............................",
"...............................###############################XXXXXXXXXXXXXXXXXXXXXXXXXXXXXXXX###############################OOOOOOOOOOOOOOOOOOOOOOOOOOOOOOO############################################################################################################################################################OOOOOOOOOOOOOOOOOOOOOOOOOOOOOOOOOOOOOOOOOOOOOOOOOOOOOOOOOOOOOOO###############################XXXXXXXXXXXXXXXXXXXXXXXXXXXXXXX################################...............................",
"...............................###############################XXXXXXXXXXXXXXXXXXXXXXXXXXXXXXXX###############################OOOOOOOOOOOOOOOOOOOOOOOOOOOOOOO############################################################################################################################################################OOOOOOOOOOOOOOOOOOOOOOOOOOOOOOOOOOOOOOOOOOOOOOOOOOOOOOOOOOOOOOO###############################XXXXXXXXXXXXXXXXXXXXXXXXXXXXXXX################################...............................",
"...............................###############################XXXXXXXXXXXXXXXXXXXXXXXXXXXXXXXX###############################OOOOOOOOOOOOOOOOOOOOOOOOOOOOOOO############################################################################################################################################################OOOOOOOOOOOOOOOOOOOOOOOOOOOOOOOOOOOOOOOOOOOOOOOOOOOOOOOOOOOOOOO###############################XXXXXXXXXXXXXXXXXXXXXXXXXXXXXXX################################...............................",
"...............................###############################XXXXXXXXXXXXXXXXXXXXXXXXXXXXXXXX###############################OOOOOOOOOOOOOOOOOOOOOOOOOOOOOOO############################################################################################################################################################OOOOOOOOOOOOOOOOOOOOOOOOOOOOOOOOOOOOOOOOOOOOOOOOOOOOOOOOOOOOOOO###############################XXXXXXXXXXXXXXXXXXXXXXXXXXXXXXX################################...............................",
"...............................###############################XXXXXXXXXXXXXXXXXXXXXXXXXXXXXXXX###############################OOOOOOOOOOOOOOOOOOOOOOOOOOOOOOO############################################################################################################################################################OOOOOOOOOOOOOOOOOOOOOOOOOOOOOOOOOOOOOOOOOOOOOOOOOOOOOOOOOOOOOOO###############################XXXXXXXXXXXXXXXXXXXXXXXXXXXXXXX################################...............................",
"...............................###############################XXXXXXXXXXXXXXXXXXXXXXXXXXXXXXXX###############################OOOOOOOOOOOOOOOOOOOOOOOOOOOOOOO############################################################################################################################################################OOOOOOOOOOOOOOOOOOOOOOOOOOOOOOOOOOOOOOOOOOOOOOOOOOOOOOOOOOOOOOO###############################XXXXXXXXXXXXXXXXXXXXXXXXXXXXXXX################################...............................",
"...............................###############################XXXXXXXXXXXXXXXXXXXXXXXXXXXXXXXX###############################OOOOOOOOOOOOOOOOOOOOOOOOOOOOOOO############################################################################################################################################################OOOOOOOOOOOOOOOOOOOOOOOOOOOOOOOOOOOOOOOOOOOOOOOOOOOOOOOOOOOOOOO###############################XXXXXXXXXXXXXXXXXXXXXXXXXXXXXXX################################...............................",
"...............................###############################XXXXXXXXXXXXXXXXXXXXXXXXXXXXXXXX###############################OOOOOOOOOOOOOOOOOOOOOOOOOOOOOOO############################################################################################################################################################OOOOOOOOOOOOOOOOOOOOOOOOOOOOOOOOOOOOOOOOOOOOOOOOOOOOOOOOOOOOOOO###############################XXXXXXXXXXXXXXXXXXXXXXXXXXXXXXX################################...............................",
"...............................###############################XXXXXXXXXXXXXXXXXXXXXXXXXXXXXXXX###############################OOOOOOOOOOOOOOOOOOOOOOOOOOOOOOO############################################################################################################################################################OOOOOOOOOOOOOOOOOOOOOOOOOOOOOOOOOOOOOOOOOOOOOOOOOOOOOOOOOOOOOOO###############################XXXXXXXXXXXXXXXXXXXXXXXXXXXXXXX################################...............................",
"...............................###############################XXXXXXXXXXXXXXXXXXXXXXXXXXXXXXXX###############################OOOOOOOOOOOOOOOOOOOOOOOOOOOOOOO############################################################################################################################################################OOOOOOOOOOOOOOOOOOOOOOOOOOOOOOOOOOOOOOOOOOOOOOOOOOOOOOOOOOOOOOO###############################XXXXXXXXXXXXXXXXXXXXXXXXXXXXXXX################################...............................",
"...............................###############################XXXXXXXXXXXXXXXXXXXXXXXXXXXXXXXX###############################OOOOOOOOOOOOOOOOOOOOOOOOOOOOOOO############################################################################################################################################################OOOOOOOOOOOOOOOOOOOOOOOOOOOOOOOOOOOOOOOOOOOOOOOOOOOOOOOOOOOOOOO###############################XXXXXXXXXXXXXXXXXXXXXXXXXXXXXXX################################...............................",
"...............................###############################XXXXXXXXXXXXXXXXXXXXXXXXXXXXXXXX###############################OOOOOOOOOOOOOOOOOOOOOOOOOOOOOOO############################################################################################################################################################OOOOOOOOOOOOOOOOOOOOOOOOOOOOOOOOOOOOOOOOOOOOOOOOOOOOOOOOOOOOOOO###############################XXXXXXXXXXXXXXXXXXXXXXXXXXXXXXX################################...............................",
"...............................###############################XXXXXXXXXXXXXXXXXXXXXXXXXXXXXXXX###############################OOOOOOOOOOOOOOOOOOOOOOOOOOOOOOO############################################################################################################################################################OOOOOOOOOOOOOOOOOOOOOOOOOOOOOOOOOOOOOOOOOOOOOOOOOOOOOOOOOOOOOOO###############################XXXXXXXXXXXXXXXXXXXXXXXXXXXXXXX################################...............................",
"...............................###############################XXXXXXXXXXXXXXXXXXXXXXXXXXXXXXXX###############################OOOOOOOOOOOOOOOOOOOOOOOOOOOOOOO############################################################################################################################################################OOOOOOOOOOOOOOOOOOOOOOOOOOOOOOOOOOOOOOOOOOOOOOOOOOOOOOOOOOOOOOO###############################XXXXXXXXXXXXXXXXXXXXXXXXXXXXXXX################################...............................",
"...............................###############################XXXXXXXXXXXXXXXXXXXXXXXXXXXXXXXX###############################OOOOOOOOOOOOOOOOOOOOOOOOOOOOOOO############################################################################################################################################################OOOOOOOOOOOOOOOOOOOOOOOOOOOOOOOOOOOOOOOOOOOOOOOOOOOOOOOOOOOOOOO###############################XXXXXXXXXXXXXXXXXXXXXXXXXXXXXXX################################...............................",
"...............................###############################XXXXXXXXXXXXXXXXXXXXXXXXXXXXXXXX###############################OOOOOOOOOOOOOOOOOOOOOOOOOOOOOOO############################################################################################################################################################OOOOOOOOOOOOOOOOOOOOOOOOOOOOOOOOOOOOOOOOOOOOOOOOOOOOOOOOOOOOOOO###############################XXXXXXXXXXXXXXXXXXXXXXXXXXXXXXX################################...............................",
"...............................###############################XXXXXXXXXXXXXXXXXXXXXXXXXXXXXXXX###############################OOOOOOOOOOOOOOOOOOOOOOOOOOOOOOO############################################################################################################################################################OOOOOOOOOOOOOOOOOOOOOOOOOOOOOOOOOOOOOOOOOOOOOOOOOOOOOOOOOOOOOOO###############################XXXXXXXXXXXXXXXXXXXXXXXXXXXXXXX################################...............................",
"...............................$$$$$$$$$$$$$$$$$$$$$$$$$$$$$$$................................                               ###############################                                                               OOOOOOOOOOOOOOOOOOOOOOOOOOOOOOO                                                              ################################                                                              XXXXXXXXXXXXXXXXXXXXXXXXXXXXXXX$$$$$$$$$$$$$$$$$$$$$$$$$$$$$$$$XXXXXXXXXXXXXXXXXXXXXXXXXXXXXXX",
"...............................$$$$$$$$$$$$$$$$$$$$$$$$$$$$$$$................................                               ###############################                                                               OOOOOOOOOOOOOOOOOOOOOOOOOOOOOOO                                                              ################################                                                              XXXXXXXXXXXXXXXXXXXXXXXXXXXXXXX$$$$$$$$$$$$$$$$$$$$$$$$$$$$$$$$XXXXXXXXXXXXXXXXXXXXXXXXXXXXXXX",
"...............................$$$$$$$$$$$$$$$$$$$$$$$$$$$$$$$................................                               ###############################                                                               OOOOOOOOOOOOOOOOOOOOOOOOOOOOOOO                                                              ################################                                                              XXXXXXXXXXXXXXXXXXXXXXXXXXXXXXX$$$$$$$$$$$$$$$$$$$$$$$$$$$$$$$$XXXXXXXXXXXXXXXXXXXXXXXXXXXXXXX",
"...............................$$$$$$$$$$$$$$$$$$$$$$$$$$$$$$$................................                               ###############################                                                               OOOOOOOOOOOOOOOOOOOOOOOOOOOOOOO                                                              ################################                                                              XXXXXXXXXXXXXXXXXXXXXXXXXXXXXXX$$$$$$$$$$$$$$$$$$$$$$$$$$$$$$$$XXXXXXXXXXXXXXXXXXXXXXXXXXXXXXX",
"...............................$$$$$$$$$$$$$$$$$$$$$$$$$$$$$$$................................                               ###############################                                                               OOOOOOOOOOOOOOOOOOOOOOOOOOOOOOO                                                              ################################                                                              XXXXXXXXXXXXXXXXXXXXXXXXXXXXXXX$$$$$$$$$$$$$$$$$$$$$$$$$$$$$$$$XXXXXXXXXXXXXXXXXXXXXXXXXXXXXXX",
"...............................$$$$$$$$$$$$$$$$$$$$$$$$$$$$$$$................................                               ###############################                                                               OOOOOOOOOOOOOOOOOOOOOOOOOOOOOOO                                                              ################################                                                              XXXXXXXXXXXXXXXXXXXXXXXXXXXXXXX$$$$$$$$$$$$$$$$$$$$$$$$$$$$$$$$XXXXXXXXXXXXXXXXXXXXXXXXXXXXXXX",
"...............................$$$$$$$$$$$$$$$$$$$$$$$$$$$$$$$................................                               ###############################                                                               OOOOOOOOOOOOOOOOOOOOOOOOOOOOOOO                                                              ################################                                                              XXXXXXXXXXXXXXXXXXXXXXXXXXXXXXX$$$$$$$$$$$$$$$$$$$$$$$$$$$$$$$$XXXXXXXXXXXXXXXXXXXXXXXXXXXXXXX",
"...............................$$$$$$$$$$$$$$$$$$$$$$$$$$$$$$$................................                               ###############################                                                               OOOOOOOOOOOOOOOOOOOOOOOOOOOOOOO                                                              ################################                                                              XXXXXXXXXXXXXXXXXXXXXXXXXXXXXXX$$$$$$$$$$$$$$$$$$$$$$$$$$$$$$$$XXXXXXXXXXXXXXXXXXXXXXXXXXXXXXX",
"...............................$$$$$$$$$$$$$$$$$$$$$$$$$$$$$$$................................                               ###############################                                                               OOOOOOOOOOOOOOOOOOOOOOOOOOOOOOO                                                              ################################                                                              XXXXXXXXXXXXXXXXXXXXXXXXXXXXXXX$$$$$$$$$$$$$$$$$$$$$$$$$$$$$$$$XXXXXXXXXXXXXXXXXXXXXXXXXXXXXXX",
"...............................$$$$$$$$$$$$$$$$$$$$$$$$$$$$$$$................................                               ###############################                                                               OOOOOOOOOOOOOOOOOOOOOOOOOOOOOOO                                                              ################################                                                              XXXXXXXXXXXXXXXXXXXXXXXXXXXXXXX$$$$$$$$$$$$$$$$$$$$$$$$$$$$$$$$XXXXXXXXXXXXXXXXXXXXXXXXXXXXXXX",
"...............................$$$$$$$$$$$$$$$$$$$$$$$$$$$$$$$................................                               ###############################                                                               OOOOOOOOOOOOOOOOOOOOOOOOOOOOOOO                                                              ################################                                                              XXXXXXXXXXXXXXXXXXXXXXXXXXXXXXX$$$$$$$$$$$$$$$$$$$$$$$$$$$$$$$$XXXXXXXXXXXXXXXXXXXXXXXXXXXXXXX",
"...............................$$$$$$$$$$$$$$$$$$$$$$$$$$$$$$$................................                               ###############################                                                               OOOOOOOOOOOOOOOOOOOOOOOOOOOOOOO                                                              ################################                                                              XXXXXXXXXXXXXXXXXXXXXXXXXXXXXXX$$$$$$$$$$$$$$$$$$$$$$$$$$$$$$$$XXXXXXXXXXXXXXXXXXXXXXXXXXXXXXX",
"...............................$$$$$$$$$$$$$$$$$$$$$$$$$$$$$$$................................                               ###############################                                                               OOOOOOOOOOOOOOOOOOOOOOOOOOOOOOO                                                              ################################                                                              XXXXXXXXXXXXXXXXXXXXXXXXXXXXXXX$$$$$$$$$$$$$$$$$$$$$$$$$$$$$$$$XXXXXXXXXXXXXXXXXXXXXXXXXXXXXXX",
"...............................$$$$$$$$$$$$$$$$$$$$$$$$$$$$$$$................................                               ###############################                                                               OOOOOOOOOOOOOOOOOOOOOOOOOOOOOOO                                                              ################################                                                              XXXXXXXXXXXXXXXXXXXXXXXXXXXXXXX$$$$$$$$$$$$$$$$$$$$$$$$$$$$$$$$XXXXXXXXXXXXXXXXXXXXXXXXXXXXXXX",
"...............................$$$$$$$$$$$$$$$$$$$$$$$$$$$$$$$................................                               ###############################                                                               OOOOOOOOOOOOOOOOOOOOOOOOOOOOOOO                                                              ################################                                                              XXXXXXXXXXXXXXXXXXXXXXXXXXXXXXX$$$$$$$$$$$$$$$$$$$$$$$$$$$$$$$$XXXXXXXXXXXXXXXXXXXXXXXXXXXXXXX",
"...............................$$$$$$$$$$$$$$$$$$$$$$$$$$$$$$$................................                               ###############################                                                               OOOOOOOOOOOOOOOOOOOOOOOOOOOOOOO                                                              ################################                                                              XXXXXXXXXXXXXXXXXXXXXXXXXXXXXXX$$$$$$$$$$$$$$$$$$$$$$$$$$$$$$$$XXXXXXXXXXXXXXXXXXXXXXXXXXXXXXX",
"...............................$$$$$$$$$$$$$$$$$$$$$$$$$$$$$$$................................                               ###############################                                                               OOOOOOOOOOOOOOOOOOOOOOOOOOOOOOO                                                              ################################                                                              XXXXXXXXXXXXXXXXXXXXXXXXXXXXXXX$$$$$$$$$$$$$$$$$$$$$$$$$$$$$$$$XXXXXXXXXXXXXXXXXXXXXXXXXXXXXXX",
"...............................$$$$$$$$$$$$$$$$$$$$$$$$$$$$$$$................................                               ###############################                                                               OOOOOOOOOOOOOOOOOOOOOOOOOOOOOOO                                                              ################################                                                              XXXXXXXXXXXXXXXXXXXXXXXXXXXXXXX$$$$$$$$$$$$$$$$$$$$$$$$$$$$$$$$XXXXXXXXXXXXXXXXXXXXXXXXXXXXXXX",
"...............................$$$$$$$$$$$$$$$$$$$$$$$$$$$$$$$................................                               ###############################                                                               OOOOOOOOOOOOOOOOOOOOOOOOOOOOOOO                                                              ################################                                                              XXXXXXXXXXXXXXXXXXXXXXXXXXXXXXX$$$$$$$$$$$$$$$$$$$$$$$$$$$$$$$$XXXXXXXXXXXXXXXXXXXXXXXXXXXXXXX",
"...............................$$$$$$$$$$$$$$$$$$$$$$$$$$$$$$$................................                               ###############################                                                               OOOOOOOOOOOOOOOOOOOOOOOOOOOOOOO                                                              ################################                                                              XXXXXXXXXXXXXXXXXXXXXXXXXXXXXXX$$$$$$$$$$$$$$$$$$$$$$$$$$$$$$$$XXXXXXXXXXXXXXXXXXXXXXXXXXXXXXX",
"...............................$$$$$$$$$$$$$$$$$$$$$$$$$$$$$$$................................                               ###############################                                                               OOOOOOOOOOOOOOOOOOOOOOOOOOOOOOO                                                              ################################                                                              XXXXXXXXXXXXXXXXXXXXXXXXXXXXXXX$$$$$$$$$$$$$$$$$$$$$$$$$$$$$$$$XXXXXXXXXXXXXXXXXXXXXXXXXXXXXXX",
"...............................$$$$$$$$$$$$$$$$$$$$$$$$$$$$$$$................................                               ###############################                                                               OOOOOOOOOOOOOOOOOOOOOOOOOOOOOOO                                                              ################################                                                              XXXXXXXXXXXXXXXXXXXXXXXXXXXXXXX$$$$$$$$$$$$$$$$$$$$$$$$$$$$$$$$XXXXXXXXXXXXXXXXXXXXXXXXXXXXXXX",
"...............................$$$$$$$$$$$$$$$$$$$$$$$$$$$$$$$................................                               ###############################                                                               OOOOOOOOOOOOOOOOOOOOOOOOOOOOOOO                                                              ################################                                                              XXXXXXXXXXXXXXXXXXXXXXXXXXXXXXX$$$$$$$$$$$$$$$$$$$$$$$$$$$$$$$$XXXXXXXXXXXXXXXXXXXXXXXXXXXXXXX",
"...............................$$$$$$$$$$$$$$$$$$$$$$$$$$$$$$$................................                               ###############################                                                               OOOOOOOOOOOOOOOOOOOOOOOOOOOOOOO                                                              ################################                                                              XXXXXXXXXXXXXXXXXXXXXXXXXXXXXXX$$$$$$$$$$$$$$$$$$$$$$$$$$$$$$$$XXXXXXXXXXXXXXXXXXXXXXXXXXXXXXX",
"...............................$$$$$$$$$$$$$$$$$$$$$$$$$$$$$$$................................                               ###############################                                                               OOOOOOOOOOOOOOOOOOOOOOOOOOOOOOO                                                              ################################                                                              XXXXXXXXXXXXXXXXXXXXXXXXXXXXXXX$$$$$$$$$$$$$$$$$$$$$$$$$$$$$$$$XXXXXXXXXXXXXXXXXXXXXXXXXXXXXXX",
"...............................$$$$$$$$$$$$$$$$$$$$$$$$$$$$$$$................................                               ###############################                                                               OOOOOOOOOOOOOOOOOOOOOOOOOOOOOOO                                                              ################################                                                              XXXXXXXXXXXXXXXXXXXXXXXXXXXXXXX$$$$$$$$$$$$$$$$$$$$$$$$$$$$$$$$XXXXXXXXXXXXXXXXXXXXXXXXXXXXXXX",
"...............................$$$$$$$$$$$$$$$$$$$$$$$$$$$$$$$................................                               ###############################                                                               OOOOOOOOOOOOOOOOOOOOOOOOOOOOOOO                                                              ################################                                                              XXXXXXXXXXXXXXXXXXXXXXXXXXXXXXX$$$$$$$$$$$$$$$$$$$$$$$$$$$$$$$$XXXXXXXXXXXXXXXXXXXXXXXXXXXXXXX",
"...............................$$$$$$$$$$$$$$$$$$$$$$$$$$$$$$$................................                               ###############################                                                               OOOOOOOOOOOOOOOOOOOOOOOOOOOOOOO                                                              ################################                                                              XXXXXXXXXXXXXXXXXXXXXXXXXXXXXXX$$$$$$$$$$$$$$$$$$$$$$$$$$$$$$$$XXXXXXXXXXXXXXXXXXXXXXXXXXXXXXX",
"...............................$$$$$$$$$$$$$$$$$$$$$$$$$$$$$$$................................                               ###############################                                                               OOOOOOOOOOOOOOOOOOOOOOOOOOOOOOO                                                              ################################                                                              XXXXXXXXXXXXXXXXXXXXXXXXXXXXXXX$$$$$$$$$$$$$$$$$$$$$$$$$$$$$$$$XXXXXXXXXXXXXXXXXXXXXXXXXXXXXXX",
"...............................$$$$$$$$$$$$$$$$$$$$$$$$$$$$$$$................................                               ###############################                                                               OOOOOOOOOOOOOOOOOOOOOOOOOOOOOOO                                                              ################################                                                              XXXXXXXXXXXXXXXXXXXXXXXXXXXXXXX$$$$$$$$$$$$$$$$$$$$$$$$$$$$$$$$XXXXXXXXXXXXXXXXXXXXXXXXXXXXXXX",
"...............................$$$$$$$$$$$$$$$$$$$$$$$$$$$$$$$................................                               ###############################                                                               OOOOOOOOOOOOOOOOOOOOOOOOOOOOOOO                                                              ################################                                                              XXXXXXXXXXXXXXXXXXXXXXXXXXXXXXX$$$$$$$$$$$$$$$$$$$$$$$$$$$$$$$$XXXXXXXXXXXXXXXXXXXXXXXXXXXXXXX",
"ooooooooooooooooooooooooooooooo%%%%%%%%%%%%%%%%%%%%%%%%%%%%%%%................................###############################OOOOOOOOOOOOOOOOOOOOOOOOOOOOOOOOOOOOOOOOOOOOOOOOOOOOOOOOOOOOOOOOOOOOOOOOOOOOOOOOOOOOOOOOOOOOOOOOOOOOOOOOOOOOOOOOOOOOOOOOOOOOO##############################################################################################OOOOOOOOOOOOOOOOOOOOOOOOOOOOOOO###############################ooooooooooooooooooooooooooooooo%%%%%%%%%%%%%%%%%%%%%%%%%%%%%%%%ooooooooooooooooooooooooooooooo",
"ooooooooooooooooooooooooooooooo%%%%%%%%%%%%%%%%%%%%%%%%%%%%%%%................................###############################OOOOOOOOOOOOOOOOOOOOOOOOOOOOOOOOOOOOOOOOOOOOOOOOOOOOOOOOOOOOOOOOOOOOOOOOOOOOOOOOOOOOOOOOOOOOOOOOOOOOOOOOOOOOOOOOOOOOOOOOOOOOO##############################################################################################OOOOOOOOOOOOOOOOOOOOOOOOOOOOOOO###############################ooooooooooooooooooooooooooooooo%%%%%%%%%%%%%%%%%%%%%%%%%%%%%%%%ooooooooooooooooooooooooooooooo",
"ooooooooooooooooooooooooooooooo%%%%%%%%%%%%%%%%%%%%%%%%%%%%%%%................................###############################OOOOOOOOOOOOOOOOOOOOOOOOOOOOOOOOOOOOOOOOOOOOOOOOOOOOOOOOOOOOOOOOOOOOOOOOOOOOOOOOOOOOOOOOOOOOOOOOOOOOOOOOOOOOOOOOOOOOOOOOOOOOO##############################################################################################OOOOOOOOOOOOOOOOOOOOOOOOOOOOOOO###############################ooooooooooooooooooooooooooooooo%%%%%%%%%%%%%%%%%%%%%%%%%%%%%%%%ooooooooooooooooooooooooooooooo",
"ooooooooooooooooooooooooooooooo%%%%%%%%%%%%%%%%%%%%%%%%%%%%%%%................................###############################OOOOOOOOOOOOOOOOOOOOOOOOOOOOOOOOOOOOOOOOOOOOOOOOOOOOOOOOOOOOOOOOOOOOOOOOOOOOOOOOOOOOOOOOOOOOOOOOOOOOOOOOOOOOOOOOOOOOOOOOOOOOO##############################################################################################OOOOOOOOOOOOOOOOOOOOOOOOOOOOOOO###############################ooooooooooooooooooooooooooooooo%%%%%%%%%%%%%%%%%%%%%%%%%%%%%%%%ooooooooooooooooooooooooooooooo",
"ooooooooooooooooooooooooooooooo%%%%%%%%%%%%%%%%%%%%%%%%%%%%%%%................................###############################OOOOOOOOOOOOOOOOOOOOOOOOOOOOOOOOOOOOOOOOOOOOOOOOOOOOOOOOOOOOOOOOOOOOOOOOOOOOOOOOOOOOOOOOOOOOOOOOOOOOOOOOOOOOOOOOOOOOOOOOOOOOO##############################################################################################OOOOOOOOOOOOOOOOOOOOOOOOOOOOOOO###############################ooooooooooooooooooooooooooooooo%%%%%%%%%%%%%%%%%%%%%%%%%%%%%%%%ooooooooooooooooooooooooooooooo",
"ooooooooooooooooooooooooooooooo%%%%%%%%%%%%%%%%%%%%%%%%%%%%%%%................................###############################OOOOOOOOOOOOOOOOOOOOOOOOOOOOOOOOOOOOOOOOOOOOOOOOOOOOOOOOOOOOOOOOOOOOOOOOOOOOOOOOOOOOOOOOOOOOOOOOOOOOOOOOOOOOOOOOOOOOOOOOOOOOO##############################################################################################OOOOOOOOOOOOOOOOOOOOOOOOOOOOOOO###############################ooooooooooooooooooooooooooooooo%%%%%%%%%%%%%%%%%%%%%%%%%%%%%%%%ooooooooooooooooooooooooooooooo",
"ooooooooooooooooooooooooooooooo%%%%%%%%%%%%%%%%%%%%%%%%%%%%%%%................................###############################OOOOOOOOOOOOOOOOOOOOOOOOOOOOOOOOOOOOOOOOOOOOOOOOOOOOOOOOOOOOOOOOOOOOOOOOOOOOOOOOOOOOOOOOOOOOOOOOOOOOOOOOOOOOOOOOOOOOOOOOOOOOO##############################################################################################OOOOOOOOOOOOOOOOOOOOOOOOOOOOOOO###############################ooooooooooooooooooooooooooooooo%%%%%%%%%%%%%%%%%%%%%%%%%%%%%%%%ooooooooooooooooooooooooooooooo",
"ooooooooooooooooooooooooooooooo%%%%%%%%%%%%%%%%%%%%%%%%%%%%%%%................................###############################OOOOOOOOOOOOOOOOOOOOOOOOOOOOOOOOOOOOOOOOOOOOOOOOOOOOOOOOOOOOOOOOOOOOOOOOOOOOOOOOOOOOOOOOOOOOOOOOOOOOOOOOOOOOOOOOOOOOOOOOOOOOO##############################################################################################OOOOOOOOOOOOOOOOOOOOOOOOOOOOOOO###############################ooooooooooooooooooooooooooooooo%%%%%%%%%%%%%%%%%%%%%%%%%%%%%%%%ooooooooooooooooooooooooooooooo",
"ooooooooooooooooooooooooooooooo%%%%%%%%%%%%%%%%%%%%%%%%%%%%%%%................................###############################OOOOOOOOOOOOOOOOOOOOOOOOOOOOOOOOOOOOOOOOOOOOOOOOOOOOOOOOOOOOOOOOOOOOOOOOOOOOOOOOOOOOOOOOOOOOOOOOOOOOOOOOOOOOOOOOOOOOOOOOOOOOO##############################################################################################OOOOOOOOOOOOOOOOOOOOOOOOOOOOOOO###############################ooooooooooooooooooooooooooooooo%%%%%%%%%%%%%%%%%%%%%%%%%%%%%%%%ooooooooooooooooooooooooooooooo",
"ooooooooooooooooooooooooooooooo%%%%%%%%%%%%%%%%%%%%%%%%%%%%%%%................................###############################OOOOOOOOOOOOOOOOOOOOOOOOOOOOOOOOOOOOOOOOOOOOOOOOOOOOOOOOOOOOOOOOOOOOOOOOOOOOOOOOOOOOOOOOOOOOOOOOOOOOOOOOOOOOOOOOOOOOOOOOOOOOO##############################################################################################OOOOOOOOOOOOOOOOOOOOOOOOOOOOOOO###############################ooooooooooooooooooooooooooooooo%%%%%%%%%%%%%%%%%%%%%%%%%%%%%%%%ooooooooooooooooooooooooooooooo",
"ooooooooooooooooooooooooooooooo%%%%%%%%%%%%%%%%%%%%%%%%%%%%%%%................................###############################OOOOOOOOOOOOOOOOOOOOOOOOOOOOOOOOOOOOOOOOOOOOOOOOOOOOOOOOOOOOOOOOOOOOOOOOOOOOOOOOOOOOOOOOOOOOOOOOOOOOOOOOOOOOOOOOOOOOOOOOOOOOO##############################################################################################OOOOOOOOOOOOOOOOOOOOOOOOOOOOOOO###############################ooooooooooooooooooooooooooooooo%%%%%%%%%%%%%%%%%%%%%%%%%%%%%%%%ooooooooooooooooooooooooooooooo",
"ooooooooooooooooooooooooooooooo%%%%%%%%%%%%%%%%%%%%%%%%%%%%%%%................................###############################OOOOOOOOOOOOOOOOOOOOOOOOOOOOOOOOOOOOOOOOOOOOOOOOOOOOOOOOOOOOOOOOOOOOOOOOOOOOOOOOOOOOOOOOOOOOOOOOOOOOOOOOOOOOOOOOOOOOOOOOOOOOO##############################################################################################OOOOOOOOOOOOOOOOOOOOOOOOOOOOOOO###############################ooooooooooooooooooooooooooooooo%%%%%%%%%%%%%%%%%%%%%%%%%%%%%%%%ooooooooooooooooooooooooooooooo",
"ooooooooooooooooooooooooooooooo%%%%%%%%%%%%%%%%%%%%%%%%%%%%%%%................................###############################OOOOOOOOOOOOOOOOOOOOOOOOOOOOOOOOOOOOOOOOOOOOOOOOOOOOOOOOOOOOOOOOOOOOOOOOOOOOOOOOOOOOOOOOOOOOOOOOOOOOOOOOOOOOOOOOOOOOOOOOOOOOO##############################################################################################OOOOOOOOOOOOOOOOOOOOOOOOOOOOOOO###############################ooooooooooooooooooooooooooooooo%%%%%%%%%%%%%%%%%%%%%%%%%%%%%%%%ooooooooooooooooooooooooooooooo",
"ooooooooooooooooooooooooooooooo%%%%%%%%%%%%%%%%%%%%%%%%%%%%%%%................................###############################OOOOOOOOOOOOOOOOOOOOOOOOOOOOOOOOOOOOOOOOOOOOOOOOOOOOOOOOOOOOOOOOOOOOOOOOOOOOOOOOOOOOOOOOOOOOOOOOOOOOOOOOOOOOOOOOOOOOOOOOOOOOO##############################################################################################OOOOOOOOOOOOOOOOOOOOOOOOOOOOOOO###############################ooooooooooooooooooooooooooooooo%%%%%%%%%%%%%%%%%%%%%%%%%%%%%%%%ooooooooooooooooooooooooooooooo",
"ooooooooooooooooooooooooooooooo%%%%%%%%%%%%%%%%%%%%%%%%%%%%%%%................................###############################OOOOOOOOOOOOOOOOOOOOOOOOOOOOOOOOOOOOOOOOOOOOOOOOOOOOOOOOOOOOOOOOOOOOOOOOOOOOOOOOOOOOOOOOOOOOOOOOOOOOOOOOOOOOOOOOOOOOOOOOOOOOO##############################################################################################OOOOOOOOOOOOOOOOOOOOOOOOOOOOOOO###############################ooooooooooooooooooooooooooooooo%%%%%%%%%%%%%%%%%%%%%%%%%%%%%%%%ooooooooooooooooooooooooooooooo",
"ooooooooooooooooooooooooooooooo%%%%%%%%%%%%%%%%%%%%%%%%%%%%%%%................................###############################OOOOOOOOOOOOOOOOOOOOOOOOOOOOOOOOOOOOOOOOOOOOOOOOOOOOOOOOOOOOOOOOOOOOOOOOOOOOOOOOOOOOOOOOOOOOOOOOOOOOOOOOOOOOOOOOOOOOOOOOOOOOO##############################################################################################OOOOOOOOOOOOOOOOOOOOOOOOOOOOOOO###############################ooooooooooooooooooooooooooooooo%%%%%%%%%%%%%%%%%%%%%%%%%%%%%%%%ooooooooooooooooooooooooooooooo",
"ooooooooooooooooooooooooooooooo%%%%%%%%%%%%%%%%%%%%%%%%%%%%%%%................................###############################OOOOOOOOOOOOOOOOOOOOOOOOOOOOOOOOOOOOOOOOOOOOOOOOOOOOOOOOOOOOOOOOOOOOOOOOOOOOOOOOOOOOOOOOOOOOOOOOOOOOOOOOOOOOOOOOOOOOOOOOOOOOO##############################################################################################OOOOOOOOOOOOOOOOOOOOOOOOOOOOOOO###############################ooooooooooooooooooooooooooooooo%%%%%%%%%%%%%%%%%%%%%%%%%%%%%%%%ooooooooooooooooooooooooooooooo",
"ooooooooooooooooooooooooooooooo%%%%%%%%%%%%%%%%%%%%%%%%%%%%%%%................................###############################OOOOOOOOOOOOOOOOOOOOOOOOOOOOOOOOOOOOOOOOOOOOOOOOOOOOOOOOOOOOOOOOOOOOOOOOOOOOOOOOOOOOOOOOOOOOOOOOOOOOOOOOOOOOOOOOOOOOOOOOOOOOO##############################################################################################OOOOOOOOOOOOOOOOOOOOOOOOOOOOOOO###############################ooooooooooooooooooooooooooooooo%%%%%%%%%%%%%%%%%%%%%%%%%%%%%%%%ooooooooooooooooooooooooooooooo",
"ooooooooooooooooooooooooooooooo%%%%%%%%%%%%%%%%%%%%%%%%%%%%%%%................................###############################OOOOOOOOOOOOOOOOOOOOOOOOOOOOOOOOOOOOOOOOOOOOOOOOOOOOOOOOOOOOOOOOOOOOOOOOOOOOOOOOOOOOOOOOOOOOOOOOOOOOOOOOOOOOOOOOOOOOOOOOOOOOO##############################################################################################OOOOOOOOOOOOOOOOOOOOOOOOOOOOOOO###############################ooooooooooooooooooooooooooooooo%%%%%%%%%%%%%%%%%%%%%%%%%%%%%%%%ooooooooooooooooooooooooooooooo",
"ooooooooooooooooooooooooooooooo%%%%%%%%%%%%%%%%%%%%%%%%%%%%%%%................................###############################OOOOOOOOOOOOOOOOOOOOOOOOOOOOOOOOOOOOOOOOOOOOOOOOOOOOOOOOOOOOOOOOOOOOOOOOOOOOOOOOOOOOOOOOOOOOOOOOOOOOOOOOOOOOOOOOOOOOOOOOOOOOO##############################################################################################OOOOOOOOOOOOOOOOOOOOOOOOOOOOOOO###############################ooooooooooooooooooooooooooooooo%%%%%%%%%%%%%%%%%%%%%%%%%%%%%%%%ooooooooooooooooooooooooooooooo",
"ooooooooooooooooooooooooooooooo%%%%%%%%%%%%%%%%%%%%%%%%%%%%%%%................................###############################OOOOOOOOOOOOOOOOOOOOOOOOOOOOOOOOOOOOOOOOOOOOOOOOOOOOOOOOOOOOOOOOOOOOOOOOOOOOOOOOOOOOOOOOOOOOOOOOOOOOOOOOOOOOOOOOOOOOOOOOOOOOO##############################################################################################OOOOOOOOOOOOOOOOOOOOOOOOOOOOOOO###############################ooooooooooooooooooooooooooooooo%%%%%%%%%%%%%%%%%%%%%%%%%%%%%%%%ooooooooooooooooooooooooooooooo",
"ooooooooooooooooooooooooooooooo%%%%%%%%%%%%%%%%%%%%%%%%%%%%%%%................................###############################OOOOOOOOOOOOOOOOOOOOOOOOOOOOOOOOOOOOOOOOOOOOOOOOOOOOOOOOOOOOOOOOOOOOOOOOOOOOOOOOOOOOOOOOOOOOOOOOOOOOOOOOOOOOOOOOOOOOOOOOOOOOO##############################################################################################OOOOOOOOOOOOOOOOOOOOOOOOOOOOOOO###############################ooooooooooooooooooooooooooooooo%%%%%%%%%%%%%%%%%%%%%%%%%%%%%%%%ooooooooooooooooooooooooooooooo",
"ooooooooooooooooooooooooooooooo%%%%%%%%%%%%%%%%%%%%%%%%%%%%%%%................................###############################OOOOOOOOOOOOOOOOOOOOOOOOOOOOOOOOOOOOOOOOOOOOOOOOOOOOOOOOOOOOOOOOOOOOOOOOOOOOOOOOOOOOOOOOOOOOOOOOOOOOOOOOOOOOOOOOOOOOOOOOOOOOO##############################################################################################OOOOOOOOOOOOOOOOOOOOOOOOOOOOOOO###############################ooooooooooooooooooooooooooooooo%%%%%%%%%%%%%%%%%%%%%%%%%%%%%%%%ooooooooooooooooooooooooooooooo",
"ooooooooooooooooooooooooooooooo%%%%%%%%%%%%%%%%%%%%%%%%%%%%%%%................................###############################OOOOOOOOOOOOOOOOOOOOOOOOOOOOOOOOOOOOOOOOOOOOOOOOOOOOOOOOOOOOOOOOOOOOOOOOOOOOOOOOOOOOOOOOOOOOOOOOOOOOOOOOOOOOOOOOOOOOOOOOOOOOO##############################################################################################OOOOOOOOOOOOOOOOOOOOOOOOOOOOOOO###############################ooooooooooooooooooooooooooooooo%%%%%%%%%%%%%%%%%%%%%%%%%%%%%%%%ooooooooooooooooooooooooooooooo",
"ooooooooooooooooooooooooooooooo%%%%%%%%%%%%%%%%%%%%%%%%%%%%%%%................................###############################OOOOOOOOOOOOOOOOOOOOOOOOOOOOOOOOOOOOOOOOOOOOOOOOOOOOOOOOOOOOOOOOOOOOOOOOOOOOOOOOOOOOOOOOOOOOOOOOOOOOOOOOOOOOOOOOOOOOOOOOOOOOO##############################################################################################OOOOOOOOOOOOOOOOOOOOOOOOOOOOOOO###############################ooooooooooooooooooooooooooooooo%%%%%%%%%%%%%%%%%%%%%%%%%%%%%%%%ooooooooooooooooooooooooooooooo",
"ooooooooooooooooooooooooooooooo%%%%%%%%%%%%%%%%%%%%%%%%%%%%%%%................................###############################OOOOOOOOOOOOOOOOOOOOOOOOOOOOOOOOOOOOOOOOOOOOOOOOOOOOOOOOOOOOOOOOOOOOOOOOOOOOOOOOOOOOOOOOOOOOOOOOOOOOOOOOOOOOOOOOOOOOOOOOOOOOO##############################################################################################OOOOOOOOOOOOOOOOOOOOOOOOOOOOOOO###############################ooooooooooooooooooooooooooooooo%%%%%%%%%%%%%%%%%%%%%%%%%%%%%%%%ooooooooooooooooooooooooooooooo",
"ooooooooooooooooooooooooooooooo%%%%%%%%%%%%%%%%%%%%%%%%%%%%%%%................................###############################OOOOOOOOOOOOOOOOOOOOOOOOOOOOOOOOOOOOOOOOOOOOOOOOOOOOOOOOOOOOOOOOOOOOOOOOOOOOOOOOOOOOOOOOOOOOOOOOOOOOOOOOOOOOOOOOOOOOOOOOOOOOO##############################################################################################OOOOOOOOOOOOOOOOOOOOOOOOOOOOOOO###############################ooooooooooooooooooooooooooooooo%%%%%%%%%%%%%%%%%%%%%%%%%%%%%%%%ooooooooooooooooooooooooooooooo",
"ooooooooooooooooooooooooooooooo%%%%%%%%%%%%%%%%%%%%%%%%%%%%%%%................................###############################OOOOOOOOOOOOOOOOOOOOOOOOOOOOOOOOOOOOOOOOOOOOOOOOOOOOOOOOOOOOOOOOOOOOOOOOOOOOOOOOOOOOOOOOOOOOOOOOOOOOOOOOOOOOOOOOOOOOOOOOOOOOO##############################################################################################OOOOOOOOOOOOOOOOOOOOOOOOOOOOOOO###############################ooooooooooooooooooooooooooooooo%%%%%%%%%%%%%%%%%%%%%%%%%%%%%%%%ooooooooooooooooooooooooooooooo",
"ooooooooooooooooooooooooooooooo%%%%%%%%%%%%%%%%%%%%%%%%%%%%%%%................................###############################OOOOOOOOOOOOOOOOOOOOOOOOOOOOOOOOOOOOOOOOOOOOOOOOOOOOOOOOOOOOOOOOOOOOOOOOOOOOOOOOOOOOOOOOOOOOOOOOOOOOOOOOOOOOOOOOOOOOOOOOOOOOO##############################################################################################OOOOOOOOOOOOOOOOOOOOOOOOOOOOOOO###############################ooooooooooooooooooooooooooooooo%%%%%%%%%%%%%%%%%%%%%%%%%%%%%%%%ooooooooooooooooooooooooooooooo",
"ooooooooooooooooooooooooooooooo%%%%%%%%%%%%%%%%%%%%%%%%%%%%%%%................................###############################OOOOOOOOOOOOOOOOOOOOOOOOOOOOOOOOOOOOOOOOOOOOOOOOOOOOOOOOOOOOOOOOOOOOOOOOOOOOOOOOOOOOOOOOOOOOOOOOOOOOOOOOOOOOOOOOOOOOOOOOOOOOO##############################################################################################OOOOOOOOOOOOOOOOOOOOOOOOOOOOOOO###############################ooooooooooooooooooooooooooooooo%%%%%%%%%%%%%%%%%%%%%%%%%%%%%%%%ooooooooooooooooooooooooooooooo",
"ooooooooooooooooooooooooooooooo%%%%%%%%%%%%%%%%%%%%%%%%%%%%%%%................................###############################OOOOOOOOOOOOOOOOOOOOOOOOOOOOOOOOOOOOOOOOOOOOOOOOOOOOOOOOOOOOOOOOOOOOOOOOOOOOOOOOOOOOOOOOOOOOOOOOOOOOOOOOOOOOOOOOOOOOOOOOOOOOO##############################################################################################OOOOOOOOOOOOOOOOOOOOOOOOOOOOOOO###############################ooooooooooooooooooooooooooooooo%%%%%%%%%%%%%%%%%%%%%%%%%%%%%%%%ooooooooooooooooooooooooooooooo",
"ooooooooooooooooooooooooooooooo%%%%%%%%%%%%%%%%%%%%%%%%%%%%%%%................................###############################OOOOOOOOOOOOOOOOOOOOOOOOOOOOOOOOOOOOOOOOOOOOOOOOOOOOOOOOOOOOOOOOOOOOOOOOOOOOOOOOOOOOOOOOOOOOOOOOOOOOOOOOOOOOOOOOOOOOOOOOOOOOO##############################################################################################OOOOOOOOOOOOOOOOOOOOOOOOOOOOOOO###############################ooooooooooooooooooooooooooooooo%%%%%%%%%%%%%%%%%%%%%%%%%%%%%%%%ooooooooooooooooooooooooooooooo",
"XXXXXXXXXXXXXXXXXXXXXXXXXXXXXXX###############################oooooooooooooooooooooooooooooooo                               ###############################                               OOOOOOOOOOOOOOOOOOOOOOOOOOOOOOOO                                                              ###############################                                OOOOOOOOOOOOOOOOOOOOOOOOOOOOOOO                               ...............................################################...............................",
"XXXXXXXXXXXXXXXXXXXXXXXXXXXXXXX###############################oooooooooooooooooooooooooooooooo                               ###############################                               OOOOOOOOOOOOOOOOOOOOOOOOOOOOOOOO                                                              ###############################                                OOOOOOOOOOOOOOOOOOOOOOOOOOOOOOO                               ...............................################################...............................",
"XXXXXXXXXXXXXXXXXXXXXXXXXXXXXXX###############################oooooooooooooooooooooooooooooooo                               ###############################                               OOOOOOOOOOOOOOOOOOOOOOOOOOOOOOOO                                                              ###############################                                OOOOOOOOOOOOOOOOOOOOOOOOOOOOOOO                               ...............................################################...............................",
"XXXXXXXXXXXXXXXXXXXXXXXXXXXXXXX###############################oooooooooooooooooooooooooooooooo                               ###############################                               OOOOOOOOOOOOOOOOOOOOOOOOOOOOOOOO                                                              ###############################                                OOOOOOOOOOOOOOOOOOOOOOOOOOOOOOO                               ...............................################################...............................",
"XXXXXXXXXXXXXXXXXXXXXXXXXXXXXXX###############################oooooooooooooooooooooooooooooooo                               ###############################                               OOOOOOOOOOOOOOOOOOOOOOOOOOOOOOOO                                                              ###############################                                OOOOOOOOOOOOOOOOOOOOOOOOOOOOOOO                               ...............................################################...............................",
"XXXXXXXXXXXXXXXXXXXXXXXXXXXXXXX###############################oooooooooooooooooooooooooooooooo                               ###############################                               OOOOOOOOOOOOOOOOOOOOOOOOOOOOOOOO                                                              ###############################                                OOOOOOOOOOOOOOOOOOOOOOOOOOOOOOO                               ...............................################################...............................",
"XXXXXXXXXXXXXXXXXXXXXXXXXXXXXXX###############################oooooooooooooooooooooooooooooooo                               ###############################                               OOOOOOOOOOOOOOOOOOOOOOOOOOOOOOOO                                                              ###############################                                OOOOOOOOOOOOOOOOOOOOOOOOOOOOOOO                               ...............................################################...............................",
"XXXXXXXXXXXXXXXXXXXXXXXXXXXXXXX###############################oooooooooooooooooooooooooooooooo                               ###############################                               OOOOOOOOOOOOOOOOOOOOOOOOOOOOOOOO                                                              ###############################                                OOOOOOOOOOOOOOOOOOOOOOOOOOOOOOO                               ...............................################################...............................",
"XXXXXXXXXXXXXXXXXXXXXXXXXXXXXXX###############################oooooooooooooooooooooooooooooooo                               ###############################                               OOOOOOOOOOOOOOOOOOOOOOOOOOOOOOOO                                                              ###############################                                OOOOOOOOOOOOOOOOOOOOOOOOOOOOOOO                               ...............................################################...............................",
"XXXXXXXXXXXXXXXXXXXXXXXXXXXXXXX###############################oooooooooooooooooooooooooooooooo                               ###############################                               OOOOOOOOOOOOOOOOOOOOOOOOOOOOOOOO                                                              ###############################                                OOOOOOOOOOOOOOOOOOOOOOOOOOOOOOO                               ...............................################################...............................",
"XXXXXXXXXXXXXXXXXXXXXXXXXXXXXXX###############################oooooooooooooooooooooooooooooooo                               ###############################                               OOOOOOOOOOOOOOOOOOOOOOOOOOOOOOOO                                                              ###############################                                OOOOOOOOOOOOOOOOOOOOOOOOOOOOOOO                               ...............................################################...............................",
"XXXXXXXXXXXXXXXXXXXXXXXXXXXXXXX###############################oooooooooooooooooooooooooooooooo                               ###############################                               OOOOOOOOOOOOOOOOOOOOOOOOOOOOOOOO                                                              ###############################                                OOOOOOOOOOOOOOOOOOOOOOOOOOOOOOO                               ...............................################################...............................",
"XXXXXXXXXXXXXXXXXXXXXXXXXXXXXXX###############################oooooooooooooooooooooooooooooooo                               ###############################                               OOOOOOOOOOOOOOOOOOOOOOOOOOOOOOOO                                                              ###############################                                OOOOOOOOOOOOOOOOOOOOOOOOOOOOOOO                               ...............................################################...............................",
"XXXXXXXXXXXXXXXXXXXXXXXXXXXXXXX###############################oooooooooooooooooooooooooooooooo                               ###############################                               OOOOOOOOOOOOOOOOOOOOOOOOOOOOOOOO                                                              ###############################                                OOOOOOOOOOOOOOOOOOOOOOOOOOOOOOO                               ...............................################################...............................",
"XXXXXXXXXXXXXXXXXXXXXXXXXXXXXXX###############################oooooooooooooooooooooooooooooooo                               ###############################                               OOOOOOOOOOOOOOOOOOOOOOOOOOOOOOOO                                                              ###############################                                OOOOOOOOOOOOOOOOOOOOOOOOOOOOOOO                               ...............................################################...............................",
"XXXXXXXXXXXXXXXXXXXXXXXXXXXXXXX###############################oooooooooooooooooooooooooooooooo                               ###############################                               OOOOOOOOOOOOOOOOOOOOOOOOOOOOOOOO                                                              ###############################                                OOOOOOOOOOOOOOOOOOOOOOOOOOOOOOO                               ...............................################################...............................",
"XXXXXXXXXXXXXXXXXXXXXXXXXXXXXXX###############################oooooooooooooooooooooooooooooooo                               ###############################                               OOOOOOOOOOOOOOOOOOOOOOOOOOOOOOOO                                                              ###############################                                OOOOOOOOOOOOOOOOOOOOOOOOOOOOOOO                               ...............................################################...............................",
"XXXXXXXXXXXXXXXXXXXXXXXXXXXXXXX###############################oooooooooooooooooooooooooooooooo                               ###############################                               OOOOOOOOOOOOOOOOOOOOOOOOOOOOOOOO                                                              ###############################                                OOOOOOOOOOOOOOOOOOOOOOOOOOOOOOO                               ...............................################################...............................",
"XXXXXXXXXXXXXXXXXXXXXXXXXXXXXXX###############################oooooooooooooooooooooooooooooooo                               ###############################                               OOOOOOOOOOOOOOOOOOOOOOOOOOOOOOOO                                                              ###############################                                OOOOOOOOOOOOOOOOOOOOOOOOOOOOOOO                               ...............................################################...............................",
"XXXXXXXXXXXXXXXXXXXXXXXXXXXXXXX###############################oooooooooooooooooooooooooooooooo                               ###############################                               OOOOOOOOOOOOOOOOOOOOOOOOOOOOOOOO                                                              ###############################                                OOOOOOOOOOOOOOOOOOOOOOOOOOOOOOO                               ...............................################################...............................",
"XXXXXXXXXXXXXXXXXXXXXXXXXXXXXXX###############################oooooooooooooooooooooooooooooooo                               ###############################                               OOOOOOOOOOOOOOOOOOOOOOOOOOOOOOOO                                                              ###############################                                OOOOOOOOOOOOOOOOOOOOOOOOOOOOOOO                               ...............................################################...............................",
"XXXXXXXXXXXXXXXXXXXXXXXXXXXXXXX###############################oooooooooooooooooooooooooooooooo                               ###############################                               OOOOOOOOOOOOOOOOOOOOOOOOOOOOOOOO                                                              ###############################                                OOOOOOOOOOOOOOOOOOOOOOOOOOOOOOO                               ...............................################################...............................",
"XXXXXXXXXXXXXXXXXXXXXXXXXXXXXXX###############################oooooooooooooooooooooooooooooooo                               ###############################                               OOOOOOOOOOOOOOOOOOOOOOOOOOOOOOOO                                                              ###############################                                OOOOOOOOOOOOOOOOOOOOOOOOOOOOOOO                               ...............................################################...............................",
"XXXXXXXXXXXXXXXXXXXXXXXXXXXXXXX###############################oooooooooooooooooooooooooooooooo                               ###############################                               OOOOOOOOOOOOOOOOOOOOOOOOOOOOOOOO                                                              ###############################                                OOOOOOOOOOOOOOOOOOOOOOOOOOOOOOO                               ...............................################################...............................",
"XXXXXXXXXXXXXXXXXXXXXXXXXXXXXXX###############################oooooooooooooooooooooooooooooooo                               ###############################                               OOOOOOOOOOOOOOOOOOOOOOOOOOOOOOOO                                                              ###############################                                OOOOOOOOOOOOOOOOOOOOOOOOOOOOOOO                               ...............................################################...............................",
"XXXXXXXXXXXXXXXXXXXXXXXXXXXXXXX###############################oooooooooooooooooooooooooooooooo                               ###############################                               OOOOOOOOOOOOOOOOOOOOOOOOOOOOOOOO                                                              ###############################                                OOOOOOOOOOOOOOOOOOOOOOOOOOOOOOO                               ...............................################################...............................",
"XXXXXXXXXXXXXXXXXXXXXXXXXXXXXXX###############################oooooooooooooooooooooooooooooooo                               ###############################                               OOOOOOOOOOOOOOOOOOOOOOOOOOOOOOOO                                                              ###############################                                OOOOOOOOOOOOOOOOOOOOOOOOOOOOOOO                               ...............................################################...............................",
"XXXXXXXXXXXXXXXXXXXXXXXXXXXXXXX###############################oooooooooooooooooooooooooooooooo                               ###############################                               OOOOOOOOOOOOOOOOOOOOOOOOOOOOOOOO                                                              ###############################                                OOOOOOOOOOOOOOOOOOOOOOOOOOOOOOO                               ...............................################################...............................",
"XXXXXXXXXXXXXXXXXXXXXXXXXXXXXXX###############################oooooooooooooooooooooooooooooooo                               ###############################                               OOOOOOOOOOOOOOOOOOOOOOOOOOOOOOOO                                                              ###############################                                OOOOOOOOOOOOOOOOOOOOOOOOOOOOOOO                               ...............................################################...............................",
"XXXXXXXXXXXXXXXXXXXXXXXXXXXXXXX###############################oooooooooooooooooooooooooooooooo                               ###############################                               OOOOOOOOOOOOOOOOOOOOOOOOOOOOOOOO                                                              ###############################                                OOOOOOOOOOOOOOOOOOOOOOOOOOOOOOO                               ...............................################################...............................",
"XXXXXXXXXXXXXXXXXXXXXXXXXXXXXXX###############################oooooooooooooooooooooooooooooooo                               ###############################                               OOOOOOOOOOOOOOOOOOOOOOOOOOOOOOOO                                                              ###############################                                OOOOOOOOOOOOOOOOOOOOOOOOOOOOOOO                               ...............................################################...............................",
"XXXXXXXXXXXXXXXXXXXXXXXXXXXXXXX$$$$$$$$$$$$$$$$$$$$$$$$$$$$$$$oooooooooooooooooooooooooooooooo                               ###############################                               OOOOOOOOOOOOOOOOOOOOOOOOOOOOOOOO                                                              ###############################                                OOOOOOOOOOOOOOOOOOOOOOOOOOOOOOO                               ...............................################################XXXXXXXXXXXXXXXXXXXXXXXXXXXXXXX",
"XXXXXXXXXXXXXXXXXXXXXXXXXXXXXXX$$$$$$$$$$$$$$$$$$$$$$$$$$$$$$$oooooooooooooooooooooooooooooooo                               ###############################                               OOOOOOOOOOOOOOOOOOOOOOOOOOOOOOOO                                                              ###############################                                OOOOOOOOOOOOOOOOOOOOOOOOOOOOOOO                               ...............................################################XXXXXXXXXXXXXXXXXXXXXXXXXXXXXXX",
"XXXXXXXXXXXXXXXXXXXXXXXXXXXXXXX$$$$$$$$$$$$$$$$$$$$$$$$$$$$$$$oooooooooooooooooooooooooooooooo                               ###############################                               OOOOOOOOOOOOOOOOOOOOOOOOOOOOOOOO                                                              ###############################                                OOOOOOOOOOOOOOOOOOOOOOOOOOOOOOO                               ...............................################################XXXXXXXXXXXXXXXXXXXXXXXXXXXXXXX",
"XXXXXXXXXXXXXXXXXXXXXXXXXXXXXXX$$$$$$$$$$$$$$$$$$$$$$$$$$$$$$$oooooooooooooooooooooooooooooooo                               ###############################                               OOOOOOOOOOOOOOOOOOOOOOOOOOOOOOOO                                                              ###############################                                OOOOOOOOOOOOOOOOOOOOOOOOOOOOOOO                               ...............................################################XXXXXXXXXXXXXXXXXXXXXXXXXXXXXXX",
"XXXXXXXXXXXXXXXXXXXXXXXXXXXXXXX$$$$$$$$$$$$$$$$$$$$$$$$$$$$$$$oooooooooooooooooooooooooooooooo                               ###############################                               OOOOOOOOOOOOOOOOOOOOOOOOOOOOOOOO                                                              ###############################                                OOOOOOOOOOOOOOOOOOOOOOOOOOOOOOO                               ...............................################################XXXXXXXXXXXXXXXXXXXXXXXXXXXXXXX",
"XXXXXXXXXXXXXXXXXXXXXXXXXXXXXXX$$$$$$$$$$$$$$$$$$$$$$$$$$$$$$$oooooooooooooooooooooooooooooooo                               ###############################                               OOOOOOOOOOOOOOOOOOOOOOOOOOOOOOOO                                                              ###############################                                OOOOOOOOOOOOOOOOOOOOOOOOOOOOOOO                               ...............................################################XXXXXXXXXXXXXXXXXXXXXXXXXXXXXXX",
"XXXXXXXXXXXXXXXXXXXXXXXXXXXXXXX$$$$$$$$$$$$$$$$$$$$$$$$$$$$$$$oooooooooooooooooooooooooooooooo                               ###############################                               OOOOOOOOOOOOOOOOOOOOOOOOOOOOOOOO                                                              ###############################                                OOOOOOOOOOOOOOOOOOOOOOOOOOOOOOO                               ...............................################################XXXXXXXXXXXXXXXXXXXXXXXXXXXXXXX",
"XXXXXXXXXXXXXXXXXXXXXXXXXXXXXXX$$$$$$$$$$$$$$$$$$$$$$$$$$$$$$$oooooooooooooooooooooooooooooooo                               ###############################                               OOOOOOOOOOOOOOOOOOOOOOOOOOOOOOOO                                                              ###############################                                OOOOOOOOOOOOOOOOOOOOOOOOOOOOOOO                               ...............................################################XXXXXXXXXXXXXXXXXXXXXXXXXXXXXXX",
"XXXXXXXXXXXXXXXXXXXXXXXXXXXXXXX$$$$$$$$$$$$$$$$$$$$$$$$$$$$$$$oooooooooooooooooooooooooooooooo                               ###############################                               OOOOOOOOOOOOOOOOOOOOOOOOOOOOOOOO                                                              ###############################                                OOOOOOOOOOOOOOOOOOOOOOOOOOOOOOO                               ...............................################################XXXXXXXXXXXXXXXXXXXXXXXXXXXXXXX",
"XXXXXXXXXXXXXXXXXXXXXXXXXXXXXXX$$$$$$$$$$$$$$$$$$$$$$$$$$$$$$$oooooooooooooooooooooooooooooooo                               ###############################                               OOOOOOOOOOOOOOOOOOOOOOOOOOOOOOOO                                                              ###############################                                OOOOOOOOOOOOOOOOOOOOOOOOOOOOOOO                               ...............................################################XXXXXXXXXXXXXXXXXXXXXXXXXXXXXXX",
"XXXXXXXXXXXXXXXXXXXXXXXXXXXXXXX$$$$$$$$$$$$$$$$$$$$$$$$$$$$$$$oooooooooooooooooooooooooooooooo                               ###############################                               OOOOOOOOOOOOOOOOOOOOOOOOOOOOOOOO                                                              ###############################                                OOOOOOOOOOOOOOOOOOOOOOOOOOOOOOO                               ...............................################################XXXXXXXXXXXXXXXXXXXXXXXXXXXXXXX",
"XXXXXXXXXXXXXXXXXXXXXXXXXXXXXXX$$$$$$$$$$$$$$$$$$$$$$$$$$$$$$$oooooooooooooooooooooooooooooooo                               ###############################                               OOOOOOOOOOOOOOOOOOOOOOOOOOOOOOOO                                                              ###############################                                OOOOOOOOOOOOOOOOOOOOOOOOOOOOOOO                               ...............................################################XXXXXXXXXXXXXXXXXXXXXXXXXXXXXXX",
"XXXXXXXXXXXXXXXXXXXXXXXXXXXXXXX$$$$$$$$$$$$$$$$$$$$$$$$$$$$$$$oooooooooooooooooooooooooooooooo                               ###############################                               OOOOOOOOOOOOOOOOOOOOOOOOOOOOOOOO                                                              ###############################                                OOOOOOOOOOOOOOOOOOOOOOOOOOOOOOO                               ...............................################################XXXXXXXXXXXXXXXXXXXXXXXXXXXXXXX",
"XXXXXXXXXXXXXXXXXXXXXXXXXXXXXXX$$$$$$$$$$$$$$$$$$$$$$$$$$$$$$$oooooooooooooooooooooooooooooooo                               ###############################                               OOOOOOOOOOOOOOOOOOOOOOOOOOOOOOOO                                                              ###############################                                OOOOOOOOOOOOOOOOOOOOOOOOOOOOOOO                               ...............................################################XXXXXXXXXXXXXXXXXXXXXXXXXXXXXXX",
"XXXXXXXXXXXXXXXXXXXXXXXXXXXXXXX$$$$$$$$$$$$$$$$$$$$$$$$$$$$$$$oooooooooooooooooooooooooooooooo                               ###############################                               OOOOOOOOOOOOOOOOOOOOOOOOOOOOOOOO                                                              ###############################                                OOOOOOOOOOOOOOOOOOOOOOOOOOOOOOO                               ...............................################################XXXXXXXXXXXXXXXXXXXXXXXXXXXXXXX",
"XXXXXXXXXXXXXXXXXXXXXXXXXXXXXXX$$$$$$$$$$$$$$$$$$$$$$$$$$$$$$$oooooooooooooooooooooooooooooooo                               ###############################                               OOOOOOOOOOOOOOOOOOOOOOOOOOOOOOOO                                                              ###############################                                OOOOOOOOOOOOOOOOOOOOOOOOOOOOOOO                               ...............................################################XXXXXXXXXXXXXXXXXXXXXXXXXXXXXXX",
"XXXXXXXXXXXXXXXXXXXXXXXXXXXXXXX$$$$$$$$$$$$$$$$$$$$$$$$$$$$$$$oooooooooooooooooooooooooooooooo                               ###############################                               OOOOOOOOOOOOOOOOOOOOOOOOOOOOOOOO                                                              ###############################                                OOOOOOOOOOOOOOOOOOOOOOOOOOOOOOO                               ...............................################################XXXXXXXXXXXXXXXXXXXXXXXXXXXXXXX",
"XXXXXXXXXXXXXXXXXXXXXXXXXXXXXXX$$$$$$$$$$$$$$$$$$$$$$$$$$$$$$$oooooooooooooooooooooooooooooooo                               ###############################                               OOOOOOOOOOOOOOOOOOOOOOOOOOOOOOOO                                                              ###############################                                OOOOOOOOOOOOOOOOOOOOOOOOOOOOOOO                               ...............................################################XXXXXXXXXXXXXXXXXXXXXXXXXXXXXXX",
"XXXXXXXXXXXXXXXXXXXXXXXXXXXXXXX$$$$$$$$$$$$$$$$$$$$$$$$$$$$$$$oooooooooooooooooooooooooooooooo                               ###############################                               OOOOOOOOOOOOOOOOOOOOOOOOOOOOOOOO                                                              ###############################                                OOOOOOOOOOOOOOOOOOOOOOOOOOOOOOO                               ...............................################################XXXXXXXXXXXXXXXXXXXXXXXXXXXXXXX",
"XXXXXXXXXXXXXXXXXXXXXXXXXXXXXXX$$$$$$$$$$$$$$$$$$$$$$$$$$$$$$$oooooooooooooooooooooooooooooooo                               ###############################                               OOOOOOOOOOOOOOOOOOOOOOOOOOOOOOOO                                                              ###############################                                OOOOOOOOOOOOOOOOOOOOOOOOOOOOOOO                               ...............................################################XXXXXXXXXXXXXXXXXXXXXXXXXXXXXXX",
"XXXXXXXXXXXXXXXXXXXXXXXXXXXXXXX$$$$$$$$$$$$$$$$$$$$$$$$$$$$$$$oooooooooooooooooooooooooooooooo                               ###############################                               OOOOOOOOOOOOOOOOOOOOOOOOOOOOOOOO                                                              ###############################                                OOOOOOOOOOOOOOOOOOOOOOOOOOOOOOO                               ...............................################################XXXXXXXXXXXXXXXXXXXXXXXXXXXXXXX",
"XXXXXXXXXXXXXXXXXXXXXXXXXXXXXXX$$$$$$$$$$$$$$$$$$$$$$$$$$$$$$$oooooooooooooooooooooooooooooooo                               ###############################                               OOOOOOOOOOOOOOOOOOOOOOOOOOOOOOOO                                                              ###############################                                OOOOOOOOOOOOOOOOOOOOOOOOOOOOOOO                               ...............................################################XXXXXXXXXXXXXXXXXXXXXXXXXXXXXXX",
"XXXXXXXXXXXXXXXXXXXXXXXXXXXXXXX$$$$$$$$$$$$$$$$$$$$$$$$$$$$$$$oooooooooooooooooooooooooooooooo                               ###############################                               OOOOOOOOOOOOOOOOOOOOOOOOOOOOOOOO                                                              ###############################                                OOOOOOOOOOOOOOOOOOOOOOOOOOOOOOO                               ...............................################################XXXXXXXXXXXXXXXXXXXXXXXXXXXXXXX",
"XXXXXXXXXXXXXXXXXXXXXXXXXXXXXXX$$$$$$$$$$$$$$$$$$$$$$$$$$$$$$$oooooooooooooooooooooooooooooooo                               ###############################                               OOOOOOOOOOOOOOOOOOOOOOOOOOOOOOOO                                                              ###############################                                OOOOOOOOOOOOOOOOOOOOOOOOOOOOOOO                               ...............................################################XXXXXXXXXXXXXXXXXXXXXXXXXXXXXXX",
"XXXXXXXXXXXXXXXXXXXXXXXXXXXXXXX$$$$$$$$$$$$$$$$$$$$$$$$$$$$$$$oooooooooooooooooooooooooooooooo                               ###############################                               OOOOOOOOOOOOOOOOOOOOOOOOOOOOOOOO                                                              ###############################                                OOOOOOOOOOOOOOOOOOOOOOOOOOOOOOO                               ...............................################################XXXXXXXXXXXXXXXXXXXXXXXXXXXXXXX",
"XXXXXXXXXXXXXXXXXXXXXXXXXXXXXXX$$$$$$$$$$$$$$$$$$$$$$$$$$$$$$$oooooooooooooooooooooooooooooooo                               ###############################                               OOOOOOOOOOOOOOOOOOOOOOOOOOOOOOOO                                                              ###############################                                OOOOOOOOOOOOOOOOOOOOOOOOOOOOOOO                               ...............................################################XXXXXXXXXXXXXXXXXXXXXXXXXXXXXXX",
"XXXXXXXXXXXXXXXXXXXXXXXXXXXXXXX$$$$$$$$$$$$$$$$$$$$$$$$$$$$$$$oooooooooooooooooooooooooooooooo                               ###############################                               OOOOOOOOOOOOOOOOOOOOOOOOOOOOOOOO                                                              ###############################                                OOOOOOOOOOOOOOOOOOOOOOOOOOOOOOO                               ...............................################################XXXXXXXXXXXXXXXXXXXXXXXXXXXXXXX",
"XXXXXXXXXXXXXXXXXXXXXXXXXXXXXXX$$$$$$$$$$$$$$$$$$$$$$$$$$$$$$$oooooooooooooooooooooooooooooooo                               ###############################                               OOOOOOOOOOOOOOOOOOOOOOOOOOOOOOOO                                                              ###############################                                OOOOOOOOOOOOOOOOOOOOOOOOOOOOOOO                               ...............................################################XXXXXXXXXXXXXXXXXXXXXXXXXXXXXXX",
"XXXXXXXXXXXXXXXXXXXXXXXXXXXXXXX$$$$$$$$$$$$$$$$$$$$$$$$$$$$$$$oooooooooooooooooooooooooooooooo                               ###############################                               OOOOOOOOOOOOOOOOOOOOOOOOOOOOOOOO                                                              ###############################                                OOOOOOOOOOOOOOOOOOOOOOOOOOOOOOO                               ...............................################################XXXXXXXXXXXXXXXXXXXXXXXXXXXXXXX",
"XXXXXXXXXXXXXXXXXXXXXXXXXXXXXXX$$$$$$$$$$$$$$$$$$$$$$$$$$$$$$$oooooooooooooooooooooooooooooooo                               ###############################                               OOOOOOOOOOOOOOOOOOOOOOOOOOOOOOOO                                                              ###############################                                OOOOOOOOOOOOOOOOOOOOOOOOOOOOOOO                               ...............................################################XXXXXXXXXXXXXXXXXXXXXXXXXXXXXXX",
"XXXXXXXXXXXXXXXXXXXXXXXXXXXXXXX$$$$$$$$$$$$$$$$$$$$$$$$$$$$$$$oooooooooooooooooooooooooooooooo                               ###############################                               OOOOOOOOOOOOOOOOOOOOOOOOOOOOOOOO                                                              ###############################                                OOOOOOOOOOOOOOOOOOOOOOOOOOOOOOO                               ...............................################################XXXXXXXXXXXXXXXXXXXXXXXXXXXXXXX",
"...............................$$$$$$$$$$$$$$$$$$$$$$$$$$$$$$$................................###############################OOOOOOOOOOOOOOOOOOOOOOOOOOOOOOOOOOOOOOOOOOOOOOOOOOOOOOOOOOOOOOOOOOOOOOOOOOOOOOOOOOOOOOOOOOOOOO##############################################################OOOOOOOOOOOOOOOOOOOOOOOOOOOOOOOOOOOOOOOOOOOOOOOOOOOOOOOOOOOOOOOOOOOOOOOOOOOOOOOOOOOOOOOOOOOOOO###############################ooooooooooooooooooooooooooooooo$$$$$$$$$$$$$$$$$$$$$$$$$$$$$$$$...............................",
"...............................$$$$$$$$$$$$$$$$$$$$$$$$$$$$$$$................................###############################OOOOOOOOOOOOOOOOOOOOOOOOOOOOOOOOOOOOOOOOOOOOOOOOOOOOOOOOOOOOOOOOOOOOOOOOOOOOOOOOOOOOOOOOOOOOOO##############################################################OOOOOOOOOOOOOOOOOOOOOOOOOOOOOOOOOOOOOOOOOOOOOOOOOOOOOOOOOOOOOOOOOOOOOOOOOOOOOOOOOOOOOOOOOOOOOO###############################ooooooooooooooooooooooooooooooo$$$$$$$$$$$$$$$$$$$$$$$$$$$$$$$$...............................",
"...............................$$$$$$$$$$$$$$$$$$$$$$$$$$$$$$$................................###############################OOOOOOOOOOOOOOOOOOOOOOOOOOOOOOOOOOOOOOOOOOOOOOOOOOOOOOOOOOOOOOOOOOOOOOOOOOOOOOOOOOOOOOOOOOOOOO##############################################################OOOOOOOOOOOOOOOOOOOOOOOOOOOOOOOOOOOOOOOOOOOOOOOOOOOOOOOOOOOOOOOOOOOOOOOOOOOOOOOOOOOOOOOOOOOOOO###############################ooooooooooooooooooooooooooooooo$$$$$$$$$$$$$$$$$$$$$$$$$$$$$$$$...............................",
"...............................$$$$$$$$$$$$$$$$$$$$$$$$$$$$$$$................................###############################OOOOOOOOOOOOOOOOOOOOOOOOOOOOOOOOOOOOOOOOOOOOOOOOOOOOOOOOOOOOOOOOOOOOOOOOOOOOOOOOOOOOOOOOOOOOOO##############################################################OOOOOOOOOOOOOOOOOOOOOOOOOOOOOOOOOOOOOOOOOOOOOOOOOOOOOOOOOOOOOOOOOOOOOOOOOOOOOOOOOOOOOOOOOOOOOO###############################ooooooooooooooooooooooooooooooo$$$$$$$$$$$$$$$$$$$$$$$$$$$$$$$$...............................",
"...............................$$$$$$$$$$$$$$$$$$$$$$$$$$$$$$$................................###############################OOOOOOOOOOOOOOOOOOOOOOOOOOOOOOOOOOOOOOOOOOOOOOOOOOOOOOOOOOOOOOOOOOOOOOOOOOOOOOOOOOOOOOOOOOOOOO##############################################################OOOOOOOOOOOOOOOOOOOOOOOOOOOOOOOOOOOOOOOOOOOOOOOOOOOOOOOOOOOOOOOOOOOOOOOOOOOOOOOOOOOOOOOOOOOOOO###############################ooooooooooooooooooooooooooooooo$$$$$$$$$$$$$$$$$$$$$$$$$$$$$$$$...............................",
"...............................$$$$$$$$$$$$$$$$$$$$$$$$$$$$$$$................................###############################OOOOOOOOOOOOOOOOOOOOOOOOOOOOOOOOOOOOOOOOOOOOOOOOOOOOOOOOOOOOOOOOOOOOOOOOOOOOOOOOOOOOOOOOOOOOOO##############################################################OOOOOOOOOOOOOOOOOOOOOOOOOOOOOOOOOOOOOOOOOOOOOOOOOOOOOOOOOOOOOOOOOOOOOOOOOOOOOOOOOOOOOOOOOOOOOO###############################ooooooooooooooooooooooooooooooo$$$$$$$$$$$$$$$$$$$$$$$$$$$$$$$$...............................",
"...............................$$$$$$$$$$$$$$$$$$$$$$$$$$$$$$$................................###############################OOOOOOOOOOOOOOOOOOOOOOOOOOOOOOOOOOOOOOOOOOOOOOOOOOOOOOOOOOOOOOOOOOOOOOOOOOOOOOOOOOOOOOOOOOOOOO##############################################################OOOOOOOOOOOOOOOOOOOOOOOOOOOOOOOOOOOOOOOOOOOOOOOOOOOOOOOOOOOOOOOOOOOOOOOOOOOOOOOOOOOOOOOOOOOOOO###############################ooooooooooooooooooooooooooooooo$$$$$$$$$$$$$$$$$$$$$$$$$$$$$$$$...............................",
"...............................$$$$$$$$$$$$$$$$$$$$$$$$$$$$$$$................................###############################OOOOOOOOOOOOOOOOOOOOOOOOOOOOOOOOOOOOOOOOOOOOOOOOOOOOOOOOOOOOOOOOOOOOOOOOOOOOOOOOOOOOOOOOOOOOOO##############################################################OOOOOOOOOOOOOOOOOOOOOOOOOOOOOOOOOOOOOOOOOOOOOOOOOOOOOOOOOOOOOOOOOOOOOOOOOOOOOOOOOOOOOOOOOOOOOO###############################ooooooooooooooooooooooooooooooo$$$$$$$$$$$$$$$$$$$$$$$$$$$$$$$$...............................",
"...............................$$$$$$$$$$$$$$$$$$$$$$$$$$$$$$$................................###############################OOOOOOOOOOOOOOOOOOOOOOOOOOOOOOOOOOOOOOOOOOOOOOOOOOOOOOOOOOOOOOOOOOOOOOOOOOOOOOOOOOOOOOOOOOOOOO##############################################################OOOOOOOOOOOOOOOOOOOOOOOOOOOOOOOOOOOOOOOOOOOOOOOOOOOOOOOOOOOOOOOOOOOOOOOOOOOOOOOOOOOOOOOOOOOOOO###############################ooooooooooooooooooooooooooooooo$$$$$$$$$$$$$$$$$$$$$$$$$$$$$$$$...............................",
"...............................$$$$$$$$$$$$$$$$$$$$$$$$$$$$$$$................................###############################OOOOOOOOOOOOOOOOOOOOOOOOOOOOOOOOOOOOOOOOOOOOOOOOOOOOOOOOOOOOOOOOOOOOOOOOOOOOOOOOOOOOOOOOOOOOOO##############################################################OOOOOOOOOOOOOOOOOOOOOOOOOOOOOOOOOOOOOOOOOOOOOOOOOOOOOOOOOOOOOOOOOOOOOOOOOOOOOOOOOOOOOOOOOOOOOO###############################ooooooooooooooooooooooooooooooo$$$$$$$$$$$$$$$$$$$$$$$$$$$$$$$$...............................",
"...............................$$$$$$$$$$$$$$$$$$$$$$$$$$$$$$$................................###############################OOOOOOOOOOOOOOOOOOOOOOOOOOOOOOOOOOOOOOOOOOOOOOOOOOOOOOOOOOOOOOOOOOOOOOOOOOOOOOOOOOOOOOOOOOOOOO##############################################################OOOOOOOOOOOOOOOOOOOOOOOOOOOOOOOOOOOOOOOOOOOOOOOOOOOOOOOOOOOOOOOOOOOOOOOOOOOOOOOOOOOOOOOOOOOOOO###############################ooooooooooooooooooooooooooooooo$$$$$$$$$$$$$$$$$$$$$$$$$$$$$$$$...............................",
"...............................$$$$$$$$$$$$$$$$$$$$$$$$$$$$$$$................................###############################OOOOOOOOOOOOOOOOOOOOOOOOOOOOOOOOOOOOOOOOOOOOOOOOOOOOOOOOOOOOOOOOOOOOOOOOOOOOOOOOOOOOOOOOOOOOOO##############################################################OOOOOOOOOOOOOOOOOOOOOOOOOOOOOOOOOOOOOOOOOOOOOOOOOOOOOOOOOOOOOOOOOOOOOOOOOOOOOOOOOOOOOOOOOOOOOO###############################ooooooooooooooooooooooooooooooo$$$$$$$$$$$$$$$$$$$$$$$$$$$$$$$$...............................",
"...............................$$$$$$$$$$$$$$$$$$$$$$$$$$$$$$$................................###############################OOOOOOOOOOOOOOOOOOOOOOOOOOOOOOOOOOOOOOOOOOOOOOOOOOOOOOOOOOOOOOOOOOOOOOOOOOOOOOOOOOOOOOOOOOOOOO##############################################################OOOOOOOOOOOOOOOOOOOOOOOOOOOOOOOOOOOOOOOOOOOOOOOOOOOOOOOOOOOOOOOOOOOOOOOOOOOOOOOOOOOOOOOOOOOOOO###############################ooooooooooooooooooooooooooooooo$$$$$$$$$$$$$$$$$$$$$$$$$$$$$$$$...............................",
"...............................$$$$$$$$$$$$$$$$$$$$$$$$$$$$$$$................................###############################OOOOOOOOOOOOOOOOOOOOOOOOOOOOOOOOOOOOOOOOOOOOOOOOOOOOOOOOOOOOOOOOOOOOOOOOOOOOOOOOOOOOOOOOOOOOOO##############################################################OOOOOOOOOOOOOOOOOOOOOOOOOOOOOOOOOOOOOOOOOOOOOOOOOOOOOOOOOOOOOOOOOOOOOOOOOOOOOOOOOOOOOOOOOOOOOO###############################ooooooooooooooooooooooooooooooo$$$$$$$$$$$$$$$$$$$$$$$$$$$$$$$$...............................",
"...............................$$$$$$$$$$$$$$$$$$$$$$$$$$$$$$$................................###############################OOOOOOOOOOOOOOOOOOOOOOOOOOOOOOOOOOOOOOOOOOOOOOOOOOOOOOOOOOOOOOOOOOOOOOOOOOOOOOOOOOOOOOOOOOOOOO##############################################################OOOOOOOOOOOOOOOOOOOOOOOOOOOOOOOOOOOOOOOOOOOOOOOOOOOOOOOOOOOOOOOOOOOOOOOOOOOOOOOOOOOOOOOOOOOOOO###############################ooooooooooooooooooooooooooooooo$$$$$$$$$$$$$$$$$$$$$$$$$$$$$$$$...............................",
"...............................$$$$$$$$$$$$$$$$$$$$$$$$$$$$$$$................................###############################OOOOOOOOOOOOOOOOOOOOOOOOOOOOOOOOOOOOOOOOOOOOOOOOOOOOOOOOOOOOOOOOOOOOOOOOOOOOOOOOOOOOOOOOOOOOOO##############################################################OOOOOOOOOOOOOOOOOOOOOOOOOOOOOOOOOOOOOOOOOOOOOOOOOOOOOOOOOOOOOOOOOOOOOOOOOOOOOOOOOOOOOOOOOOOOOO###############################ooooooooooooooooooooooooooooooo$$$$$$$$$$$$$$$$$$$$$$$$$$$$$$$$...............................",
"...............................$$$$$$$$$$$$$$$$$$$$$$$$$$$$$$$................................###############################OOOOOOOOOOOOOOOOOOOOOOOOOOOOOOOOOOOOOOOOOOOOOOOOOOOOOOOOOOOOOOOOOOOOOOOOOOOOOOOOOOOOOOOOOOOOOO##############################################################OOOOOOOOOOOOOOOOOOOOOOOOOOOOOOOOOOOOOOOOOOOOOOOOOOOOOOOOOOOOOOOOOOOOOOOOOOOOOOOOOOOOOOOOOOOOOO###############################ooooooooooooooooooooooooooooooo$$$$$$$$$$$$$$$$$$$$$$$$$$$$$$$$...............................",
"...............................$$$$$$$$$$$$$$$$$$$$$$$$$$$$$$$................................###############################OOOOOOOOOOOOOOOOOOOOOOOOOOOOOOOOOOOOOOOOOOOOOOOOOOOOOOOOOOOOOOOOOOOOOOOOOOOOOOOOOOOOOOOOOOOOOO##############################################################OOOOOOOOOOOOOOOOOOOOOOOOOOOOOOOOOOOOOOOOOOOOOOOOOOOOOOOOOOOOOOOOOOOOOOOOOOOOOOOOOOOOOOOOOOOOOO###############################ooooooooooooooooooooooooooooooo$$$$$$$$$$$$$$$$$$$$$$$$$$$$$$$$...............................",
"...............................$$$$$$$$$$$$$$$$$$$$$$$$$$$$$$$................................###############################OOOOOOOOOOOOOOOOOOOOOOOOOOOOOOOOOOOOOOOOOOOOOOOOOOOOOOOOOOOOOOOOOOOOOOOOOOOOOOOOOOOOOOOOOOOOOO##############################################################OOOOOOOOOOOOOOOOOOOOOOOOOOOOOOOOOOOOOOOOOOOOOOOOOOOOOOOOOOOOOOOOOOOOOOOOOOOOOOOOOOOOOOOOOOOOOO###############################ooooooooooooooooooooooooooooooo$$$$$$$$$$$$$$$$$$$$$$$$$$$$$$$$...............................",
"...............................$$$$$$$$$$$$$$$$$$$$$$$$$$$$$$$................................###############################OOOOOOOOOOOOOOOOOOOOOOOOOOOOOOOOOOOOOOOOOOOOOOOOOOOOOOOOOOOOOOOOOOOOOOOOOOOOOOOOOOOOOOOOOOOOOO##############################################################OOOOOOOOOOOOOOOOOOOOOOOOOOOOOOOOOOOOOOOOOOOOOOOOOOOOOOOOOOOOOOOOOOOOOOOOOOOOOOOOOOOOOOOOOOOOOO###############################ooooooooooooooooooooooooooooooo$$$$$$$$$$$$$$$$$$$$$$$$$$$$$$$$...............................",
"...............................$$$$$$$$$$$$$$$$$$$$$$$$$$$$$$$................................###############################OOOOOOOOOOOOOOOOOOOOOOOOOOOOOOOOOOOOOOOOOOOOOOOOOOOOOOOOOOOOOOOOOOOOOOOOOOOOOOOOOOOOOOOOOOOOOO##############################################################OOOOOOOOOOOOOOOOOOOOOOOOOOOOOOOOOOOOOOOOOOOOOOOOOOOOOOOOOOOOOOOOOOOOOOOOOOOOOOOOOOOOOOOOOOOOOO###############################ooooooooooooooooooooooooooooooo$$$$$$$$$$$$$$$$$$$$$$$$$$$$$$$$...............................",
"...............................$$$$$$$$$$$$$$$$$$$$$$$$$$$$$$$................................###############################OOOOOOOOOOOOOOOOOOOOOOOOOOOOOOOOOOOOOOOOOOOOOOOOOOOOOOOOOOOOOOOOOOOOOOOOOOOOOOOOOOOOOOOOOOOOOO##############################################################OOOOOOOOOOOOOOOOOOOOOOOOOOOOOOOOOOOOOOOOOOOOOOOOOOOOOOOOOOOOOOOOOOOOOOOOOOOOOOOOOOOOOOOOOOOOOO###############################ooooooooooooooooooooooooooooooo$$$$$$$$$$$$$$$$$$$$$$$$$$$$$$$$...............................",
"...............................$$$$$$$$$$$$$$$$$$$$$$$$$$$$$$$................................###############################OOOOOOOOOOOOOOOOOOOOOOOOOOOOOOOOOOOOOOOOOOOOOOOOOOOOOOOOOOOOOOOOOOOOOOOOOOOOOOOOOOOOOOOOOOOOOO##############################################################OOOOOOOOOOOOOOOOOOOOOOOOOOOOOOOOOOOOOOOOOOOOOOOOOOOOOOOOOOOOOOOOOOOOOOOOOOOOOOOOOOOOOOOOOOOOOO###############################ooooooooooooooooooooooooooooooo$$$$$$$$$$$$$$$$$$$$$$$$$$$$$$$$...............................",
"...............................$$$$$$$$$$$$$$$$$$$$$$$$$$$$$$$................................###############################OOOOOOOOOOOOOOOOOOOOOOOOOOOOOOOOOOOOOOOOOOOOOOOOOOOOOOOOOOOOOOOOOOOOOOOOOOOOOOOOOOOOOOOOOOOOOO##############################################################OOOOOOOOOOOOOOOOOOOOOOOOOOOOOOOOOOOOOOOOOOOOOOOOOOOOOOOOOOOOOOOOOOOOOOOOOOOOOOOOOOOOOOOOOOOOOO###############################ooooooooooooooooooooooooooooooo$$$$$$$$$$$$$$$$$$$$$$$$$$$$$$$$...............................",
"...............................$$$$$$$$$$$$$$$$$$$$$$$$$$$$$$$................................###############################OOOOOOOOOOOOOOOOOOOOOOOOOOOOOOOOOOOOOOOOOOOOOOOOOOOOOOOOOOOOOOOOOOOOOOOOOOOOOOOOOOOOOOOOOOOOOO##############################################################OOOOOOOOOOOOOOOOOOOOOOOOOOOOOOOOOOOOOOOOOOOOOOOOOOOOOOOOOOOOOOOOOOOOOOOOOOOOOOOOOOOOOOOOOOOOOO###############################ooooooooooooooooooooooooooooooo$$$$$$$$$$$$$$$$$$$$$$$$$$$$$$$$...............................",
"...............................$$$$$$$$$$$$$$$$$$$$$$$$$$$$$$$................................###############################OOOOOOOOOOOOOOOOOOOOOOOOOOOOOOOOOOOOOOOOOOOOOOOOOOOOOOOOOOOOOOOOOOOOOOOOOOOOOOOOOOOOOOOOOOOOOO##############################################################OOOOOOOOOOOOOOOOOOOOOOOOOOOOOOOOOOOOOOOOOOOOOOOOOOOOOOOOOOOOOOOOOOOOOOOOOOOOOOOOOOOOOOOOOOOOOO###############################ooooooooooooooooooooooooooooooo$$$$$$$$$$$$$$$$$$$$$$$$$$$$$$$$...............................",
"...............................$$$$$$$$$$$$$$$$$$$$$$$$$$$$$$$................................###############################OOOOOOOOOOOOOOOOOOOOOOOOOOOOOOOOOOOOOOOOOOOOOOOOOOOOOOOOOOOOOOOOOOOOOOOOOOOOOOOOOOOOOOOOOOOOOO##############################################################OOOOOOOOOOOOOOOOOOOOOOOOOOOOOOOOOOOOOOOOOOOOOOOOOOOOOOOOOOOOOOOOOOOOOOOOOOOOOOOOOOOOOOOOOOOOOO###############################ooooooooooooooooooooooooooooooo$$$$$$$$$$$$$$$$$$$$$$$$$$$$$$$$...............................",
"...............................$$$$$$$$$$$$$$$$$$$$$$$$$$$$$$$................................###############################OOOOOOOOOOOOOOOOOOOOOOOOOOOOOOOOOOOOOOOOOOOOOOOOOOOOOOOOOOOOOOOOOOOOOOOOOOOOOOOOOOOOOOOOOOOOOO##############################################################OOOOOOOOOOOOOOOOOOOOOOOOOOOOOOOOOOOOOOOOOOOOOOOOOOOOOOOOOOOOOOOOOOOOOOOOOOOOOOOOOOOOOOOOOOOOOO###############################ooooooooooooooooooooooooooooooo$$$$$$$$$$$$$$$$$$$$$$$$$$$$$$$$...............................",
"...............................$$$$$$$$$$$$$$$$$$$$$$$$$$$$$$$................................###############################OOOOOOOOOOOOOOOOOOOOOOOOOOOOOOOOOOOOOOOOOOOOOOOOOOOOOOOOOOOOOOOOOOOOOOOOOOOOOOOOOOOOOOOOOOOOOO##############################################################OOOOOOOOOOOOOOOOOOOOOOOOOOOOOOOOOOOOOOOOOOOOOOOOOOOOOOOOOOOOOOOOOOOOOOOOOOOOOOOOOOOOOOOOOOOOOO###############################ooooooooooooooooooooooooooooooo$$$$$$$$$$$$$$$$$$$$$$$$$$$$$$$$...............................",
"...............................$$$$$$$$$$$$$$$$$$$$$$$$$$$$$$$................................###############################OOOOOOOOOOOOOOOOOOOOOOOOOOOOOOOOOOOOOOOOOOOOOOOOOOOOOOOOOOOOOOOOOOOOOOOOOOOOOOOOOOOOOOOOOOOOOO##############################################################OOOOOOOOOOOOOOOOOOOOOOOOOOOOOOOOOOOOOOOOOOOOOOOOOOOOOOOOOOOOOOOOOOOOOOOOOOOOOOOOOOOOOOOOOOOOOO###############################ooooooooooooooooooooooooooooooo$$$$$$$$$$$$$$$$$$$$$$$$$$$$$$$$...............................",
"...............................$$$$$$$$$$$$$$$$$$$$$$$$$$$$$$$................................###############################OOOOOOOOOOOOOOOOOOOOOOOOOOOOOOOOOOOOOOOOOOOOOOOOOOOOOOOOOOOOOOOOOOOOOOOOOOOOOOOOOOOOOOOOOOOOOO##############################################################OOOOOOOOOOOOOOOOOOOOOOOOOOOOOOOOOOOOOOOOOOOOOOOOOOOOOOOOOOOOOOOOOOOOOOOOOOOOOOOOOOOOOOOOOOOOOO###############################ooooooooooooooooooooooooooooooo$$$$$$$$$$$$$$$$$$$$$$$$$$$$$$$$...............................",
"...............................###############################................................                               ###############################                                                               ###############################                                                              OOOOOOOOOOOOOOOOOOOOOOOOOOOOOOOO                                                              XXXXXXXXXXXXXXXXXXXXXXXXXXXXXXX$$$$$$$$$$$$$$$$$$$$$$$$$$$$$$$$...............................",
"...............................###############################................................                               ###############################                                                               ###############################                                                              OOOOOOOOOOOOOOOOOOOOOOOOOOOOOOOO                                                              XXXXXXXXXXXXXXXXXXXXXXXXXXXXXXX$$$$$$$$$$$$$$$$$$$$$$$$$$$$$$$$...............................",
"...............................###############################................................                               ###############################                                                               ###############################                                                              OOOOOOOOOOOOOOOOOOOOOOOOOOOOOOOO                                                              XXXXXXXXXXXXXXXXXXXXXXXXXXXXXXX$$$$$$$$$$$$$$$$$$$$$$$$$$$$$$$$...............................",
"...............................###############################................................                               ###############################                                                               ###############################                                                              OOOOOOOOOOOOOOOOOOOOOOOOOOOOOOOO                                                              XXXXXXXXXXXXXXXXXXXXXXXXXXXXXXX$$$$$$$$$$$$$$$$$$$$$$$$$$$$$$$$...............................",
"...............................###############################................................                               ###############################                                                               ###############################                                                              OOOOOOOOOOOOOOOOOOOOOOOOOOOOOOOO                                                              XXXXXXXXXXXXXXXXXXXXXXXXXXXXXXX$$$$$$$$$$$$$$$$$$$$$$$$$$$$$$$$...............................",
"...............................###############################................................                               ###############################                                                               ###############################                                                              OOOOOOOOOOOOOOOOOOOOOOOOOOOOOOOO                                                              XXXXXXXXXXXXXXXXXXXXXXXXXXXXXXX$$$$$$$$$$$$$$$$$$$$$$$$$$$$$$$$...............................",
"...............................###############################................................                               ###############################                                                               ###############################                                                              OOOOOOOOOOOOOOOOOOOOOOOOOOOOOOOO                                                              XXXXXXXXXXXXXXXXXXXXXXXXXXXXXXX$$$$$$$$$$$$$$$$$$$$$$$$$$$$$$$$...............................",
"...............................###############################................................                               ###############################                                                               ###############################                                                              OOOOOOOOOOOOOOOOOOOOOOOOOOOOOOOO                                                              XXXXXXXXXXXXXXXXXXXXXXXXXXXXXXX$$$$$$$$$$$$$$$$$$$$$$$$$$$$$$$$...............................",
"...............................###############################................................                               ###############################                                                               ###############################                                                              OOOOOOOOOOOOOOOOOOOOOOOOOOOOOOOO                                                              XXXXXXXXXXXXXXXXXXXXXXXXXXXXXXX$$$$$$$$$$$$$$$$$$$$$$$$$$$$$$$$...............................",
"...............................###############################................................                               ###############################                                                               ###############################                                                              OOOOOOOOOOOOOOOOOOOOOOOOOOOOOOOO                                                              XXXXXXXXXXXXXXXXXXXXXXXXXXXXXXX$$$$$$$$$$$$$$$$$$$$$$$$$$$$$$$$...............................",
"...............................###############################................................                               ###############################                                                               ###############################                                                              OOOOOOOOOOOOOOOOOOOOOOOOOOOOOOOO                                                              XXXXXXXXXXXXXXXXXXXXXXXXXXXXXXX$$$$$$$$$$$$$$$$$$$$$$$$$$$$$$$$...............................",
"...............................###############################................................                               ###############################                                                               ###############################                                                              OOOOOOOOOOOOOOOOOOOOOOOOOOOOOOOO                                                              XXXXXXXXXXXXXXXXXXXXXXXXXXXXXXX$$$$$$$$$$$$$$$$$$$$$$$$$$$$$$$$...............................",
"...............................###############################................................                               ###############################                                                               ###############################                                                              OOOOOOOOOOOOOOOOOOOOOOOOOOOOOOOO                                                              XXXXXXXXXXXXXXXXXXXXXXXXXXXXXXX$$$$$$$$$$$$$$$$$$$$$$$$$$$$$$$$...............................",
"...............................###############################................................                               ###############################                                                               ###############################                                                              OOOOOOOOOOOOOOOOOOOOOOOOOOOOOOOO                                                              XXXXXXXXXXXXXXXXXXXXXXXXXXXXXXX$$$$$$$$$$$$$$$$$$$$$$$$$$$$$$$$...............................",
"...............................###############################................................                               ###############################                                                               ###############################                                                              OOOOOOOOOOOOOOOOOOOOOOOOOOOOOOOO                                                              XXXXXXXXXXXXXXXXXXXXXXXXXXXXXXX$$$$$$$$$$$$$$$$$$$$$$$$$$$$$$$$...............................",
"...............................###############################................................                               ###############################                                                               ###############################                                                              OOOOOOOOOOOOOOOOOOOOOOOOOOOOOOOO                                                              XXXXXXXXXXXXXXXXXXXXXXXXXXXXXXX$$$$$$$$$$$$$$$$$$$$$$$$$$$$$$$$...............................",
"...............................###############################................................                               ###############################                                                               ###############################                                                              OOOOOOOOOOOOOOOOOOOOOOOOOOOOOOOO                                                              XXXXXXXXXXXXXXXXXXXXXXXXXXXXXXX$$$$$$$$$$$$$$$$$$$$$$$$$$$$$$$$...............................",
"...............................###############################................................                               ###############################                                                               ###############################                                                              OOOOOOOOOOOOOOOOOOOOOOOOOOOOOOOO                                                              XXXXXXXXXXXXXXXXXXXXXXXXXXXXXXX$$$$$$$$$$$$$$$$$$$$$$$$$$$$$$$$...............................",
"...............................###############################................................                               ###############################                                                               ###############################                                                              OOOOOOOOOOOOOOOOOOOOOOOOOOOOOOOO                                                              XXXXXXXXXXXXXXXXXXXXXXXXXXXXXXX$$$$$$$$$$$$$$$$$$$$$$$$$$$$$$$$...............................",
"...............................###############################................................                               ###############################                                                               ###############################                                                              OOOOOOOOOOOOOOOOOOOOOOOOOOOOOOOO                                                              XXXXXXXXXXXXXXXXXXXXXXXXXXXXXXX$$$$$$$$$$$$$$$$$$$$$$$$$$$$$$$$...............................",
"...............................###############################................................                               ###############################                                                               ###############################                                                              OOOOOOOOOOOOOOOOOOOOOOOOOOOOOOOO                                                              XXXXXXXXXXXXXXXXXXXXXXXXXXXXXXX$$$$$$$$$$$$$$$$$$$$$$$$$$$$$$$$...............................",
"...............................###############################................................                               ###############################                                                               ###############################                                                              OOOOOOOOOOOOOOOOOOOOOOOOOOOOOOOO                                                              XXXXXXXXXXXXXXXXXXXXXXXXXXXXXXX$$$$$$$$$$$$$$$$$$$$$$$$$$$$$$$$...............................",
"...............................###############################................................                               ###############################                                                               ###############################                                                              OOOOOOOOOOOOOOOOOOOOOOOOOOOOOOOO                                                              XXXXXXXXXXXXXXXXXXXXXXXXXXXXXXX$$$$$$$$$$$$$$$$$$$$$$$$$$$$$$$$...............................",
"...............................###############################................................                               ###############################                                                               ###############################                                                              OOOOOOOOOOOOOOOOOOOOOOOOOOOOOOOO                                                              XXXXXXXXXXXXXXXXXXXXXXXXXXXXXXX$$$$$$$$$$$$$$$$$$$$$$$$$$$$$$$$...............................",
"...............................###############################................................                               ###############################                                                               ###############################                                                              OOOOOOOOOOOOOOOOOOOOOOOOOOOOOOOO                                                              XXXXXXXXXXXXXXXXXXXXXXXXXXXXXXX$$$$$$$$$$$$$$$$$$$$$$$$$$$$$$$$...............................",
"...............................###############################................................                               ###############################                                                               ###############################                                                              OOOOOOOOOOOOOOOOOOOOOOOOOOOOOOOO                                                              XXXXXXXXXXXXXXXXXXXXXXXXXXXXXXX$$$$$$$$$$$$$$$$$$$$$$$$$$$$$$$$...............................",
"...............................###############################................................                               ###############################                                                               ###############################                                                              OOOOOOOOOOOOOOOOOOOOOOOOOOOOOOOO                                                              XXXXXXXXXXXXXXXXXXXXXXXXXXXXXXX$$$$$$$$$$$$$$$$$$$$$$$$$$$$$$$$...............................",
"...............................###############################................................                               ###############################                                                               ###############################                                                              OOOOOOOOOOOOOOOOOOOOOOOOOOOOOOOO                                                              XXXXXXXXXXXXXXXXXXXXXXXXXXXXXXX$$$$$$$$$$$$$$$$$$$$$$$$$$$$$$$$...............................",
"...............................###############################................................                               ###############################                                                               ###############################                                                              OOOOOOOOOOOOOOOOOOOOOOOOOOOOOOOO                                                              XXXXXXXXXXXXXXXXXXXXXXXXXXXXXXX$$$$$$$$$$$$$$$$$$$$$$$$$$$$$$$$...............................",
"...............................###############################................................                               ###############################                                                               ###############################                                                              OOOOOOOOOOOOOOOOOOOOOOOOOOOOOOOO                                                              XXXXXXXXXXXXXXXXXXXXXXXXXXXXXXX$$$$$$$$$$$$$$$$$$$$$$$$$$$$$$$$...............................",
"...............................###############################................................                               ###############################                                                               ###############################                                                              OOOOOOOOOOOOOOOOOOOOOOOOOOOOOOOO                                                              XXXXXXXXXXXXXXXXXXXXXXXXXXXXXXX$$$$$$$$$$$$$$$$$$$$$$$$$$$$$$$$...............................",
"...............................###############################................................                               ###############################                                                               ###############################                                                              OOOOOOOOOOOOOOOOOOOOOOOOOOOOOOOO                                                              XXXXXXXXXXXXXXXXXXXXXXXXXXXXXXX$$$$$$$$$$$$$$$$$$$$$$$$$$$$$$$$...............................",
"...............................###############################XXXXXXXXXXXXXXXXXXXXXXXXXXXXXXXX###############################OOOOOOOOOOOOOOOOOOOOOOOOOOOOOOOOOOOOOOOOOOOOOOOOOOOOOOOOOOOOOO###############################################################OOOOOOOOOOOOOOOOOOOOOOOOOOOOOOOOOOOOOOOOOOOOOOOOOOOOOOOOOOOOOOOOOOOOOOOOOOOOOOOOOOOOOOOOOOOOOO##############################################################XXXXXXXXXXXXXXXXXXXXXXXXXXXXXXX################################...............................",
"...............................###############################XXXXXXXXXXXXXXXXXXXXXXXXXXXXXXXX###############################OOOOOOOOOOOOOOOOOOOOOOOOOOOOOOOOOOOOOOOOOOOOOOOOOOOOOOOOOOOOOO###############################################################OOOOOOOOOOOOOOOOOOOOOOOOOOOOOOOOOOOOOOOOOOOOOOOOOOOOOOOOOOOOOOOOOOOOOOOOOOOOOOOOOOOOOOOOOOOOOO##############################################################XXXXXXXXXXXXXXXXXXXXXXXXXXXXXXX################################...............................",
"...............................###############################XXXXXXXXXXXXXXXXXXXXXXXXXXXXXXXX###############################OOOOOOOOOOOOOOOOOOOOOOOOOOOOOOOOOOOOOOOOOOOOOOOOOOOOOOOOOOOOOO###############################################################OOOOOOOOOOOOOOOOOOOOOOOOOOOOOOOOOOOOOOOOOOOOOOOOOOOOOOOOOOOOOOOOOOOOOOOOOOOOOOOOOOOOOOOOOOOOOO##############################################################XXXXXXXXXXXXXXXXXXXXXXXXXXXXXXX################################...............................",
"...............................###############################XXXXXXXXXXXXXXXXXXXXXXXXXXXXXXXX###############################OOOOOOOOOOOOOOOOOOOOOOOOOOOOOOOOOOOOOOOOOOOOOOOOOOOOOOOOOOOOOO###############################################################OOOOOOOOOOOOOOOOOOOOOOOOOOOOOOOOOOOOOOOOOOOOOOOOOOOOOOOOOOOOOOOOOOOOOOOOOOOOOOOOOOOOOOOOOOOOOO##############################################################XXXXXXXXXXXXXXXXXXXXXXXXXXXXXXX################################...............................",
"...............................###############################XXXXXXXXXXXXXXXXXXXXXXXXXXXXXXXX###############################OOOOOOOOOOOOOOOOOOOOOOOOOOOOOOOOOOOOOOOOOOOOOOOOOOOOOOOOOOOOOO###############################################################OOOOOOOOOOOOOOOOOOOOOOOOOOOOOOOOOOOOOOOOOOOOOOOOOOOOOOOOOOOOOOOOOOOOOOOOOOOOOOOOOOOOOOOOOOOOOO##############################################################XXXXXXXXXXXXXXXXXXXXXXXXXXXXXXX################################...............................",
"...............................###############################XXXXXXXXXXXXXXXXXXXXXXXXXXXXXXXX###############################OOOOOOOOOOOOOOOOOOOOOOOOOOOOOOOOOOOOOOOOOOOOOOOOOOOOOOOOOOOOOO###############################################################OOOOOOOOOOOOOOOOOOOOOOOOOOOOOOOOOOOOOOOOOOOOOOOOOOOOOOOOOOOOOOOOOOOOOOOOOOOOOOOOOOOOOOOOOOOOOO##############################################################XXXXXXXXXXXXXXXXXXXXXXXXXXXXXXX################################...............................",
"...............................###############################XXXXXXXXXXXXXXXXXXXXXXXXXXXXXXXX###############################OOOOOOOOOOOOOOOOOOOOOOOOOOOOOOOOOOOOOOOOOOOOOOOOOOOOOOOOOOOOOO###############################################################OOOOOOOOOOOOOOOOOOOOOOOOOOOOOOOOOOOOOOOOOOOOOOOOOOOOOOOOOOOOOOOOOOOOOOOOOOOOOOOOOOOOOOOOOOOOOO##############################################################XXXXXXXXXXXXXXXXXXXXXXXXXXXXXXX################################...............................",
"...............................###############################XXXXXXXXXXXXXXXXXXXXXXXXXXXXXXXX###############################OOOOOOOOOOOOOOOOOOOOOOOOOOOOOOOOOOOOOOOOOOOOOOOOOOOOOOOOOOOOOO###############################################################OOOOOOOOOOOOOOOOOOOOOOOOOOOOOOOOOOOOOOOOOOOOOOOOOOOOOOOOOOOOOOOOOOOOOOOOOOOOOOOOOOOOOOOOOOOOOO##############################################################XXXXXXXXXXXXXXXXXXXXXXXXXXXXXXX################################...............................",
"...............................###############################XXXXXXXXXXXXXXXXXXXXXXXXXXXXXXXX###############################OOOOOOOOOOOOOOOOOOOOOOOOOOOOOOOOOOOOOOOOOOOOOOOOOOOOOOOOOOOOOO###############################################################OOOOOOOOOOOOOOOOOOOOOOOOOOOOOOOOOOOOOOOOOOOOOOOOOOOOOOOOOOOOOOOOOOOOOOOOOOOOOOOOOOOOOOOOOOOOOO##############################################################XXXXXXXXXXXXXXXXXXXXXXXXXXXXXXX################################...............................",
"...............................###############################XXXXXXXXXXXXXXXXXXXXXXXXXXXXXXXX###############################OOOOOOOOOOOOOOOOOOOOOOOOOOOOOOOOOOOOOOOOOOOOOOOOOOOOOOOOOOOOOO###############################################################OOOOOOOOOOOOOOOOOOOOOOOOOOOOOOOOOOOOOOOOOOOOOOOOOOOOOOOOOOOOOOOOOOOOOOOOOOOOOOOOOOOOOOOOOOOOOO##############################################################XXXXXXXXXXXXXXXXXXXXXXXXXXXXXXX################################...............................",
"...............................###############################XXXXXXXXXXXXXXXXXXXXXXXXXXXXXXXX###############################OOOOOOOOOOOOOOOOOOOOOOOOOOOOOOOOOOOOOOOOOOOOOOOOOOOOOOOOOOOOOO###############################################################OOOOOOOOOOOOOOOOOOOOOOOOOOOOOOOOOOOOOOOOOOOOOOOOOOOOOOOOOOOOOOOOOOOOOOOOOOOOOOOOOOOOOOOOOOOOOO##############################################################XXXXXXXXXXXXXXXXXXXXXXXXXXXXXXX################################...............................",
"...............................###############################XXXXXXXXXXXXXXXXXXXXXXXXXXXXXXXX###############################OOOOOOOOOOOOOOOOOOOOOOOOOOOOOOOOOOOOOOOOOOOOOOOOOOOOOOOOOOOOOO###############################################################OOOOOOOOOOOOOOOOOOOOOOOOOOOOOOOOOOOOOOOOOOOOOOOOOOOOOOOOOOOOOOOOOOOOOOOOOOOOOOOOOOOOOOOOOOOOOO##############################################################XXXXXXXXXXXXXXXXXXXXXXXXXXXXXXX################################...............................",
"...............................###############################XXXXXXXXXXXXXXXXXXXXXXXXXXXXXXXX###############################OOOOOOOOOOOOOOOOOOOOOOOOOOOOOOOOOOOOOOOOOOOOOOOOOOOOOOOOOOOOOO###############################################################OOOOOOOOOOOOOOOOOOOOOOOOOOOOOOOOOOOOOOOOOOOOOOOOOOOOOOOOOOOOOOOOOOOOOOOOOOOOOOOOOOOOOOOOOOOOOO##############################################################XXXXXXXXXXXXXXXXXXXXXXXXXXXXXXX################################...............................",
"...............................###############################XXXXXXXXXXXXXXXXXXXXXXXXXXXXXXXX###############################OOOOOOOOOOOOOOOOOOOOOOOOOOOOOOOOOOOOOOOOOOOOOOOOOOOOOOOOOOOOOO###############################################################OOOOOOOOOOOOOOOOOOOOOOOOOOOOOOOOOOOOOOOOOOOOOOOOOOOOOOOOOOOOOOOOOOOOOOOOOOOOOOOOOOOOOOOOOOOOOO##############################################################XXXXXXXXXXXXXXXXXXXXXXXXXXXXXXX################################...............................",
"...............................###############################XXXXXXXXXXXXXXXXXXXXXXXXXXXXXXXX###############################OOOOOOOOOOOOOOOOOOOOOOOOOOOOOOOOOOOOOOOOOOOOOOOOOOOOOOOOOOOOOO###############################################################OOOOOOOOOOOOOOOOOOOOOOOOOOOOOOOOOOOOOOOOOOOOOOOOOOOOOOOOOOOOOOOOOOOOOOOOOOOOOOOOOOOOOOOOOOOOOO##############################################################XXXXXXXXXXXXXXXXXXXXXXXXXXXXXXX################################...............................",
"...............................###############################XXXXXXXXXXXXXXXXXXXXXXXXXXXXXXXX###############################OOOOOOOOOOOOOOOOOOOOOOOOOOOOOOOOOOOOOOOOOOOOOOOOOOOOOOOOOOOOOO###############################################################OOOOOOOOOOOOOOOOOOOOOOOOOOOOOOOOOOOOOOOOOOOOOOOOOOOOOOOOOOOOOOOOOOOOOOOOOOOOOOOOOOOOOOOOOOOOOO##############################################################XXXXXXXXXXXXXXXXXXXXXXXXXXXXXXX################################...............................",
"...............................###############################XXXXXXXXXXXXXXXXXXXXXXXXXXXXXXXX###############################OOOOOOOOOOOOOOOOOOOOOOOOOOOOOOOOOOOOOOOOOOOOOOOOOOOOOOOOOOOOOO###############################################################OOOOOOOOOOOOOOOOOOOOOOOOOOOOOOOOOOOOOOOOOOOOOOOOOOOOOOOOOOOOOOOOOOOOOOOOOOOOOOOOOOOOOOOOOOOOOO##############################################################XXXXXXXXXXXXXXXXXXXXXXXXXXXXXXX################################...............................",
"...............................###############################XXXXXXXXXXXXXXXXXXXXXXXXXXXXXXXX###############################OOOOOOOOOOOOOOOOOOOOOOOOOOOOOOOOOOOOOOOOOOOOOOOOOOOOOOOOOOOOOO###############################################################OOOOOOOOOOOOOOOOOOOOOOOOOOOOOOOOOOOOOOOOOOOOOOOOOOOOOOOOOOOOOOOOOOOOOOOOOOOOOOOOOOOOOOOOOOOOOO##############################################################XXXXXXXXXXXXXXXXXXXXXXXXXXXXXXX################################...............................",
"...............................###############################XXXXXXXXXXXXXXXXXXXXXXXXXXXXXXXX###############################OOOOOOOOOOOOOOOOOOOOOOOOOOOOOOOOOOOOOOOOOOOOOOOOOOOOOOOOOOOOOO###############################################################OOOOOOOOOOOOOOOOOOOOOOOOOOOOOOOOOOOOOOOOOOOOOOOOOOOOOOOOOOOOOOOOOOOOOOOOOOOOOOOOOOOOOOOOOOOOOO##############################################################XXXXXXXXXXXXXXXXXXXXXXXXXXXXXXX################################...............................",
"...............................###############################XXXXXXXXXXXXXXXXXXXXXXXXXXXXXXXX###############################OOOOOOOOOOOOOOOOOOOOOOOOOOOOOOOOOOOOOOOOOOOOOOOOOOOOOOOOOOOOOO###############################################################OOOOOOOOOOOOOOOOOOOOOOOOOOOOOOOOOOOOOOOOOOOOOOOOOOOOOOOOOOOOOOOOOOOOOOOOOOOOOOOOOOOOOOOOOOOOOO##############################################################XXXXXXXXXXXXXXXXXXXXXXXXXXXXXXX################################...............................",
"...............................###############################XXXXXXXXXXXXXXXXXXXXXXXXXXXXXXXX###############################OOOOOOOOOOOOOOOOOOOOOOOOOOOOOOOOOOOOOOOOOOOOOOOOOOOOOOOOOOOOOO###############################################################OOOOOOOOOOOOOOOOOOOOOOOOOOOOOOOOOOOOOOOOOOOOOOOOOOOOOOOOOOOOOOOOOOOOOOOOOOOOOOOOOOOOOOOOOOOOOO##############################################################XXXXXXXXXXXXXXXXXXXXXXXXXXXXXXX################################...............................",
"...............................###############################XXXXXXXXXXXXXXXXXXXXXXXXXXXXXXXX###############################OOOOOOOOOOOOOOOOOOOOOOOOOOOOOOOOOOOOOOOOOOOOOOOOOOOOOOOOOOOOOO###############################################################OOOOOOOOOOOOOOOOOOOOOOOOOOOOOOOOOOOOOOOOOOOOOOOOOOOOOOOOOOOOOOOOOOOOOOOOOOOOOOOOOOOOOOOOOOOOOO##############################################################XXXXXXXXXXXXXXXXXXXXXXXXXXXXXXX################################...............................",
"...............................###############################XXXXXXXXXXXXXXXXXXXXXXXXXXXXXXXX###############################OOOOOOOOOOOOOOOOOOOOOOOOOOOOOOOOOOOOOOOOOOOOOOOOOOOOOOOOOOOOOO###############################################################OOOOOOOOOOOOOOOOOOOOOOOOOOOOOOOOOOOOOOOOOOOOOOOOOOOOOOOOOOOOOOOOOOOOOOOOOOOOOOOOOOOOOOOOOOOOOO##############################################################XXXXXXXXXXXXXXXXXXXXXXXXXXXXXXX################################...............................",
"...............................###############################XXXXXXXXXXXXXXXXXXXXXXXXXXXXXXXX###############################OOOOOOOOOOOOOOOOOOOOOOOOOOOOOOOOOOOOOOOOOOOOOOOOOOOOOOOOOOOOOO###############################################################OOOOOOOOOOOOOOOOOOOOOOOOOOOOOOOOOOOOOOOOOOOOOOOOOOOOOOOOOOOOOOOOOOOOOOOOOOOOOOOOOOOOOOOOOOOOOO##############################################################XXXXXXXXXXXXXXXXXXXXXXXXXXXXXXX################################...............................",
"...............................###############################XXXXXXXXXXXXXXXXXXXXXXXXXXXXXXXX###############################OOOOOOOOOOOOOOOOOOOOOOOOOOOOOOOOOOOOOOOOOOOOOOOOOOOOOOOOOOOOOO###############################################################OOOOOOOOOOOOOOOOOOOOOOOOOOOOOOOOOOOOOOOOOOOOOOOOOOOOOOOOOOOOOOOOOOOOOOOOOOOOOOOOOOOOOOOOOOOOOO##############################################################XXXXXXXXXXXXXXXXXXXXXXXXXXXXXXX################################...............................",
"...............................###############################XXXXXXXXXXXXXXXXXXXXXXXXXXXXXXXX###############################OOOOOOOOOOOOOOOOOOOOOOOOOOOOOOOOOOOOOOOOOOOOOOOOOOOOOOOOOOOOOO###############################################################OOOOOOOOOOOOOOOOOOOOOOOOOOOOOOOOOOOOOOOOOOOOOOOOOOOOOOOOOOOOOOOOOOOOOOOOOOOOOOOOOOOOOOOOOOOOOO##############################################################XXXXXXXXXXXXXXXXXXXXXXXXXXXXXXX################################...............................",
"...............................###############################XXXXXXXXXXXXXXXXXXXXXXXXXXXXXXXX###############################OOOOOOOOOOOOOOOOOOOOOOOOOOOOOOOOOOOOOOOOOOOOOOOOOOOOOOOOOOOOOO###############################################################OOOOOOOOOOOOOOOOOOOOOOOOOOOOOOOOOOOOOOOOOOOOOOOOOOOOOOOOOOOOOOOOOOOOOOOOOOOOOOOOOOOOOOOOOOOOOO##############################################################XXXXXXXXXXXXXXXXXXXXXXXXXXXXXXX################################...............................",
"...............................###############################XXXXXXXXXXXXXXXXXXXXXXXXXXXXXXXX###############################OOOOOOOOOOOOOOOOOOOOOOOOOOOOOOOOOOOOOOOOOOOOOOOOOOOOOOOOOOOOOO###############################################################OOOOOOOOOOOOOOOOOOOOOOOOOOOOOOOOOOOOOOOOOOOOOOOOOOOOOOOOOOOOOOOOOOOOOOOOOOOOOOOOOOOOOOOOOOOOOO##############################################################XXXXXXXXXXXXXXXXXXXXXXXXXXXXXXX################################...............................",
"...............................###############################XXXXXXXXXXXXXXXXXXXXXXXXXXXXXXXX###############################OOOOOOOOOOOOOOOOOOOOOOOOOOOOOOOOOOOOOOOOOOOOOOOOOOOOOOOOOOOOOO###############################################################OOOOOOOOOOOOOOOOOOOOOOOOOOOOOOOOOOOOOOOOOOOOOOOOOOOOOOOOOOOOOOOOOOOOOOOOOOOOOOOOOOOOOOOOOOOOOO##############################################################XXXXXXXXXXXXXXXXXXXXXXXXXXXXXXX################################...............................",
"...............................###############################XXXXXXXXXXXXXXXXXXXXXXXXXXXXXXXX###############################OOOOOOOOOOOOOOOOOOOOOOOOOOOOOOOOOOOOOOOOOOOOOOOOOOOOOOOOOOOOOO###############################################################OOOOOOOOOOOOOOOOOOOOOOOOOOOOOOOOOOOOOOOOOOOOOOOOOOOOOOOOOOOOOOOOOOOOOOOOOOOOOOOOOOOOOOOOOOOOOO##############################################################XXXXXXXXXXXXXXXXXXXXXXXXXXXXXXX################################...............................",
"...............................###############################XXXXXXXXXXXXXXXXXXXXXXXXXXXXXXXX###############################OOOOOOOOOOOOOOOOOOOOOOOOOOOOOOOOOOOOOOOOOOOOOOOOOOOOOOOOOOOOOO###############################################################OOOOOOOOOOOOOOOOOOOOOOOOOOOOOOOOOOOOOOOOOOOOOOOOOOOOOOOOOOOOOOOOOOOOOOOOOOOOOOOOOOOOOOOOOOOOOO##############################################################XXXXXXXXXXXXXXXXXXXXXXXXXXXXXXX################################...............................",
"XXXXXXXXXXXXXXXXXXXXXXXXXXXXXXX###############################XXXXXXXXXXXXXXXXXXXXXXXXXXXXXXXX                                                              ###############################                                                               OOOOOOOOOOOOOOOOOOOOOOOOOOOOOOO                                                               ###############################                               ...............................################################...............................",
"XXXXXXXXXXXXXXXXXXXXXXXXXXXXXXX###############################XXXXXXXXXXXXXXXXXXXXXXXXXXXXXXXX                                                              ###############################                                                               OOOOOOOOOOOOOOOOOOOOOOOOOOOOOOO                                                               ###############################                               ...............................################################...............................",
"XXXXXXXXXXXXXXXXXXXXXXXXXXXXXXX###############################XXXXXXXXXXXXXXXXXXXXXXXXXXXXXXXX                                                              ###############################                                                               OOOOOOOOOOOOOOOOOOOOOOOOOOOOOOO                                                               ###############################                               ...............................################################...............................",
"XXXXXXXXXXXXXXXXXXXXXXXXXXXXXXX###############################XXXXXXXXXXXXXXXXXXXXXXXXXXXXXXXX                                                              ###############################                                                               OOOOOOOOOOOOOOOOOOOOOOOOOOOOOOO                                                               ###############################                               ...............................################################...............................",
"XXXXXXXXXXXXXXXXXXXXXXXXXXXXXXX###############################XXXXXXXXXXXXXXXXXXXXXXXXXXXXXXXX                                                              ###############################                                                               OOOOOOOOOOOOOOOOOOOOOOOOOOOOOOO                                                               ###############################                               ...............................################################...............................",
"XXXXXXXXXXXXXXXXXXXXXXXXXXXXXXX###############################XXXXXXXXXXXXXXXXXXXXXXXXXXXXXXXX                                                              ###############################                                                               OOOOOOOOOOOOOOOOOOOOOOOOOOOOOOO                                                               ###############################                               ...............................################################...............................",
"XXXXXXXXXXXXXXXXXXXXXXXXXXXXXXX###############################XXXXXXXXXXXXXXXXXXXXXXXXXXXXXXXX                                                              ###############################                                                               OOOOOOOOOOOOOOOOOOOOOOOOOOOOOOO                                                               ###############################                               ...............................################################...............................",
"XXXXXXXXXXXXXXXXXXXXXXXXXXXXXXX###############################XXXXXXXXXXXXXXXXXXXXXXXXXXXXXXXX                                                              ###############################                                                               OOOOOOOOOOOOOOOOOOOOOOOOOOOOOOO                                                               ###############################                               ...............................################################...............................",
"XXXXXXXXXXXXXXXXXXXXXXXXXXXXXXX###############################XXXXXXXXXXXXXXXXXXXXXXXXXXXXXXXX                                                              ###############################                                                               OOOOOOOOOOOOOOOOOOOOOOOOOOOOOOO                                                               ###############################                               ...............................################################...............................",
"XXXXXXXXXXXXXXXXXXXXXXXXXXXXXXX###############################XXXXXXXXXXXXXXXXXXXXXXXXXXXXXXXX                                                              ###############################                                                               OOOOOOOOOOOOOOOOOOOOOOOOOOOOOOO                                                               ###############################                               ...............................################################...............................",
"XXXXXXXXXXXXXXXXXXXXXXXXXXXXXXX###############################XXXXXXXXXXXXXXXXXXXXXXXXXXXXXXXX                                                              ###############################                                                               OOOOOOOOOOOOOOOOOOOOOOOOOOOOOOO                                                               ###############################                               ...............................################################...............................",
"XXXXXXXXXXXXXXXXXXXXXXXXXXXXXXX###############################XXXXXXXXXXXXXXXXXXXXXXXXXXXXXXXX                                                              ###############################                                                               OOOOOOOOOOOOOOOOOOOOOOOOOOOOOOO                                                               ###############################                               ...............................################################...............................",
"XXXXXXXXXXXXXXXXXXXXXXXXXXXXXXX###############################XXXXXXXXXXXXXXXXXXXXXXXXXXXXXXXX                                                              ###############################                                                               OOOOOOOOOOOOOOOOOOOOOOOOOOOOOOO                                                               ###############################                               ...............................################################...............................",
"XXXXXXXXXXXXXXXXXXXXXXXXXXXXXXX###############################XXXXXXXXXXXXXXXXXXXXXXXXXXXXXXXX                                                              ###############################                                                               OOOOOOOOOOOOOOOOOOOOOOOOOOOOOOO                                                               ###############################                               ...............................################################...............................",
"XXXXXXXXXXXXXXXXXXXXXXXXXXXXXXX###############################XXXXXXXXXXXXXXXXXXXXXXXXXXXXXXXX                                                              ###############################                                                               OOOOOOOOOOOOOOOOOOOOOOOOOOOOOOO                                                               ###############################                               ...............................################################...............................",
"XXXXXXXXXXXXXXXXXXXXXXXXXXXXXXX###############################XXXXXXXXXXXXXXXXXXXXXXXXXXXXXXXX                                                              ###############################                                                               OOOOOOOOOOOOOOOOOOOOOOOOOOOOOOO                                                               ###############################                               ...............................################################...............................",
"XXXXXXXXXXXXXXXXXXXXXXXXXXXXXXX###############################XXXXXXXXXXXXXXXXXXXXXXXXXXXXXXXX                                                              ###############################                                                               OOOOOOOOOOOOOOOOOOOOOOOOOOOOOOO                                                               ###############################                               ...............................################################...............................",
"XXXXXXXXXXXXXXXXXXXXXXXXXXXXXXX###############################XXXXXXXXXXXXXXXXXXXXXXXXXXXXXXXX                                                              ###############################                                                               OOOOOOOOOOOOOOOOOOOOOOOOOOOOOOO                                                               ###############################                               ...............................################################...............................",
"XXXXXXXXXXXXXXXXXXXXXXXXXXXXXXX###############################XXXXXXXXXXXXXXXXXXXXXXXXXXXXXXXX                                                              ###############################                                                               OOOOOOOOOOOOOOOOOOOOOOOOOOOOOOO                                                               ###############################                               ...............................################################...............................",
"XXXXXXXXXXXXXXXXXXXXXXXXXXXXXXX###############################XXXXXXXXXXXXXXXXXXXXXXXXXXXXXXXX                                                              ###############################                                                               OOOOOOOOOOOOOOOOOOOOOOOOOOOOOOO                                                               ###############################                               ...............................################################...............................",
"XXXXXXXXXXXXXXXXXXXXXXXXXXXXXXX###############################XXXXXXXXXXXXXXXXXXXXXXXXXXXXXXXX                                                              ###############################                                                               OOOOOOOOOOOOOOOOOOOOOOOOOOOOOOO                                                               ###############################                               ...............................################################...............................",
"XXXXXXXXXXXXXXXXXXXXXXXXXXXXXXX###############################XXXXXXXXXXXXXXXXXXXXXXXXXXXXXXXX                                                              ###############################                                                               OOOOOOOOOOOOOOOOOOOOOOOOOOOOOOO                                                               ###############################                               ...............................################################...............................",
"XXXXXXXXXXXXXXXXXXXXXXXXXXXXXXX###############################XXXXXXXXXXXXXXXXXXXXXXXXXXXXXXXX                                                              ###############################                                                               OOOOOOOOOOOOOOOOOOOOOOOOOOOOOOO                                                               ###############################                               ...............................################################...............................",
"XXXXXXXXXXXXXXXXXXXXXXXXXXXXXXX###############################XXXXXXXXXXXXXXXXXXXXXXXXXXXXXXXX                                                              ###############################                                                               OOOOOOOOOOOOOOOOOOOOOOOOOOOOOOO                                                               ###############################                               ...............................################################...............................",
"XXXXXXXXXXXXXXXXXXXXXXXXXXXXXXX###############################XXXXXXXXXXXXXXXXXXXXXXXXXXXXXXXX                                                              ###############################                                                               OOOOOOOOOOOOOOOOOOOOOOOOOOOOOOO                                                               ###############################                               ...............................################################...............................",
"XXXXXXXXXXXXXXXXXXXXXXXXXXXXXXX###############################XXXXXXXXXXXXXXXXXXXXXXXXXXXXXXXX                                                              ###############################                                                               OOOOOOOOOOOOOOOOOOOOOOOOOOOOOOO                                                               ###############################                               ...............................################################...............................",
"XXXXXXXXXXXXXXXXXXXXXXXXXXXXXXX###############################XXXXXXXXXXXXXXXXXXXXXXXXXXXXXXXX                                                              ###############################                                                               OOOOOOOOOOOOOOOOOOOOOOOOOOOOOOO                                                               ###############################                               ...............................################################...............................",
"XXXXXXXXXXXXXXXXXXXXXXXXXXXXXXX###############################XXXXXXXXXXXXXXXXXXXXXXXXXXXXXXXX                                                              ###############################                                                               OOOOOOOOOOOOOOOOOOOOOOOOOOOOOOO                                                               ###############################                               ...............................################################...............................",
"XXXXXXXXXXXXXXXXXXXXXXXXXXXXXXX###############################XXXXXXXXXXXXXXXXXXXXXXXXXXXXXXXX                                                              ###############################                                                               OOOOOOOOOOOOOOOOOOOOOOOOOOOOOOO                                                               ###############################                               ...............................################################...............................",
"XXXXXXXXXXXXXXXXXXXXXXXXXXXXXXX###############################XXXXXXXXXXXXXXXXXXXXXXXXXXXXXXXX                                                              ###############################                                                               OOOOOOOOOOOOOOOOOOOOOOOOOOOOOOO                                                               ###############################                               ...............................################################...............................",
"XXXXXXXXXXXXXXXXXXXXXXXXXXXXXXX###############################XXXXXXXXXXXXXXXXXXXXXXXXXXXXXXXX                                                              ###############################                                                               OOOOOOOOOOOOOOOOOOOOOOOOOOOOOOO                                                               ###############################                               ...............................################################...............................",
"XXXXXXXXXXXXXXXXXXXXXXXXXXXXXXX$$$$$$$$$$$$$$$$$$$$$$$$$$$$$$$ooooooooooooooooooooooooooooooooooooooooooooooooooooooooooooooo..............................................................................................XXXXXXXXXXXXXXXXXXXXXXXXXXXXXXXXXXXXXXXXXXXXXXXXXXXXXXXXXXXXXXXXXXXXXXXXXXXXXXXXXXXXXXXXXXXXXXXXXXXXXXXXXXXXXXXXXXXXXXXXXXXXX...............................oooooooooooooooooooooooooooooooooooooooooooooooooooooooooooooo$$$$$$$$$$$$$$$$$$$$$$$$$$$$$$$$...............................",
"XXXXXXXXXXXXXXXXXXXXXXXXXXXXXXX$$$$$$$$$$$$$$$$$$$$$$$$$$$$$$$ooooooooooooooooooooooooooooooooooooooooooooooooooooooooooooooo..............................................................................................XXXXXXXXXXXXXXXXXXXXXXXXXXXXXXXXXXXXXXXXXXXXXXXXXXXXXXXXXXXXXXXXXXXXXXXXXXXXXXXXXXXXXXXXXXXXXXXXXXXXXXXXXXXXXXXXXXXXXXXXXXXXX...............................oooooooooooooooooooooooooooooooooooooooooooooooooooooooooooooo$$$$$$$$$$$$$$$$$$$$$$$$$$$$$$$$...............................",
"XXXXXXXXXXXXXXXXXXXXXXXXXXXXXXX$$$$$$$$$$$$$$$$$$$$$$$$$$$$$$$ooooooooooooooooooooooooooooooooooooooooooooooooooooooooooooooo..............................................................................................XXXXXXXXXXXXXXXXXXXXXXXXXXXXXXXXXXXXXXXXXXXXXXXXXXXXXXXXXXXXXXXXXXXXXXXXXXXXXXXXXXXXXXXXXXXXXXXXXXXXXXXXXXXXXXXXXXXXXXXXXXXXX...............................oooooooooooooooooooooooooooooooooooooooooooooooooooooooooooooo$$$$$$$$$$$$$$$$$$$$$$$$$$$$$$$$...............................",
"XXXXXXXXXXXXXXXXXXXXXXXXXXXXXXX$$$$$$$$$$$$$$$$$$$$$$$$$$$$$$$ooooooooooooooooooooooooooooooooooooooooooooooooooooooooooooooo..............................................................................................XXXXXXXXXXXXXXXXXXXXXXXXXXXXXXXXXXXXXXXXXXXXXXXXXXXXXXXXXXXXXXXXXXXXXXXXXXXXXXXXXXXXXXXXXXXXXXXXXXXXXXXXXXXXXXXXXXXXXXXXXXXXX...............................oooooooooooooooooooooooooooooooooooooooooooooooooooooooooooooo$$$$$$$$$$$$$$$$$$$$$$$$$$$$$$$$...............................",
"XXXXXXXXXXXXXXXXXXXXXXXXXXXXXXX$$$$$$$$$$$$$$$$$$$$$$$$$$$$$$$ooooooooooooooooooooooooooooooooooooooooooooooooooooooooooooooo..............................................................................................XXXXXXXXXXXXXXXXXXXXXXXXXXXXXXXXXXXXXXXXXXXXXXXXXXXXXXXXXXXXXXXXXXXXXXXXXXXXXXXXXXXXXXXXXXXXXXXXXXXXXXXXXXXXXXXXXXXXXXXXXXXXX...............................oooooooooooooooooooooooooooooooooooooooooooooooooooooooooooooo$$$$$$$$$$$$$$$$$$$$$$$$$$$$$$$$...............................",
"XXXXXXXXXXXXXXXXXXXXXXXXXXXXXXX$$$$$$$$$$$$$$$$$$$$$$$$$$$$$$$ooooooooooooooooooooooooooooooooooooooooooooooooooooooooooooooo..............................................................................................XXXXXXXXXXXXXXXXXXXXXXXXXXXXXXXXXXXXXXXXXXXXXXXXXXXXXXXXXXXXXXXXXXXXXXXXXXXXXXXXXXXXXXXXXXXXXXXXXXXXXXXXXXXXXXXXXXXXXXXXXXXXX...............................oooooooooooooooooooooooooooooooooooooooooooooooooooooooooooooo$$$$$$$$$$$$$$$$$$$$$$$$$$$$$$$$...............................",
"XXXXXXXXXXXXXXXXXXXXXXXXXXXXXXX$$$$$$$$$$$$$$$$$$$$$$$$$$$$$$$ooooooooooooooooooooooooooooooooooooooooooooooooooooooooooooooo..............................................................................................XXXXXXXXXXXXXXXXXXXXXXXXXXXXXXXXXXXXXXXXXXXXXXXXXXXXXXXXXXXXXXXXXXXXXXXXXXXXXXXXXXXXXXXXXXXXXXXXXXXXXXXXXXXXXXXXXXXXXXXXXXXXX...............................oooooooooooooooooooooooooooooooooooooooooooooooooooooooooooooo$$$$$$$$$$$$$$$$$$$$$$$$$$$$$$$$...............................",
"XXXXXXXXXXXXXXXXXXXXXXXXXXXXXXX$$$$$$$$$$$$$$$$$$$$$$$$$$$$$$$ooooooooooooooooooooooooooooooooooooooooooooooooooooooooooooooo..............................................................................................XXXXXXXXXXXXXXXXXXXXXXXXXXXXXXXXXXXXXXXXXXXXXXXXXXXXXXXXXXXXXXXXXXXXXXXXXXXXXXXXXXXXXXXXXXXXXXXXXXXXXXXXXXXXXXXXXXXXXXXXXXXXX...............................oooooooooooooooooooooooooooooooooooooooooooooooooooooooooooooo$$$$$$$$$$$$$$$$$$$$$$$$$$$$$$$$...............................",
"XXXXXXXXXXXXXXXXXXXXXXXXXXXXXXX$$$$$$$$$$$$$$$$$$$$$$$$$$$$$$$ooooooooooooooooooooooooooooooooooooooooooooooooooooooooooooooo..............................................................................................XXXXXXXXXXXXXXXXXXXXXXXXXXXXXXXXXXXXXXXXXXXXXXXXXXXXXXXXXXXXXXXXXXXXXXXXXXXXXXXXXXXXXXXXXXXXXXXXXXXXXXXXXXXXXXXXXXXXXXXXXXXXX...............................oooooooooooooooooooooooooooooooooooooooooooooooooooooooooooooo$$$$$$$$$$$$$$$$$$$$$$$$$$$$$$$$...............................",
"XXXXXXXXXXXXXXXXXXXXXXXXXXXXXXX$$$$$$$$$$$$$$$$$$$$$$$$$$$$$$$ooooooooooooooooooooooooooooooooooooooooooooooooooooooooooooooo..............................................................................................XXXXXXXXXXXXXXXXXXXXXXXXXXXXXXXXXXXXXXXXXXXXXXXXXXXXXXXXXXXXXXXXXXXXXXXXXXXXXXXXXXXXXXXXXXXXXXXXXXXXXXXXXXXXXXXXXXXXXXXXXXXXX...............................oooooooooooooooooooooooooooooooooooooooooooooooooooooooooooooo$$$$$$$$$$$$$$$$$$$$$$$$$$$$$$$$...............................",
"XXXXXXXXXXXXXXXXXXXXXXXXXXXXXXX$$$$$$$$$$$$$$$$$$$$$$$$$$$$$$$ooooooooooooooooooooooooooooooooooooooooooooooooooooooooooooooo..............................................................................................XXXXXXXXXXXXXXXXXXXXXXXXXXXXXXXXXXXXXXXXXXXXXXXXXXXXXXXXXXXXXXXXXXXXXXXXXXXXXXXXXXXXXXXXXXXXXXXXXXXXXXXXXXXXXXXXXXXXXXXXXXXXX...............................oooooooooooooooooooooooooooooooooooooooooooooooooooooooooooooo$$$$$$$$$$$$$$$$$$$$$$$$$$$$$$$$...............................",
"XXXXXXXXXXXXXXXXXXXXXXXXXXXXXXX$$$$$$$$$$$$$$$$$$$$$$$$$$$$$$$ooooooooooooooooooooooooooooooooooooooooooooooooooooooooooooooo..............................................................................................XXXXXXXXXXXXXXXXXXXXXXXXXXXXXXXXXXXXXXXXXXXXXXXXXXXXXXXXXXXXXXXXXXXXXXXXXXXXXXXXXXXXXXXXXXXXXXXXXXXXXXXXXXXXXXXXXXXXXXXXXXXXX...............................oooooooooooooooooooooooooooooooooooooooooooooooooooooooooooooo$$$$$$$$$$$$$$$$$$$$$$$$$$$$$$$$...............................",
"XXXXXXXXXXXXXXXXXXXXXXXXXXXXXXX$$$$$$$$$$$$$$$$$$$$$$$$$$$$$$$ooooooooooooooooooooooooooooooooooooooooooooooooooooooooooooooo..............................................................................................XXXXXXXXXXXXXXXXXXXXXXXXXXXXXXXXXXXXXXXXXXXXXXXXXXXXXXXXXXXXXXXXXXXXXXXXXXXXXXXXXXXXXXXXXXXXXXXXXXXXXXXXXXXXXXXXXXXXXXXXXXXXX...............................oooooooooooooooooooooooooooooooooooooooooooooooooooooooooooooo$$$$$$$$$$$$$$$$$$$$$$$$$$$$$$$$...............................",
"XXXXXXXXXXXXXXXXXXXXXXXXXXXXXXX$$$$$$$$$$$$$$$$$$$$$$$$$$$$$$$ooooooooooooooooooooooooooooooooooooooooooooooooooooooooooooooo..............................................................................................XXXXXXXXXXXXXXXXXXXXXXXXXXXXXXXXXXXXXXXXXXXXXXXXXXXXXXXXXXXXXXXXXXXXXXXXXXXXXXXXXXXXXXXXXXXXXXXXXXXXXXXXXXXXXXXXXXXXXXXXXXXXX...............................oooooooooooooooooooooooooooooooooooooooooooooooooooooooooooooo$$$$$$$$$$$$$$$$$$$$$$$$$$$$$$$$...............................",
"XXXXXXXXXXXXXXXXXXXXXXXXXXXXXXX$$$$$$$$$$$$$$$$$$$$$$$$$$$$$$$ooooooooooooooooooooooooooooooooooooooooooooooooooooooooooooooo..............................................................................................XXXXXXXXXXXXXXXXXXXXXXXXXXXXXXXXXXXXXXXXXXXXXXXXXXXXXXXXXXXXXXXXXXXXXXXXXXXXXXXXXXXXXXXXXXXXXXXXXXXXXXXXXXXXXXXXXXXXXXXXXXXXX...............................oooooooooooooooooooooooooooooooooooooooooooooooooooooooooooooo$$$$$$$$$$$$$$$$$$$$$$$$$$$$$$$$...............................",
"XXXXXXXXXXXXXXXXXXXXXXXXXXXXXXX$$$$$$$$$$$$$$$$$$$$$$$$$$$$$$$ooooooooooooooooooooooooooooooooooooooooooooooooooooooooooooooo..............................................................................................XXXXXXXXXXXXXXXXXXXXXXXXXXXXXXXXXXXXXXXXXXXXXXXXXXXXXXXXXXXXXXXXXXXXXXXXXXXXXXXXXXXXXXXXXXXXXXXXXXXXXXXXXXXXXXXXXXXXXXXXXXXXX...............................oooooooooooooooooooooooooooooooooooooooooooooooooooooooooooooo$$$$$$$$$$$$$$$$$$$$$$$$$$$$$$$$...............................",
"XXXXXXXXXXXXXXXXXXXXXXXXXXXXXXX$$$$$$$$$$$$$$$$$$$$$$$$$$$$$$$ooooooooooooooooooooooooooooooooooooooooooooooooooooooooooooooo..............................................................................................XXXXXXXXXXXXXXXXXXXXXXXXXXXXXXXXXXXXXXXXXXXXXXXXXXXXXXXXXXXXXXXXXXXXXXXXXXXXXXXXXXXXXXXXXXXXXXXXXXXXXXXXXXXXXXXXXXXXXXXXXXXXX...............................oooooooooooooooooooooooooooooooooooooooooooooooooooooooooooooo$$$$$$$$$$$$$$$$$$$$$$$$$$$$$$$$...............................",
"XXXXXXXXXXXXXXXXXXXXXXXXXXXXXXX$$$$$$$$$$$$$$$$$$$$$$$$$$$$$$$ooooooooooooooooooooooooooooooooooooooooooooooooooooooooooooooo..............................................................................................XXXXXXXXXXXXXXXXXXXXXXXXXXXXXXXXXXXXXXXXXXXXXXXXXXXXXXXXXXXXXXXXXXXXXXXXXXXXXXXXXXXXXXXXXXXXXXXXXXXXXXXXXXXXXXXXXXXXXXXXXXXXX...............................oooooooooooooooooooooooooooooooooooooooooooooooooooooooooooooo$$$$$$$$$$$$$$$$$$$$$$$$$$$$$$$$...............................",
"XXXXXXXXXXXXXXXXXXXXXXXXXXXXXXX$$$$$$$$$$$$$$$$$$$$$$$$$$$$$$$ooooooooooooooooooooooooooooooooooooooooooooooooooooooooooooooo..............................................................................................XXXXXXXXXXXXXXXXXXXXXXXXXXXXXXXXXXXXXXXXXXXXXXXXXXXXXXXXXXXXXXXXXXXXXXXXXXXXXXXXXXXXXXXXXXXXXXXXXXXXXXXXXXXXXXXXXXXXXXXXXXXXX...............................oooooooooooooooooooooooooooooooooooooooooooooooooooooooooooooo$$$$$$$$$$$$$$$$$$$$$$$$$$$$$$$$...............................",
"XXXXXXXXXXXXXXXXXXXXXXXXXXXXXXX$$$$$$$$$$$$$$$$$$$$$$$$$$$$$$$ooooooooooooooooooooooooooooooooooooooooooooooooooooooooooooooo..............................................................................................XXXXXXXXXXXXXXXXXXXXXXXXXXXXXXXXXXXXXXXXXXXXXXXXXXXXXXXXXXXXXXXXXXXXXXXXXXXXXXXXXXXXXXXXXXXXXXXXXXXXXXXXXXXXXXXXXXXXXXXXXXXXX...............................oooooooooooooooooooooooooooooooooooooooooooooooooooooooooooooo$$$$$$$$$$$$$$$$$$$$$$$$$$$$$$$$...............................",
"XXXXXXXXXXXXXXXXXXXXXXXXXXXXXXX$$$$$$$$$$$$$$$$$$$$$$$$$$$$$$$ooooooooooooooooooooooooooooooooooooooooooooooooooooooooooooooo..............................................................................................XXXXXXXXXXXXXXXXXXXXXXXXXXXXXXXXXXXXXXXXXXXXXXXXXXXXXXXXXXXXXXXXXXXXXXXXXXXXXXXXXXXXXXXXXXXXXXXXXXXXXXXXXXXXXXXXXXXXXXXXXXXXX...............................oooooooooooooooooooooooooooooooooooooooooooooooooooooooooooooo$$$$$$$$$$$$$$$$$$$$$$$$$$$$$$$$...............................",
"XXXXXXXXXXXXXXXXXXXXXXXXXXXXXXX$$$$$$$$$$$$$$$$$$$$$$$$$$$$$$$ooooooooooooooooooooooooooooooooooooooooooooooooooooooooooooooo..............................................................................................XXXXXXXXXXXXXXXXXXXXXXXXXXXXXXXXXXXXXXXXXXXXXXXXXXXXXXXXXXXXXXXXXXXXXXXXXXXXXXXXXXXXXXXXXXXXXXXXXXXXXXXXXXXXXXXXXXXXXXXXXXXXX...............................oooooooooooooooooooooooooooooooooooooooooooooooooooooooooooooo$$$$$$$$$$$$$$$$$$$$$$$$$$$$$$$$...............................",
"XXXXXXXXXXXXXXXXXXXXXXXXXXXXXXX$$$$$$$$$$$$$$$$$$$$$$$$$$$$$$$ooooooooooooooooooooooooooooooooooooooooooooooooooooooooooooooo..............................................................................................XXXXXXXXXXXXXXXXXXXXXXXXXXXXXXXXXXXXXXXXXXXXXXXXXXXXXXXXXXXXXXXXXXXXXXXXXXXXXXXXXXXXXXXXXXXXXXXXXXXXXXXXXXXXXXXXXXXXXXXXXXXXX...............................oooooooooooooooooooooooooooooooooooooooooooooooooooooooooooooo$$$$$$$$$$$$$$$$$$$$$$$$$$$$$$$$...............................",
"XXXXXXXXXXXXXXXXXXXXXXXXXXXXXXX$$$$$$$$$$$$$$$$$$$$$$$$$$$$$$$ooooooooooooooooooooooooooooooooooooooooooooooooooooooooooooooo..............................................................................................XXXXXXXXXXXXXXXXXXXXXXXXXXXXXXXXXXXXXXXXXXXXXXXXXXXXXXXXXXXXXXXXXXXXXXXXXXXXXXXXXXXXXXXXXXXXXXXXXXXXXXXXXXXXXXXXXXXXXXXXXXXXX...............................oooooooooooooooooooooooooooooooooooooooooooooooooooooooooooooo$$$$$$$$$$$$$$$$$$$$$$$$$$$$$$$$...............................",
"XXXXXXXXXXXXXXXXXXXXXXXXXXXXXXX$$$$$$$$$$$$$$$$$$$$$$$$$$$$$$$ooooooooooooooooooooooooooooooooooooooooooooooooooooooooooooooo..............................................................................................XXXXXXXXXXXXXXXXXXXXXXXXXXXXXXXXXXXXXXXXXXXXXXXXXXXXXXXXXXXXXXXXXXXXXXXXXXXXXXXXXXXXXXXXXXXXXXXXXXXXXXXXXXXXXXXXXXXXXXXXXXXXX...............................oooooooooooooooooooooooooooooooooooooooooooooooooooooooooooooo$$$$$$$$$$$$$$$$$$$$$$$$$$$$$$$$...............................",
"XXXXXXXXXXXXXXXXXXXXXXXXXXXXXXX$$$$$$$$$$$$$$$$$$$$$$$$$$$$$$$ooooooooooooooooooooooooooooooooooooooooooooooooooooooooooooooo..............................................................................................XXXXXXXXXXXXXXXXXXXXXXXXXXXXXXXXXXXXXXXXXXXXXXXXXXXXXXXXXXXXXXXXXXXXXXXXXXXXXXXXXXXXXXXXXXXXXXXXXXXXXXXXXXXXXXXXXXXXXXXXXXXXX...............................oooooooooooooooooooooooooooooooooooooooooooooooooooooooooooooo$$$$$$$$$$$$$$$$$$$$$$$$$$$$$$$$...............................",
"XXXXXXXXXXXXXXXXXXXXXXXXXXXXXXX$$$$$$$$$$$$$$$$$$$$$$$$$$$$$$$ooooooooooooooooooooooooooooooooooooooooooooooooooooooooooooooo..............................................................................................XXXXXXXXXXXXXXXXXXXXXXXXXXXXXXXXXXXXXXXXXXXXXXXXXXXXXXXXXXXXXXXXXXXXXXXXXXXXXXXXXXXXXXXXXXXXXXXXXXXXXXXXXXXXXXXXXXXXXXXXXXXXX...............................oooooooooooooooooooooooooooooooooooooooooooooooooooooooooooooo$$$$$$$$$$$$$$$$$$$$$$$$$$$$$$$$...............................",
"XXXXXXXXXXXXXXXXXXXXXXXXXXXXXXX$$$$$$$$$$$$$$$$$$$$$$$$$$$$$$$ooooooooooooooooooooooooooooooooooooooooooooooooooooooooooooooo..............................................................................................XXXXXXXXXXXXXXXXXXXXXXXXXXXXXXXXXXXXXXXXXXXXXXXXXXXXXXXXXXXXXXXXXXXXXXXXXXXXXXXXXXXXXXXXXXXXXXXXXXXXXXXXXXXXXXXXXXXXXXXXXXXXX...............................oooooooooooooooooooooooooooooooooooooooooooooooooooooooooooooo$$$$$$$$$$$$$$$$$$$$$$$$$$$$$$$$...............................",
"XXXXXXXXXXXXXXXXXXXXXXXXXXXXXXX$$$$$$$$$$$$$$$$$$$$$$$$$$$$$$$ooooooooooooooooooooooooooooooooooooooooooooooooooooooooooooooo..............................................................................................XXXXXXXXXXXXXXXXXXXXXXXXXXXXXXXXXXXXXXXXXXXXXXXXXXXXXXXXXXXXXXXXXXXXXXXXXXXXXXXXXXXXXXXXXXXXXXXXXXXXXXXXXXXXXXXXXXXXXXXXXXXXX...............................oooooooooooooooooooooooooooooooooooooooooooooooooooooooooooooo$$$$$$$$$$$$$$$$$$$$$$$$$$$$$$$$...............................",
"XXXXXXXXXXXXXXXXXXXXXXXXXXXXXXX$$$$$$$$$$$$$$$$$$$$$$$$$$$$$$$ooooooooooooooooooooooooooooooooooooooooooooooooooooooooooooooo..............................................................................................XXXXXXXXXXXXXXXXXXXXXXXXXXXXXXXXXXXXXXXXXXXXXXXXXXXXXXXXXXXXXXXXXXXXXXXXXXXXXXXXXXXXXXXXXXXXXXXXXXXXXXXXXXXXXXXXXXXXXXXXXXXXX...............................oooooooooooooooooooooooooooooooooooooooooooooooooooooooooooooo$$$$$$$$$$$$$$$$$$$$$$$$$$$$$$$$...............................",
"XXXXXXXXXXXXXXXXXXXXXXXXXXXXXXX$$$$$$$$$$$$$$$$$$$$$$$$$$$$$$$ooooooooooooooooooooooooooooooooooooooooooooooooooooooooooooooo..............................................................................................XXXXXXXXXXXXXXXXXXXXXXXXXXXXXXXXXXXXXXXXXXXXXXXXXXXXXXXXXXXXXXXXXXXXXXXXXXXXXXXXXXXXXXXXXXXXXXXXXXXXXXXXXXXXXXXXXXXXXXXXXXXXX...............................oooooooooooooooooooooooooooooooooooooooooooooooooooooooooooooo$$$$$$$$$$$$$$$$$$$$$$$$$$$$$$$$...............................",
"...............................$$$$$$$$$$$$$$$$$$$$$$$$$$$$$$$@@@@@@@@@@@@@@@@@@@@@@@@@@@@@@@@###############################%%%%%%%%%%%%%%%%%%%%%%%%%%%%%%%$$$$$$$$$$$$$$$$$$$$$$$$$$$$$$$$$$$$$$$$$$$$$$$$$$$$$$$$$$$$$$$$$$$$$$$$$$$$$$$$$$$$$$$$$$$$$$###############################%%%%%%%%%%%%%%%%%%%%%%%%%%%%%%%%%%%%%%%%%%%%%%%%%%%%%%%%%%%%%%%###############################$$$$$$$$$$$$$$$$$$$$$$$$$$$$$$$+++++++++++++++++++++++++++++++$$$$$$$$$$$$$$$$$$$$$$$$$$$$$$$$...............................",
"...............................$$$$$$$$$$$$$$$$$$$$$$$$$$$$$$$@@@@@@@@@@@@@@@@@@@@@@@@@@@@@@@@###############################%%%%%%%%%%%%%%%%%%%%%%%%%%%%%%%$$$$$$$$$$$$$$$$$$$$$$$$$$$$$$$$$$$$$$$$$$$$$$$$$$$$$$$$$$$$$$$$$$$$$$$$$$$$$$$$$$$$$$$$$$$$$$###############################%%%%%%%%%%%%%%%%%%%%%%%%%%%%%%%%%%%%%%%%%%%%%%%%%%%%%%%%%%%%%%%###############################$$$$$$$$$$$$$$$$$$$$$$$$$$$$$$$+++++++++++++++++++++++++++++++$$$$$$$$$$$$$$$$$$$$$$$$$$$$$$$$...............................",
"...............................$$$$$$$$$$$$$$$$$$$$$$$$$$$$$$$@@@@@@@@@@@@@@@@@@@@@@@@@@@@@@@@###############################%%%%%%%%%%%%%%%%%%%%%%%%%%%%%%%$$$$$$$$$$$$$$$$$$$$$$$$$$$$$$$$$$$$$$$$$$$$$$$$$$$$$$$$$$$$$$$$$$$$$$$$$$$$$$$$$$$$$$$$$$$$$$###############################%%%%%%%%%%%%%%%%%%%%%%%%%%%%%%%%%%%%%%%%%%%%%%%%%%%%%%%%%%%%%%%###############################$$$$$$$$$$$$$$$$$$$$$$$$$$$$$$$+++++++++++++++++++++++++++++++$$$$$$$$$$$$$$$$$$$$$$$$$$$$$$$$...............................",
"...............................$$$$$$$$$$$$$$$$$$$$$$$$$$$$$$$@@@@@@@@@@@@@@@@@@@@@@@@@@@@@@@@###############################%%%%%%%%%%%%%%%%%%%%%%%%%%%%%%%$$$$$$$$$$$$$$$$$$$$$$$$$$$$$$$$$$$$$$$$$$$$$$$$$$$$$$$$$$$$$$$$$$$$$$$$$$$$$$$$$$$$$$$$$$$$$$###############################%%%%%%%%%%%%%%%%%%%%%%%%%%%%%%%%%%%%%%%%%%%%%%%%%%%%%%%%%%%%%%%###############################$$$$$$$$$$$$$$$$$$$$$$$$$$$$$$$+++++++++++++++++++++++++++++++$$$$$$$$$$$$$$$$$$$$$$$$$$$$$$$$...............................",
"...............................$$$$$$$$$$$$$$$$$$$$$$$$$$$$$$$@@@@@@@@@@@@@@@@@@@@@@@@@@@@@@@@###############################%%%%%%%%%%%%%%%%%%%%%%%%%%%%%%%$$$$$$$$$$$$$$$$$$$$$$$$$$$$$$$$$$$$$$$$$$$$$$$$$$$$$$$$$$$$$$$$$$$$$$$$$$$$$$$$$$$$$$$$$$$$$$###############################%%%%%%%%%%%%%%%%%%%%%%%%%%%%%%%%%%%%%%%%%%%%%%%%%%%%%%%%%%%%%%%###############################$$$$$$$$$$$$$$$$$$$$$$$$$$$$$$$+++++++++++++++++++++++++++++++$$$$$$$$$$$$$$$$$$$$$$$$$$$$$$$$...............................",
"...............................$$$$$$$$$$$$$$$$$$$$$$$$$$$$$$$@@@@@@@@@@@@@@@@@@@@@@@@@@@@@@@@###############################%%%%%%%%%%%%%%%%%%%%%%%%%%%%%%%$$$$$$$$$$$$$$$$$$$$$$$$$$$$$$$$$$$$$$$$$$$$$$$$$$$$$$$$$$$$$$$$$$$$$$$$$$$$$$$$$$$$$$$$$$$$$$###############################%%%%%%%%%%%%%%%%%%%%%%%%%%%%%%%%%%%%%%%%%%%%%%%%%%%%%%%%%%%%%%%###############################$$$$$$$$$$$$$$$$$$$$$$$$$$$$$$$+++++++++++++++++++++++++++++++$$$$$$$$$$$$$$$$$$$$$$$$$$$$$$$$...............................",
"...............................$$$$$$$$$$$$$$$$$$$$$$$$$$$$$$$@@@@@@@@@@@@@@@@@@@@@@@@@@@@@@@@###############################%%%%%%%%%%%%%%%%%%%%%%%%%%%%%%%$$$$$$$$$$$$$$$$$$$$$$$$$$$$$$$$$$$$$$$$$$$$$$$$$$$$$$$$$$$$$$$$$$$$$$$$$$$$$$$$$$$$$$$$$$$$$$###############################%%%%%%%%%%%%%%%%%%%%%%%%%%%%%%%%%%%%%%%%%%%%%%%%%%%%%%%%%%%%%%%###############################$$$$$$$$$$$$$$$$$$$$$$$$$$$$$$$+++++++++++++++++++++++++++++++$$$$$$$$$$$$$$$$$$$$$$$$$$$$$$$$...............................",
"...............................$$$$$$$$$$$$$$$$$$$$$$$$$$$$$$$@@@@@@@@@@@@@@@@@@@@@@@@@@@@@@@@###############################%%%%%%%%%%%%%%%%%%%%%%%%%%%%%%%$$$$$$$$$$$$$$$$$$$$$$$$$$$$$$$$$$$$$$$$$$$$$$$$$$$$$$$$$$$$$$$$$$$$$$$$$$$$$$$$$$$$$$$$$$$$$$###############################%%%%%%%%%%%%%%%%%%%%%%%%%%%%%%%%%%%%%%%%%%%%%%%%%%%%%%%%%%%%%%%###############################$$$$$$$$$$$$$$$$$$$$$$$$$$$$$$$+++++++++++++++++++++++++++++++$$$$$$$$$$$$$$$$$$$$$$$$$$$$$$$$...............................",
"...............................$$$$$$$$$$$$$$$$$$$$$$$$$$$$$$$@@@@@@@@@@@@@@@@@@@@@@@@@@@@@@@@###############################%%%%%%%%%%%%%%%%%%%%%%%%%%%%%%%$$$$$$$$$$$$$$$$$$$$$$$$$$$$$$$$$$$$$$$$$$$$$$$$$$$$$$$$$$$$$$$$$$$$$$$$$$$$$$$$$$$$$$$$$$$$$$###############################%%%%%%%%%%%%%%%%%%%%%%%%%%%%%%%%%%%%%%%%%%%%%%%%%%%%%%%%%%%%%%%###############################$$$$$$$$$$$$$$$$$$$$$$$$$$$$$$$+++++++++++++++++++++++++++++++$$$$$$$$$$$$$$$$$$$$$$$$$$$$$$$$...............................",
"...............................$$$$$$$$$$$$$$$$$$$$$$$$$$$$$$$@@@@@@@@@@@@@@@@@@@@@@@@@@@@@@@@###############################%%%%%%%%%%%%%%%%%%%%%%%%%%%%%%%$$$$$$$$$$$$$$$$$$$$$$$$$$$$$$$$$$$$$$$$$$$$$$$$$$$$$$$$$$$$$$$$$$$$$$$$$$$$$$$$$$$$$$$$$$$$$$###############################%%%%%%%%%%%%%%%%%%%%%%%%%%%%%%%%%%%%%%%%%%%%%%%%%%%%%%%%%%%%%%%###############################$$$$$$$$$$$$$$$$$$$$$$$$$$$$$$$+++++++++++++++++++++++++++++++$$$$$$$$$$$$$$$$$$$$$$$$$$$$$$$$...............................",
"...............................$$$$$$$$$$$$$$$$$$$$$$$$$$$$$$$@@@@@@@@@@@@@@@@@@@@@@@@@@@@@@@@###############################%%%%%%%%%%%%%%%%%%%%%%%%%%%%%%%$$$$$$$$$$$$$$$$$$$$$$$$$$$$$$$$$$$$$$$$$$$$$$$$$$$$$$$$$$$$$$$$$$$$$$$$$$$$$$$$$$$$$$$$$$$$$$###############################%%%%%%%%%%%%%%%%%%%%%%%%%%%%%%%%%%%%%%%%%%%%%%%%%%%%%%%%%%%%%%%###############################$$$$$$$$$$$$$$$$$$$$$$$$$$$$$$$+++++++++++++++++++++++++++++++$$$$$$$$$$$$$$$$$$$$$$$$$$$$$$$$...............................",
"...............................$$$$$$$$$$$$$$$$$$$$$$$$$$$$$$$@@@@@@@@@@@@@@@@@@@@@@@@@@@@@@@@###############################%%%%%%%%%%%%%%%%%%%%%%%%%%%%%%%$$$$$$$$$$$$$$$$$$$$$$$$$$$$$$$$$$$$$$$$$$$$$$$$$$$$$$$$$$$$$$$$$$$$$$$$$$$$$$$$$$$$$$$$$$$$$$###############################%%%%%%%%%%%%%%%%%%%%%%%%%%%%%%%%%%%%%%%%%%%%%%%%%%%%%%%%%%%%%%%###############################$$$$$$$$$$$$$$$$$$$$$$$$$$$$$$$+++++++++++++++++++++++++++++++$$$$$$$$$$$$$$$$$$$$$$$$$$$$$$$$...............................",
"...............................$$$$$$$$$$$$$$$$$$$$$$$$$$$$$$$@@@@@@@@@@@@@@@@@@@@@@@@@@@@@@@@###############################%%%%%%%%%%%%%%%%%%%%%%%%%%%%%%%$$$$$$$$$$$$$$$$$$$$$$$$$$$$$$$$$$$$$$$$$$$$$$$$$$$$$$$$$$$$$$$$$$$$$$$$$$$$$$$$$$$$$$$$$$$$$$###############################%%%%%%%%%%%%%%%%%%%%%%%%%%%%%%%%%%%%%%%%%%%%%%%%%%%%%%%%%%%%%%%###############################$$$$$$$$$$$$$$$$$$$$$$$$$$$$$$$+++++++++++++++++++++++++++++++$$$$$$$$$$$$$$$$$$$$$$$$$$$$$$$$...............................",
"...............................$$$$$$$$$$$$$$$$$$$$$$$$$$$$$$$@@@@@@@@@@@@@@@@@@@@@@@@@@@@@@@@###############################%%%%%%%%%%%%%%%%%%%%%%%%%%%%%%%$$$$$$$$$$$$$$$$$$$$$$$$$$$$$$$$$$$$$$$$$$$$$$$$$$$$$$$$$$$$$$$$$$$$$$$$$$$$$$$$$$$$$$$$$$$$$$###############################%%%%%%%%%%%%%%%%%%%%%%%%%%%%%%%%%%%%%%%%%%%%%%%%%%%%%%%%%%%%%%%###############################$$$$$$$$$$$$$$$$$$$$$$$$$$$$$$$+++++++++++++++++++++++++++++++$$$$$$$$$$$$$$$$$$$$$$$$$$$$$$$$...............................",
"...............................$$$$$$$$$$$$$$$$$$$$$$$$$$$$$$$@@@@@@@@@@@@@@@@@@@@@@@@@@@@@@@@###############################%%%%%%%%%%%%%%%%%%%%%%%%%%%%%%%$$$$$$$$$$$$$$$$$$$$$$$$$$$$$$$$$$$$$$$$$$$$$$$$$$$$$$$$$$$$$$$$$$$$$$$$$$$$$$$$$$$$$$$$$$$$$$###############################%%%%%%%%%%%%%%%%%%%%%%%%%%%%%%%%%%%%%%%%%%%%%%%%%%%%%%%%%%%%%%%###############################$$$$$$$$$$$$$$$$$$$$$$$$$$$$$$$+++++++++++++++++++++++++++++++$$$$$$$$$$$$$$$$$$$$$$$$$$$$$$$$...............................",
"...............................$$$$$$$$$$$$$$$$$$$$$$$$$$$$$$$@@@@@@@@@@@@@@@@@@@@@@@@@@@@@@@@###############################%%%%%%%%%%%%%%%%%%%%%%%%%%%%%%%$$$$$$$$$$$$$$$$$$$$$$$$$$$$$$$$$$$$$$$$$$$$$$$$$$$$$$$$$$$$$$$$$$$$$$$$$$$$$$$$$$$$$$$$$$$$$$###############################%%%%%%%%%%%%%%%%%%%%%%%%%%%%%%%%%%%%%%%%%%%%%%%%%%%%%%%%%%%%%%%###############################$$$$$$$$$$$$$$$$$$$$$$$$$$$$$$$+++++++++++++++++++++++++++++++$$$$$$$$$$$$$$$$$$$$$$$$$$$$$$$$...............................",
"...............................$$$$$$$$$$$$$$$$$$$$$$$$$$$$$$$@@@@@@@@@@@@@@@@@@@@@@@@@@@@@@@@###############################%%%%%%%%%%%%%%%%%%%%%%%%%%%%%%%$$$$$$$$$$$$$$$$$$$$$$$$$$$$$$$$$$$$$$$$$$$$$$$$$$$$$$$$$$$$$$$$$$$$$$$$$$$$$$$$$$$$$$$$$$$$$$###############################%%%%%%%%%%%%%%%%%%%%%%%%%%%%%%%%%%%%%%%%%%%%%%%%%%%%%%%%%%%%%%%###############################$$$$$$$$$$$$$$$$$$$$$$$$$$$$$$$+++++++++++++++++++++++++++++++$$$$$$$$$$$$$$$$$$$$$$$$$$$$$$$$...............................",
"...............................$$$$$$$$$$$$$$$$$$$$$$$$$$$$$$$@@@@@@@@@@@@@@@@@@@@@@@@@@@@@@@@###############################%%%%%%%%%%%%%%%%%%%%%%%%%%%%%%%$$$$$$$$$$$$$$$$$$$$$$$$$$$$$$$$$$$$$$$$$$$$$$$$$$$$$$$$$$$$$$$$$$$$$$$$$$$$$$$$$$$$$$$$$$$$$$###############################%%%%%%%%%%%%%%%%%%%%%%%%%%%%%%%%%%%%%%%%%%%%%%%%%%%%%%%%%%%%%%%###############################$$$$$$$$$$$$$$$$$$$$$$$$$$$$$$$+++++++++++++++++++++++++++++++$$$$$$$$$$$$$$$$$$$$$$$$$$$$$$$$...............................",
"...............................$$$$$$$$$$$$$$$$$$$$$$$$$$$$$$$@@@@@@@@@@@@@@@@@@@@@@@@@@@@@@@@###############################%%%%%%%%%%%%%%%%%%%%%%%%%%%%%%%$$$$$$$$$$$$$$$$$$$$$$$$$$$$$$$$$$$$$$$$$$$$$$$$$$$$$$$$$$$$$$$$$$$$$$$$$$$$$$$$$$$$$$$$$$$$$$###############################%%%%%%%%%%%%%%%%%%%%%%%%%%%%%%%%%%%%%%%%%%%%%%%%%%%%%%%%%%%%%%%###############################$$$$$$$$$$$$$$$$$$$$$$$$$$$$$$$+++++++++++++++++++++++++++++++$$$$$$$$$$$$$$$$$$$$$$$$$$$$$$$$...............................",
"...............................$$$$$$$$$$$$$$$$$$$$$$$$$$$$$$$@@@@@@@@@@@@@@@@@@@@@@@@@@@@@@@@###############################%%%%%%%%%%%%%%%%%%%%%%%%%%%%%%%$$$$$$$$$$$$$$$$$$$$$$$$$$$$$$$$$$$$$$$$$$$$$$$$$$$$$$$$$$$$$$$$$$$$$$$$$$$$$$$$$$$$$$$$$$$$$$###############################%%%%%%%%%%%%%%%%%%%%%%%%%%%%%%%%%%%%%%%%%%%%%%%%%%%%%%%%%%%%%%%###############################$$$$$$$$$$$$$$$$$$$$$$$$$$$$$$$+++++++++++++++++++++++++++++++$$$$$$$$$$$$$$$$$$$$$$$$$$$$$$$$...............................",
"...............................$$$$$$$$$$$$$$$$$$$$$$$$$$$$$$$@@@@@@@@@@@@@@@@@@@@@@@@@@@@@@@@###############################%%%%%%%%%%%%%%%%%%%%%%%%%%%%%%%$$$$$$$$$$$$$$$$$$$$$$$$$$$$$$$$$$$$$$$$$$$$$$$$$$$$$$$$$$$$$$$$$$$$$$$$$$$$$$$$$$$$$$$$$$$$$$###############################%%%%%%%%%%%%%%%%%%%%%%%%%%%%%%%%%%%%%%%%%%%%%%%%%%%%%%%%%%%%%%%###############################$$$$$$$$$$$$$$$$$$$$$$$$$$$$$$$+++++++++++++++++++++++++++++++$$$$$$$$$$$$$$$$$$$$$$$$$$$$$$$$...............................",
"...............................$$$$$$$$$$$$$$$$$$$$$$$$$$$$$$$@@@@@@@@@@@@@@@@@@@@@@@@@@@@@@@@###############################%%%%%%%%%%%%%%%%%%%%%%%%%%%%%%%$$$$$$$$$$$$$$$$$$$$$$$$$$$$$$$$$$$$$$$$$$$$$$$$$$$$$$$$$$$$$$$$$$$$$$$$$$$$$$$$$$$$$$$$$$$$$$###############################%%%%%%%%%%%%%%%%%%%%%%%%%%%%%%%%%%%%%%%%%%%%%%%%%%%%%%%%%%%%%%%###############################$$$$$$$$$$$$$$$$$$$$$$$$$$$$$$$+++++++++++++++++++++++++++++++$$$$$$$$$$$$$$$$$$$$$$$$$$$$$$$$...............................",
"...............................$$$$$$$$$$$$$$$$$$$$$$$$$$$$$$$@@@@@@@@@@@@@@@@@@@@@@@@@@@@@@@@###############################%%%%%%%%%%%%%%%%%%%%%%%%%%%%%%%$$$$$$$$$$$$$$$$$$$$$$$$$$$$$$$$$$$$$$$$$$$$$$$$$$$$$$$$$$$$$$$$$$$$$$$$$$$$$$$$$$$$$$$$$$$$$$###############################%%%%%%%%%%%%%%%%%%%%%%%%%%%%%%%%%%%%%%%%%%%%%%%%%%%%%%%%%%%%%%%###############################$$$$$$$$$$$$$$$$$$$$$$$$$$$$$$$+++++++++++++++++++++++++++++++$$$$$$$$$$$$$$$$$$$$$$$$$$$$$$$$...............................",
"...............................$$$$$$$$$$$$$$$$$$$$$$$$$$$$$$$@@@@@@@@@@@@@@@@@@@@@@@@@@@@@@@@###############################%%%%%%%%%%%%%%%%%%%%%%%%%%%%%%%$$$$$$$$$$$$$$$$$$$$$$$$$$$$$$$$$$$$$$$$$$$$$$$$$$$$$$$$$$$$$$$$$$$$$$$$$$$$$$$$$$$$$$$$$$$$$$###############################%%%%%%%%%%%%%%%%%%%%%%%%%%%%%%%%%%%%%%%%%%%%%%%%%%%%%%%%%%%%%%%###############################$$$$$$$$$$$$$$$$$$$$$$$$$$$$$$$+++++++++++++++++++++++++++++++$$$$$$$$$$$$$$$$$$$$$$$$$$$$$$$$...............................",
"...............................$$$$$$$$$$$$$$$$$$$$$$$$$$$$$$$@@@@@@@@@@@@@@@@@@@@@@@@@@@@@@@@###############################%%%%%%%%%%%%%%%%%%%%%%%%%%%%%%%$$$$$$$$$$$$$$$$$$$$$$$$$$$$$$$$$$$$$$$$$$$$$$$$$$$$$$$$$$$$$$$$$$$$$$$$$$$$$$$$$$$$$$$$$$$$$$###############################%%%%%%%%%%%%%%%%%%%%%%%%%%%%%%%%%%%%%%%%%%%%%%%%%%%%%%%%%%%%%%%###############################$$$$$$$$$$$$$$$$$$$$$$$$$$$$$$$+++++++++++++++++++++++++++++++$$$$$$$$$$$$$$$$$$$$$$$$$$$$$$$$...............................",
"...............................$$$$$$$$$$$$$$$$$$$$$$$$$$$$$$$@@@@@@@@@@@@@@@@@@@@@@@@@@@@@@@@###############################%%%%%%%%%%%%%%%%%%%%%%%%%%%%%%%$$$$$$$$$$$$$$$$$$$$$$$$$$$$$$$$$$$$$$$$$$$$$$$$$$$$$$$$$$$$$$$$$$$$$$$$$$$$$$$$$$$$$$$$$$$$$$###############################%%%%%%%%%%%%%%%%%%%%%%%%%%%%%%%%%%%%%%%%%%%%%%%%%%%%%%%%%%%%%%%###############################$$$$$$$$$$$$$$$$$$$$$$$$$$$$$$$+++++++++++++++++++++++++++++++$$$$$$$$$$$$$$$$$$$$$$$$$$$$$$$$...............................",
"...............................$$$$$$$$$$$$$$$$$$$$$$$$$$$$$$$@@@@@@@@@@@@@@@@@@@@@@@@@@@@@@@@###############################%%%%%%%%%%%%%%%%%%%%%%%%%%%%%%%$$$$$$$$$$$$$$$$$$$$$$$$$$$$$$$$$$$$$$$$$$$$$$$$$$$$$$$$$$$$$$$$$$$$$$$$$$$$$$$$$$$$$$$$$$$$$$###############################%%%%%%%%%%%%%%%%%%%%%%%%%%%%%%%%%%%%%%%%%%%%%%%%%%%%%%%%%%%%%%%###############################$$$$$$$$$$$$$$$$$$$$$$$$$$$$$$$+++++++++++++++++++++++++++++++$$$$$$$$$$$$$$$$$$$$$$$$$$$$$$$$...............................",
"...............................$$$$$$$$$$$$$$$$$$$$$$$$$$$$$$$@@@@@@@@@@@@@@@@@@@@@@@@@@@@@@@@###############################%%%%%%%%%%%%%%%%%%%%%%%%%%%%%%%$$$$$$$$$$$$$$$$$$$$$$$$$$$$$$$$$$$$$$$$$$$$$$$$$$$$$$$$$$$$$$$$$$$$$$$$$$$$$$$$$$$$$$$$$$$$$$###############################%%%%%%%%%%%%%%%%%%%%%%%%%%%%%%%%%%%%%%%%%%%%%%%%%%%%%%%%%%%%%%%###############################$$$$$$$$$$$$$$$$$$$$$$$$$$$$$$$+++++++++++++++++++++++++++++++$$$$$$$$$$$$$$$$$$$$$$$$$$$$$$$$...............................",
"...............................$$$$$$$$$$$$$$$$$$$$$$$$$$$$$$$@@@@@@@@@@@@@@@@@@@@@@@@@@@@@@@@###############################%%%%%%%%%%%%%%%%%%%%%%%%%%%%%%%$$$$$$$$$$$$$$$$$$$$$$$$$$$$$$$$$$$$$$$$$$$$$$$$$$$$$$$$$$$$$$$$$$$$$$$$$$$$$$$$$$$$$$$$$$$$$$###############################%%%%%%%%%%%%%%%%%%%%%%%%%%%%%%%%%%%%%%%%%%%%%%%%%%%%%%%%%%%%%%%###############################$$$$$$$$$$$$$$$$$$$$$$$$$$$$$$$+++++++++++++++++++++++++++++++$$$$$$$$$$$$$$$$$$$$$$$$$$$$$$$$...............................",
"...............................$$$$$$$$$$$$$$$$$$$$$$$$$$$$$$$@@@@@@@@@@@@@@@@@@@@@@@@@@@@@@@@###############################%%%%%%%%%%%%%%%%%%%%%%%%%%%%%%%$$$$$$$$$$$$$$$$$$$$$$$$$$$$$$$$$$$$$$$$$$$$$$$$$$$$$$$$$$$$$$$$$$$$$$$$$$$$$$$$$$$$$$$$$$$$$$###############################%%%%%%%%%%%%%%%%%%%%%%%%%%%%%%%%%%%%%%%%%%%%%%%%%%%%%%%%%%%%%%%###############################$$$$$$$$$$$$$$$$$$$$$$$$$$$$$$$+++++++++++++++++++++++++++++++$$$$$$$$$$$$$$$$$$$$$$$$$$$$$$$$...............................",
"...............................$$$$$$$$$$$$$$$$$$$$$$$$$$$$$$$@@@@@@@@@@@@@@@@@@@@@@@@@@@@@@@@###############################%%%%%%%%%%%%%%%%%%%%%%%%%%%%%%%$$$$$$$$$$$$$$$$$$$$$$$$$$$$$$$$$$$$$$$$$$$$$$$$$$$$$$$$$$$$$$$$$$$$$$$$$$$$$$$$$$$$$$$$$$$$$$###############################%%%%%%%%%%%%%%%%%%%%%%%%%%%%%%%%%%%%%%%%%%%%%%%%%%%%%%%%%%%%%%%###############################$$$$$$$$$$$$$$$$$$$$$$$$$$$$$$$+++++++++++++++++++++++++++++++$$$$$$$$$$$$$$$$$$$$$$$$$$$$$$$$...............................",
"...............................$$$$$$$$$$$$$$$$$$$$$$$$$$$$$$$@@@@@@@@@@@@@@@@@@@@@@@@@@@@@@@@###############################%%%%%%%%%%%%%%%%%%%%%%%%%%%%%%%$$$$$$$$$$$$$$$$$$$$$$$$$$$$$$$$$$$$$$$$$$$$$$$$$$$$$$$$$$$$$$$$$$$$$$$$$$$$$$$$$$$$$$$$$$$$$$###############################%%%%%%%%%%%%%%%%%%%%%%%%%%%%%%%%%%%%%%%%%%%%%%%%%%%%%%%%%%%%%%%###############################$$$$$$$$$$$$$$$$$$$$$$$$$$$$$$$+++++++++++++++++++++++++++++++$$$$$$$$$$$$$$$$$$$$$$$$$$$$$$$$...............................",
"XXXXXXXXXXXXXXXXXXXXXXXXXXXXXXX...............................ooooooooooooooooooooooooooooooooooooooooooooooooooooooooooooooooooooooooooooooooooooooooooooooXXXXXXXXXXXXXXXXXXXXXXXXXXXXXXXXXXXXXXXXXXXXXXXXXXXXXXXXXXXXXXXoooooooooooooooooooooooooooooooooooooooooooooooooooooooooooooo...............................XXXXXXXXXXXXXXXXXXXXXXXXXXXXXXXXXXXXXXXXXXXXXXXXXXXXXXXXXXXXXXXooooooooooooooooooooooooooooooo...............................................................XXXXXXXXXXXXXXXXXXXXXXXXXXXXXXX",
"XXXXXXXXXXXXXXXXXXXXXXXXXXXXXXX...............................ooooooooooooooooooooooooooooooooooooooooooooooooooooooooooooooooooooooooooooooooooooooooooooooXXXXXXXXXXXXXXXXXXXXXXXXXXXXXXXXXXXXXXXXXXXXXXXXXXXXXXXXXXXXXXXoooooooooooooooooooooooooooooooooooooooooooooooooooooooooooooo...............................XXXXXXXXXXXXXXXXXXXXXXXXXXXXXXXXXXXXXXXXXXXXXXXXXXXXXXXXXXXXXXXooooooooooooooooooooooooooooooo...............................................................XXXXXXXXXXXXXXXXXXXXXXXXXXXXXXX",
"XXXXXXXXXXXXXXXXXXXXXXXXXXXXXXX...............................ooooooooooooooooooooooooooooooooooooooooooooooooooooooooooooooooooooooooooooooooooooooooooooooXXXXXXXXXXXXXXXXXXXXXXXXXXXXXXXXXXXXXXXXXXXXXXXXXXXXXXXXXXXXXXXoooooooooooooooooooooooooooooooooooooooooooooooooooooooooooooo...............................XXXXXXXXXXXXXXXXXXXXXXXXXXXXXXXXXXXXXXXXXXXXXXXXXXXXXXXXXXXXXXXooooooooooooooooooooooooooooooo...............................................................XXXXXXXXXXXXXXXXXXXXXXXXXXXXXXX",
"XXXXXXXXXXXXXXXXXXXXXXXXXXXXXXX...............................ooooooooooooooooooooooooooooooooooooooooooooooooooooooooooooooooooooooooooooooooooooooooooooooXXXXXXXXXXXXXXXXXXXXXXXXXXXXXXXXXXXXXXXXXXXXXXXXXXXXXXXXXXXXXXXoooooooooooooooooooooooooooooooooooooooooooooooooooooooooooooo...............................XXXXXXXXXXXXXXXXXXXXXXXXXXXXXXXXXXXXXXXXXXXXXXXXXXXXXXXXXXXXXXXooooooooooooooooooooooooooooooo...............................................................XXXXXXXXXXXXXXXXXXXXXXXXXXXXXXX",
"XXXXXXXXXXXXXXXXXXXXXXXXXXXXXXX...............................ooooooooooooooooooooooooooooooooooooooooooooooooooooooooooooooooooooooooooooooooooooooooooooooXXXXXXXXXXXXXXXXXXXXXXXXXXXXXXXXXXXXXXXXXXXXXXXXXXXXXXXXXXXXXXXoooooooooooooooooooooooooooooooooooooooooooooooooooooooooooooo...............................XXXXXXXXXXXXXXXXXXXXXXXXXXXXXXXXXXXXXXXXXXXXXXXXXXXXXXXXXXXXXXXooooooooooooooooooooooooooooooo...............................................................XXXXXXXXXXXXXXXXXXXXXXXXXXXXXXX",
"XXXXXXXXXXXXXXXXXXXXXXXXXXXXXXX...............................ooooooooooooooooooooooooooooooooooooooooooooooooooooooooooooooooooooooooooooooooooooooooooooooXXXXXXXXXXXXXXXXXXXXXXXXXXXXXXXXXXXXXXXXXXXXXXXXXXXXXXXXXXXXXXXoooooooooooooooooooooooooooooooooooooooooooooooooooooooooooooo...............................XXXXXXXXXXXXXXXXXXXXXXXXXXXXXXXXXXXXXXXXXXXXXXXXXXXXXXXXXXXXXXXooooooooooooooooooooooooooooooo...............................................................XXXXXXXXXXXXXXXXXXXXXXXXXXXXXXX",
"XXXXXXXXXXXXXXXXXXXXXXXXXXXXXXX...............................ooooooooooooooooooooooooooooooooooooooooooooooooooooooooooooooooooooooooooooooooooooooooooooooXXXXXXXXXXXXXXXXXXXXXXXXXXXXXXXXXXXXXXXXXXXXXXXXXXXXXXXXXXXXXXXoooooooooooooooooooooooooooooooooooooooooooooooooooooooooooooo...............................XXXXXXXXXXXXXXXXXXXXXXXXXXXXXXXXXXXXXXXXXXXXXXXXXXXXXXXXXXXXXXXooooooooooooooooooooooooooooooo...............................................................XXXXXXXXXXXXXXXXXXXXXXXXXXXXXXX",
"XXXXXXXXXXXXXXXXXXXXXXXXXXXXXXX...............................ooooooooooooooooooooooooooooooooooooooooooooooooooooooooooooooooooooooooooooooooooooooooooooooXXXXXXXXXXXXXXXXXXXXXXXXXXXXXXXXXXXXXXXXXXXXXXXXXXXXXXXXXXXXXXXoooooooooooooooooooooooooooooooooooooooooooooooooooooooooooooo...............................XXXXXXXXXXXXXXXXXXXXXXXXXXXXXXXXXXXXXXXXXXXXXXXXXXXXXXXXXXXXXXXooooooooooooooooooooooooooooooo...............................................................XXXXXXXXXXXXXXXXXXXXXXXXXXXXXXX",
"XXXXXXXXXXXXXXXXXXXXXXXXXXXXXXX...............................ooooooooooooooooooooooooooooooooooooooooooooooooooooooooooooooooooooooooooooooooooooooooooooooXXXXXXXXXXXXXXXXXXXXXXXXXXXXXXXXXXXXXXXXXXXXXXXXXXXXXXXXXXXXXXXoooooooooooooooooooooooooooooooooooooooooooooooooooooooooooooo...............................XXXXXXXXXXXXXXXXXXXXXXXXXXXXXXXXXXXXXXXXXXXXXXXXXXXXXXXXXXXXXXXooooooooooooooooooooooooooooooo...............................................................XXXXXXXXXXXXXXXXXXXXXXXXXXXXXXX",
"XXXXXXXXXXXXXXXXXXXXXXXXXXXXXXX...............................ooooooooooooooooooooooooooooooooooooooooooooooooooooooooooooooooooooooooooooooooooooooooooooooXXXXXXXXXXXXXXXXXXXXXXXXXXXXXXXXXXXXXXXXXXXXXXXXXXXXXXXXXXXXXXXoooooooooooooooooooooooooooooooooooooooooooooooooooooooooooooo...............................XXXXXXXXXXXXXXXXXXXXXXXXXXXXXXXXXXXXXXXXXXXXXXXXXXXXXXXXXXXXXXXooooooooooooooooooooooooooooooo...............................................................XXXXXXXXXXXXXXXXXXXXXXXXXXXXXXX",
"XXXXXXXXXXXXXXXXXXXXXXXXXXXXXXX...............................ooooooooooooooooooooooooooooooooooooooooooooooooooooooooooooooooooooooooooooooooooooooooooooooXXXXXXXXXXXXXXXXXXXXXXXXXXXXXXXXXXXXXXXXXXXXXXXXXXXXXXXXXXXXXXXoooooooooooooooooooooooooooooooooooooooooooooooooooooooooooooo...............................XXXXXXXXXXXXXXXXXXXXXXXXXXXXXXXXXXXXXXXXXXXXXXXXXXXXXXXXXXXXXXXooooooooooooooooooooooooooooooo...............................................................XXXXXXXXXXXXXXXXXXXXXXXXXXXXXXX",
"XXXXXXXXXXXXXXXXXXXXXXXXXXXXXXX...............................ooooooooooooooooooooooooooooooooooooooooooooooooooooooooooooooooooooooooooooooooooooooooooooooXXXXXXXXXXXXXXXXXXXXXXXXXXXXXXXXXXXXXXXXXXXXXXXXXXXXXXXXXXXXXXXoooooooooooooooooooooooooooooooooooooooooooooooooooooooooooooo...............................XXXXXXXXXXXXXXXXXXXXXXXXXXXXXXXXXXXXXXXXXXXXXXXXXXXXXXXXXXXXXXXooooooooooooooooooooooooooooooo...............................................................XXXXXXXXXXXXXXXXXXXXXXXXXXXXXXX",
"XXXXXXXXXXXXXXXXXXXXXXXXXXXXXXX...............................ooooooooooooooooooooooooooooooooooooooooooooooooooooooooooooooooooooooooooooooooooooooooooooooXXXXXXXXXXXXXXXXXXXXXXXXXXXXXXXXXXXXXXXXXXXXXXXXXXXXXXXXXXXXXXXoooooooooooooooooooooooooooooooooooooooooooooooooooooooooooooo...............................XXXXXXXXXXXXXXXXXXXXXXXXXXXXXXXXXXXXXXXXXXXXXXXXXXXXXXXXXXXXXXXooooooooooooooooooooooooooooooo...............................................................XXXXXXXXXXXXXXXXXXXXXXXXXXXXXXX",
"XXXXXXXXXXXXXXXXXXXXXXXXXXXXXXX...............................ooooooooooooooooooooooooooooooooooooooooooooooooooooooooooooooooooooooooooooooooooooooooooooooXXXXXXXXXXXXXXXXXXXXXXXXXXXXXXXXXXXXXXXXXXXXXXXXXXXXXXXXXXXXXXXoooooooooooooooooooooooooooooooooooooooooooooooooooooooooooooo...............................XXXXXXXXXXXXXXXXXXXXXXXXXXXXXXXXXXXXXXXXXXXXXXXXXXXXXXXXXXXXXXXooooooooooooooooooooooooooooooo...............................................................XXXXXXXXXXXXXXXXXXXXXXXXXXXXXXX",
"XXXXXXXXXXXXXXXXXXXXXXXXXXXXXXX...............................ooooooooooooooooooooooooooooooooooooooooooooooooooooooooooooooooooooooooooooooooooooooooooooooXXXXXXXXXXXXXXXXXXXXXXXXXXXXXXXXXXXXXXXXXXXXXXXXXXXXXXXXXXXXXXXoooooooooooooooooooooooooooooooooooooooooooooooooooooooooooooo...............................XXXXXXXXXXXXXXXXXXXXXXXXXXXXXXXXXXXXXXXXXXXXXXXXXXXXXXXXXXXXXXXooooooooooooooooooooooooooooooo...............................................................XXXXXXXXXXXXXXXXXXXXXXXXXXXXXXX",
"XXXXXXXXXXXXXXXXXXXXXXXXXXXXXXX...............................ooooooooooooooooooooooooooooooooooooooooooooooooooooooooooooooooooooooooooooooooooooooooooooooXXXXXXXXXXXXXXXXXXXXXXXXXXXXXXXXXXXXXXXXXXXXXXXXXXXXXXXXXXXXXXXoooooooooooooooooooooooooooooooooooooooooooooooooooooooooooooo...............................XXXXXXXXXXXXXXXXXXXXXXXXXXXXXXXXXXXXXXXXXXXXXXXXXXXXXXXXXXXXXXXooooooooooooooooooooooooooooooo...............................................................XXXXXXXXXXXXXXXXXXXXXXXXXXXXXXX",
"XXXXXXXXXXXXXXXXXXXXXXXXXXXXXXX...............................ooooooooooooooooooooooooooooooooooooooooooooooooooooooooooooooooooooooooooooooooooooooooooooooXXXXXXXXXXXXXXXXXXXXXXXXXXXXXXXXXXXXXXXXXXXXXXXXXXXXXXXXXXXXXXXoooooooooooooooooooooooooooooooooooooooooooooooooooooooooooooo...............................XXXXXXXXXXXXXXXXXXXXXXXXXXXXXXXXXXXXXXXXXXXXXXXXXXXXXXXXXXXXXXXooooooooooooooooooooooooooooooo...............................................................XXXXXXXXXXXXXXXXXXXXXXXXXXXXXXX",
"XXXXXXXXXXXXXXXXXXXXXXXXXXXXXXX...............................ooooooooooooooooooooooooooooooooooooooooooooooooooooooooooooooooooooooooooooooooooooooooooooooXXXXXXXXXXXXXXXXXXXXXXXXXXXXXXXXXXXXXXXXXXXXXXXXXXXXXXXXXXXXXXXoooooooooooooooooooooooooooooooooooooooooooooooooooooooooooooo...............................XXXXXXXXXXXXXXXXXXXXXXXXXXXXXXXXXXXXXXXXXXXXXXXXXXXXXXXXXXXXXXXooooooooooooooooooooooooooooooo...............................................................XXXXXXXXXXXXXXXXXXXXXXXXXXXXXXX",
"XXXXXXXXXXXXXXXXXXXXXXXXXXXXXXX...............................ooooooooooooooooooooooooooooooooooooooooooooooooooooooooooooooooooooooooooooooooooooooooooooooXXXXXXXXXXXXXXXXXXXXXXXXXXXXXXXXXXXXXXXXXXXXXXXXXXXXXXXXXXXXXXXoooooooooooooooooooooooooooooooooooooooooooooooooooooooooooooo...............................XXXXXXXXXXXXXXXXXXXXXXXXXXXXXXXXXXXXXXXXXXXXXXXXXXXXXXXXXXXXXXXooooooooooooooooooooooooooooooo...............................................................XXXXXXXXXXXXXXXXXXXXXXXXXXXXXXX",
"XXXXXXXXXXXXXXXXXXXXXXXXXXXXXXX...............................ooooooooooooooooooooooooooooooooooooooooooooooooooooooooooooooooooooooooooooooooooooooooooooooXXXXXXXXXXXXXXXXXXXXXXXXXXXXXXXXXXXXXXXXXXXXXXXXXXXXXXXXXXXXXXXoooooooooooooooooooooooooooooooooooooooooooooooooooooooooooooo...............................XXXXXXXXXXXXXXXXXXXXXXXXXXXXXXXXXXXXXXXXXXXXXXXXXXXXXXXXXXXXXXXooooooooooooooooooooooooooooooo...............................................................XXXXXXXXXXXXXXXXXXXXXXXXXXXXXXX",
"XXXXXXXXXXXXXXXXXXXXXXXXXXXXXXX...............................ooooooooooooooooooooooooooooooooooooooooooooooooooooooooooooooooooooooooooooooooooooooooooooooXXXXXXXXXXXXXXXXXXXXXXXXXXXXXXXXXXXXXXXXXXXXXXXXXXXXXXXXXXXXXXXoooooooooooooooooooooooooooooooooooooooooooooooooooooooooooooo...............................XXXXXXXXXXXXXXXXXXXXXXXXXXXXXXXXXXXXXXXXXXXXXXXXXXXXXXXXXXXXXXXooooooooooooooooooooooooooooooo...............................................................XXXXXXXXXXXXXXXXXXXXXXXXXXXXXXX",
"XXXXXXXXXXXXXXXXXXXXXXXXXXXXXXX...............................ooooooooooooooooooooooooooooooooooooooooooooooooooooooooooooooooooooooooooooooooooooooooooooooXXXXXXXXXXXXXXXXXXXXXXXXXXXXXXXXXXXXXXXXXXXXXXXXXXXXXXXXXXXXXXXoooooooooooooooooooooooooooooooooooooooooooooooooooooooooooooo...............................XXXXXXXXXXXXXXXXXXXXXXXXXXXXXXXXXXXXXXXXXXXXXXXXXXXXXXXXXXXXXXXooooooooooooooooooooooooooooooo...............................................................XXXXXXXXXXXXXXXXXXXXXXXXXXXXXXX",
"XXXXXXXXXXXXXXXXXXXXXXXXXXXXXXX...............................ooooooooooooooooooooooooooooooooooooooooooooooooooooooooooooooooooooooooooooooooooooooooooooooXXXXXXXXXXXXXXXXXXXXXXXXXXXXXXXXXXXXXXXXXXXXXXXXXXXXXXXXXXXXXXXoooooooooooooooooooooooooooooooooooooooooooooooooooooooooooooo...............................XXXXXXXXXXXXXXXXXXXXXXXXXXXXXXXXXXXXXXXXXXXXXXXXXXXXXXXXXXXXXXXooooooooooooooooooooooooooooooo...............................................................XXXXXXXXXXXXXXXXXXXXXXXXXXXXXXX",
"XXXXXXXXXXXXXXXXXXXXXXXXXXXXXXX...............................ooooooooooooooooooooooooooooooooooooooooooooooooooooooooooooooooooooooooooooooooooooooooooooooXXXXXXXXXXXXXXXXXXXXXXXXXXXXXXXXXXXXXXXXXXXXXXXXXXXXXXXXXXXXXXXoooooooooooooooooooooooooooooooooooooooooooooooooooooooooooooo...............................XXXXXXXXXXXXXXXXXXXXXXXXXXXXXXXXXXXXXXXXXXXXXXXXXXXXXXXXXXXXXXXooooooooooooooooooooooooooooooo...............................................................XXXXXXXXXXXXXXXXXXXXXXXXXXXXXXX",
"XXXXXXXXXXXXXXXXXXXXXXXXXXXXXXX...............................ooooooooooooooooooooooooooooooooooooooooooooooooooooooooooooooooooooooooooooooooooooooooooooooXXXXXXXXXXXXXXXXXXXXXXXXXXXXXXXXXXXXXXXXXXXXXXXXXXXXXXXXXXXXXXXoooooooooooooooooooooooooooooooooooooooooooooooooooooooooooooo...............................XXXXXXXXXXXXXXXXXXXXXXXXXXXXXXXXXXXXXXXXXXXXXXXXXXXXXXXXXXXXXXXooooooooooooooooooooooooooooooo...............................................................XXXXXXXXXXXXXXXXXXXXXXXXXXXXXXX",
"XXXXXXXXXXXXXXXXXXXXXXXXXXXXXXX...............................ooooooooooooooooooooooooooooooooooooooooooooooooooooooooooooooooooooooooooooooooooooooooooooooXXXXXXXXXXXXXXXXXXXXXXXXXXXXXXXXXXXXXXXXXXXXXXXXXXXXXXXXXXXXXXXoooooooooooooooooooooooooooooooooooooooooooooooooooooooooooooo...............................XXXXXXXXXXXXXXXXXXXXXXXXXXXXXXXXXXXXXXXXXXXXXXXXXXXXXXXXXXXXXXXooooooooooooooooooooooooooooooo...............................................................XXXXXXXXXXXXXXXXXXXXXXXXXXXXXXX",
"XXXXXXXXXXXXXXXXXXXXXXXXXXXXXXX...............................ooooooooooooooooooooooooooooooooooooooooooooooooooooooooooooooooooooooooooooooooooooooooooooooXXXXXXXXXXXXXXXXXXXXXXXXXXXXXXXXXXXXXXXXXXXXXXXXXXXXXXXXXXXXXXXoooooooooooooooooooooooooooooooooooooooooooooooooooooooooooooo...............................XXXXXXXXXXXXXXXXXXXXXXXXXXXXXXXXXXXXXXXXXXXXXXXXXXXXXXXXXXXXXXXooooooooooooooooooooooooooooooo...............................................................XXXXXXXXXXXXXXXXXXXXXXXXXXXXXXX",
"XXXXXXXXXXXXXXXXXXXXXXXXXXXXXXX...............................ooooooooooooooooooooooooooooooooooooooooooooooooooooooooooooooooooooooooooooooooooooooooooooooXXXXXXXXXXXXXXXXXXXXXXXXXXXXXXXXXXXXXXXXXXXXXXXXXXXXXXXXXXXXXXXoooooooooooooooooooooooooooooooooooooooooooooooooooooooooooooo...............................XXXXXXXXXXXXXXXXXXXXXXXXXXXXXXXXXXXXXXXXXXXXXXXXXXXXXXXXXXXXXXXooooooooooooooooooooooooooooooo...............................................................XXXXXXXXXXXXXXXXXXXXXXXXXXXXXXX",
"XXXXXXXXXXXXXXXXXXXXXXXXXXXXXXX...............................ooooooooooooooooooooooooooooooooooooooooooooooooooooooooooooooooooooooooooooooooooooooooooooooXXXXXXXXXXXXXXXXXXXXXXXXXXXXXXXXXXXXXXXXXXXXXXXXXXXXXXXXXXXXXXXoooooooooooooooooooooooooooooooooooooooooooooooooooooooooooooo...............................XXXXXXXXXXXXXXXXXXXXXXXXXXXXXXXXXXXXXXXXXXXXXXXXXXXXXXXXXXXXXXXooooooooooooooooooooooooooooooo...............................................................XXXXXXXXXXXXXXXXXXXXXXXXXXXXXXX",
"XXXXXXXXXXXXXXXXXXXXXXXXXXXXXXX...............................ooooooooooooooooooooooooooooooooooooooooooooooooooooooooooooooooooooooooooooooooooooooooooooooXXXXXXXXXXXXXXXXXXXXXXXXXXXXXXXXXXXXXXXXXXXXXXXXXXXXXXXXXXXXXXXoooooooooooooooooooooooooooooooooooooooooooooooooooooooooooooo...............................XXXXXXXXXXXXXXXXXXXXXXXXXXXXXXXXXXXXXXXXXXXXXXXXXXXXXXXXXXXXXXXooooooooooooooooooooooooooooooo...............................................................XXXXXXXXXXXXXXXXXXXXXXXXXXXXXXX",
"XXXXXXXXXXXXXXXXXXXXXXXXXXXXXXX...............................ooooooooooooooooooooooooooooooooooooooooooooooooooooooooooooooooooooooooooooooooooooooooooooooXXXXXXXXXXXXXXXXXXXXXXXXXXXXXXXXXXXXXXXXXXXXXXXXXXXXXXXXXXXXXXXoooooooooooooooooooooooooooooooooooooooooooooooooooooooooooooo...............................XXXXXXXXXXXXXXXXXXXXXXXXXXXXXXXXXXXXXXXXXXXXXXXXXXXXXXXXXXXXXXXooooooooooooooooooooooooooooooo...............................................................XXXXXXXXXXXXXXXXXXXXXXXXXXXXXXX"
};
