/* XPM */
static char *_670479fec534114d4028b620114d73aKFJxpYr61fKTv02U[] = {
/* columns rows colors chars-per-pixel */
"64 64 2 1 ",
"  c #876349",
". c #BE9070",
/* pixels */
"                                                                ",
"                                                                ",
"                                                                ",
"                                                                ",
"    ........................................................    ",
"    ........................................................    ",
"    ........................................................    ",
"    ........................................................    ",
"    ........................................................    ",
"    ........................................................    ",
"    ........................................................    ",
"    ........................................................    ",
"                                                                ",
"                                                                ",
"                                                                ",
"                                                                ",
"    ................    ....................................    ",
"    ................    ....................................    ",
"    ................    ....................................    ",
"    ................    ....................................    ",
"    ................    ....................................    ",
"    ................    ....................................    ",
"    ................    ....................................    ",
"    ................    ....................................    ",
"    ................    ....................................    ",
"    ................    ....................................    ",
"    ................    ....................................    ",
"    ................    ....................................    ",
"                                                                ",
"                                                                ",
"                                                                ",
"                                                                ",
"    ................................    ....................    ",
"    ................................    ....................    ",
"    ................................    ....................    ",
"    ................................    ....................    ",
"    ................................    ....................    ",
"    ................................    ....................    ",
"    ................................    ....................    ",
"    ................................    ....................    ",
"    ................................    ....................    ",
"    ................................    ....................    ",
"    ................................    ....................    ",
"    ................................    ....................    ",
"                                                                ",
"                                                                ",
"                                                                ",
"                                                                ",
"    ........................................................    ",
"    ........................................................    ",
"    ........................................................    ",
"    ........................................................    ",
"    ........................................................    ",
"    ........................................................    ",
"    ........................................................    ",
"    ........................................................    ",
"    ........................................................    ",
"    ........................................................    ",
"    ........................................................    ",
"    ........................................................    ",
"                                                                ",
"                                                                ",
"                                                                ",
"                                                                "
};
