/* XPM */
static char *b9865426b99d4e72dc04aeb7212de052OXCRSqWjtu0Tnlao[] = {
/* columns rows colors chars-per-pixel */
"64 64 11 1 ",
"  c #080000",
". c #876349",
"X c #B97371",
"o c #BE9070",
"O c #67979B",
"+ c #67979C",
"@ c #68989C",
"# c #CF9C9B",
"$ c #9CC8CC",
"% c #E3C6C5",
"& c white",
/* pixels */
"........................                ........................",
"........................                ........................",
"....................                        ....................",
"....................                        ....................",
"....oooooooooooo        ################       ooooooooooooo....",
"....oooooooooooo        ################       ooooooooooooo....",
"....oooooooooo      ##%%%%%%%%%%%%%%%%%%%%##     ooooooooooo....",
"....oooooooooo      ##%%%%%%%%%%%%%%%%%%%%##     ooooooooooo....",
"....ooooooooo   ##%%%%%%%%%%%%%%%%%%%%%%%%%%%%#    ooooooooo....",
"....ooooooooo   ##%%%%%%%%%%%%%%%%%%%%%%%%%%%%#    ooooooooo....",
"....ooooooo   ##%%%%%%%%%%%%%%%%%%%%%%%%%%%%%%%##    ooooooo....",
"....ooooooo   ##%%%%%%%%%%%%%%%%%%%%%%%%%%%%%%%##    ooooooo....",
".........    #%%%%%%%%%%%%%%%%%%%%%%%%%%%%%%%%%%%##    .........",
".........    #%%%%%%%%%%%%%%%%%%%%%%%%%%%%%%%%%%%##    .........",
".........    %%%%%%%%%%%%%%%%%%%%%%%%%%%%%%%%%%%%%%    .........",
".......    ##%%%%%%%%%%%%%%%%%%%%%%%%%%%%%%%%%%%%%%##    .......",
"....ooo    ##%%%%%%%%%%%%%%%%%%%%%%%%%%%%%%%%%%%%%%##    ooo....",
"....ooo    %%%%%%%%%%%%%%%%%%%%%%%%%%%%%%%%%%%%%%%%%%    ooo....",
"....ooo    %%%%%%%%%%%%%%%%%%%%%%%%%%%%%%%%%%%%%%%%%%    ooo....",
"....o    ##%%%%%%%%%%%%%%%%%%%%%%%%%%%%%%%%%%%%%%%%%%##    o....",
"....o    ##%%%%%%%%%%%%%%%%%%%%%%%%%%%%%%%%%%%%%%%%%%##    o....",
"....o    ##%%#        ##%%%%%%%%%%%%%%%%##       ##%%##    o....",
"....o    ##%%#        ##%%%%%%%%%%%%%%%%##       ##%%##    o....",
"....o    ##%% &&&&      %%%%%%%%%%%%%%%%  &&&&     %%##    o....",
"....o    ##%% &&&&      %%%%%%%%%%%%%%%%  &&&&     %%##    o....",
"....o    #### &&&&      %%%%%%%%%%%%%%%%  &&&&     ####    o....",
"....o    #### &&&&      %%%%%%%%%%%%%%%%  &&&&     ####    o....",
"....o    XX##           %%%%        %%%%           ##XX    o....",
".....    XX##           %%%%        %%%%           ##XX    .....",
".......    ##           %%            %%           ##    .......",
".......    ##           %%            %%           ##    .......",
".......    XX#        ##%%  &&&&&&&&  %%##       ##XX    .......",
"....ooo    XX#        ##%%  &&&&&&&&  %%##       ##XX    ooo....",
"....ooooo    #$$$$$$##%%%%            %%%%##$$$$$##    ooooo....",
"....ooooo    #$$$$$$##%%%%            %%%%##$$$$$##    ooooo....",
"....ooooo    X$$$$$$%%%%%%%%%%%%%%%%%%%%%%%%$$$$$XX    ooooo....",
"....ooooo    X$$$$$$%%%%%%%%%%%%%%%%%%%%%%%%$$$$$XX    ooooo....",
"....ooooooo   @@$$$$%%%%%%%%%%%%%%%%%%%%%%%%$$$++    ooooooo....",
"....ooooooo   @@$$$$%%%%%%%%%%%%%%%%%%%%%%%%$$$++    ooooooo....",
"....ooooooooo   ++$$##%%%%%%%%%%%%%%%%%%%%##$$O    ooooooooo....",
"....ooooooooo   ++$$##%%%%%%%%%%%%%%%%%%%%##$$O    ooooooooo....",
"....oooooooooo      OO##%%%%%%%%%%%%%%%%##++     ooooooooooo....",
"....oooooooooo      OO##%%%%%%%%%%%%%%%%##++     ooooooooooo....",
"....oooooooooooo        XX############XX       ooooooooooooo....",
"................        XX############XX       .................",
"..................                            ..................",
"..................                            ..................",
"................    ##%%                %%##   .................",
"....oooooooooooo    ##%%                %%##   ooooooooooooo....",
"....oooooooooo    ##%%%%################%%%%##   ooooooooooo....",
"....oooooooooo    ##%%  ##%%%%%%%%%%%%##  %%##   ooooooooooo....",
"....oooooooooo    ##%%  ##%%%%%%%%%%%%##  %%##   ooooooooooo....",
"....oooooooooo    ##%%  %%%%%%%%%%%%%%%%  %%##   ooooooooooo....",
"....oooooooooo    ##%%  %%%%%%%%%%%%%%%%  %%##   ooooooooooo....",
"....oooooooooooo        %%%%##    ##%%%%       ooooooooooooo....",
"....oooooooooooo        %%%%##    ##%%%%       ooooooooooooo....",
"....oooooooooooooo      %%%%%%    ##%%%%      oooooooooooooo....",
"....oooooooooooooo      %%%%%%    ##%%%%      oooooooooooooo....",
"....oooooooooooooooo      %%%%    ##%%      oooooooooooooooo....",
"....oooooooooooooooo      %%%%    ##%%      oooooooooooooooo....",
"......................                    ......................",
"......................                    ......................",
"........................      ....      ........................",
"........................      ....      ........................"
};
