/* XPM */
static char *df204082ad374c319660907b60ec9fa31GInfpqcIVoTaGqr[] = {
/* columns rows colors chars-per-pixel */
"64 64 7 1 ",
"  c #563D37",
". c #5D433D",
"X c #614540",
"o c #694E47",
"O c #6F554D",
"+ c #7E6158",
"@ c #8B6D64",
/* pixels */
"@@@@@@@@@@@@XXXXOOOO++++@@@@@@@@++++++++++++XXXX++++OOOO++++++++",
"@@@@@@@@@@@@XXXXOOOO++++@@@@@@@@++++++++++++XXXX++++OOOO++++++++",
"@@@@@@@@@@@@XXXXOOOO++++@@@@@@@@++++++++++++XXXX++++OOOO++++++++",
"@@@@@@@@@@@@XXXXOOOO++++@@@@@@@@++++++++++++XXXX++++OOOO++++++++",
"@@@@++++++++....++++@@@@@@@@++++@@@@@@@@++++    OOOO++++@@@@@@@@",
"@@@@++++++++....++++@@@@@@@@++++@@@@@@@@++++    OOOO++++@@@@@@@@",
"@@@@++++++++....++++@@@@@@@@++++@@@@@@@@++++    OOOO++++@@@@@@@@",
"@@@@++++++++....++++@@@@@@@@++++@@@@@@@@++++    OOOO++++@@@@@@@@",
"++++++++++++oooo@@@@@@@@@@@@@@@@++++++++++++XXXX++++++++@@@@@@@@",
"++++++++++++oooo@@@@@@@@@@@@@@@@++++++++++++XXXX++++++++@@@@@@@@",
"++++++++++++oooo@@@@@@@@@@@@@@@@++++++++++++XXXX++++++++@@@@@@@@",
"++++++++++++oooo@@@@@@@@@@@@@@@@++++++++++++XXXX++++++++@@@@@@@@",
"........oooooooooooo....................oooooooooooo............",
"........oooooooooooo....................oooooooooooo............",
"........oooooooooooo....................oooooooooooo............",
"........oooooooooooo....................oooooooooooo............",
"OOOOOOOO++++++++++++++++@@@@oooo++++OOOO++++++++++++++++++++XXXX",
"OOOOOOOO++++++++++++++++@@@@oooo++++OOOO++++++++++++++++++++XXXX",
"OOOOOOOO++++++++++++++++@@@@oooo++++OOOO++++++++++++++++++++XXXX",
"OOOOOOOO++++++++++++++++@@@@oooo++++OOOO++++++++++++++++++++XXXX",
"++++@@@@@@@@@@@@@@@@++++++++    OOOO@@@@@@@@++++++++++++++++    ",
"++++@@@@@@@@@@@@@@@@++++++++    OOOO@@@@@@@@++++++++++++++++    ",
"++++@@@@@@@@@@@@@@@@++++++++    OOOO@@@@@@@@++++++++++++++++    ",
"++++@@@@@@@@@@@@@@@@++++++++    OOOO@@@@@@@@++++++++++++++++    ",
"++++++++++++++++@@@@++++++++XXXX++++++++++++++++@@@@++++++++oooo",
"++++++++++++++++@@@@++++++++XXXX++++++++++++++++@@@@++++++++oooo",
"++++++++++++++++@@@@++++++++XXXX++++++++++++++++@@@@++++++++oooo",
"++++++++++++++++@@@@++++++++XXXX++++++++++++++++@@@@++++++++oooo",
"XXXX....................oooooooooooo        ............ooooXXXX",
"XXXX....................oooooooooooo        ............ooooXXXX",
"XXXX....................oooooooooooo        ............ooooXXXX",
"XXXX....................oooooooooooo        ............ooooXXXX",
"@@@@@@@@++++XXXX++++OOOO++++++++@@@@@@@@@@@@XXXXOOOOOOOO++++++++",
"@@@@@@@@++++XXXX++++OOOO++++++++@@@@@@@@@@@@XXXXOOOOOOOO++++++++",
"@@@@@@@@++++XXXX++++OOOO++++++++@@@@@@@@@@@@XXXXOOOOOOOO++++++++",
"@@@@@@@@++++XXXX++++OOOO++++++++@@@@@@@@@@@@XXXXOOOOOOOO++++++++",
"@@@@@@@@@@@@    OOOO@@@@@@@@@@@@++++++++@@@@    OOOO++++++++++++",
"@@@@@@@@@@@@    OOOO@@@@@@@@@@@@++++++++@@@@    OOOO++++++++++++",
"@@@@@@@@@@@@    OOOO@@@@@@@@@@@@++++++++@@@@    OOOO++++++++++++",
"@@@@@@@@@@@@    OOOO@@@@@@@@@@@@++++++++@@@@    OOOO++++++++++++",
"@@@@++++++++XXXX++++++++++++++++@@@@@@@@@@@@XXXX++++@@@@@@@@@@@@",
"@@@@++++++++XXXX++++++++++++++++@@@@@@@@@@@@XXXX++++@@@@@@@@@@@@",
"@@@@++++++++XXXX++++++++++++++++@@@@@@@@@@@@XXXX++++@@@@@@@@@@@@",
"@@@@++++++++XXXX++++++++++++++++@@@@@@@@@@@@XXXX++++@@@@@@@@@@@@",
"....    XXXXoooooooo....                XXXXXXXXXXXX        ....",
"....    XXXXoooooooo....                XXXXXXXXXXXX        ....",
"....    XXXXoooooooo....                XXXXXXXXXXXX        ....",
"....    XXXXoooooooo....                XXXXXXXXXXXX        ....",
"OOOOOOOO++++@@@@++++++++@@@@XXXXOOOOOOOO++++@@@@@@@@++++++++XXXX",
"OOOOOOOO++++@@@@++++++++@@@@XXXXOOOOOOOO++++@@@@@@@@++++++++XXXX",
"OOOOOOOO++++@@@@++++++++@@@@XXXXOOOOOOOO++++@@@@@@@@++++++++XXXX",
"OOOOOOOO++++@@@@++++++++@@@@XXXXOOOOOOOO++++@@@@@@@@++++++++XXXX",
"OOOO++++@@@@@@@@@@@@++++++++....++++@@@@++++++++@@@@++++++++    ",
"OOOO++++@@@@@@@@@@@@++++++++....++++@@@@++++++++@@@@++++++++    ",
"OOOO++++@@@@@@@@@@@@++++++++....++++@@@@++++++++@@@@++++++++    ",
"OOOO++++@@@@@@@@@@@@++++++++....++++@@@@++++++++@@@@++++++++    ",
"@@@@@@@@@@@@++++++++++++++++XXXX++++++++++++@@@@@@@@@@@@@@@@oooo",
"@@@@@@@@@@@@++++++++++++++++XXXX++++++++++++@@@@@@@@@@@@@@@@oooo",
"@@@@@@@@@@@@++++++++++++++++XXXX++++++++++++@@@@@@@@@@@@@@@@oooo",
"@@@@@@@@@@@@++++++++++++++++XXXX++++++++++++@@@@@@@@@@@@@@@@oooo",
"XXXX....        ........ooooooooXXXX........        ....XXXXXXXX",
"XXXX....        ........ooooooooXXXX........        ....XXXXXXXX",
"XXXX....        ........ooooooooXXXX........        ....XXXXXXXX",
"XXXX....        ........ooooooooXXXX........        ....XXXXXXXX"
};
